; generated by PrusaSlicer 2.6.1+win64 on 2024-01-27 at 20:31:59 UTC


;
;

;
;

;
;
; 

; external perimeters extrusion width = 0.45mm
; perimeters extrusion width = 0.45mm
; infill extrusion width = 0.45mm
; solid infill extrusion width = 0.45mm
; top infill extrusion width = 0.40mm
; first layer extrusion width = 0.50mm

M73 P0 R5
M201 X2500 Y2500 Z200 E2500 ; sets maximum accelerations, mm/sec^2
M203 X200 Y200 Z40 E100 ; sets maximum feedrates, mm / sec
M204 P2000 R1200 T2000 ; sets acceleration (P, T) and retract acceleration (R), mm/sec^2
M205 X8.00 Y8.00 Z2.00 E10.00 ; sets the jerk limits, mm/sec
M205 S0 T0 ; sets the minimum extruding and travel feed rate, mm/sec
;TYPE:Custom
M17 ; enable steppers
M862.3 P "MK4" ; printer model check
M862.1 P0.4 ; nozzle diameter check
M555 X123.267 Y80.662 W32 H44.676

G90 ; use absolute coordinates
M83 ; extruder relative mode

M140 S60 ; set bed temp

M104 S170 ; set extruder temp for bed leveling
M109 R170 ; wait for temp


M84 E ; turn off E motor

G28 ; home all without mesh bed level

G1 X42 Y-4 Z5 F4800

M302 S160 ; lower cold extrusion limit to 160C


G1 E-2 F2400 ; retraction


M84 E ; turn off E motor

G29 P9 X10 Y-4 W32 H4

M106 S100

G0 Z40 F10000

M190 S60 ; wait for bed temp

M107

;
; MBL
;
M84 E ; turn off E motor
G29 P1 ; invalidate mbl & probe print area
G29 P1 X0 Y0 W50 H20 C ; probe near purge place
G29 P3.2 ; interpolate mbl probes
G29 P3.13 ; extrapolate mbl outside probe area
G29 A ; activate mbl

; prepare for purge
M104 S220
G0 X0 Y-4 Z15 F4800 ; move away and ready for the purge
M109 S220

G92 E0
M569 S0 E ; set spreadcycle mode for extruder

;
; Extrude purge line
;
G92 E0 ; reset extruder position
G1 E2 F2400 ; deretraction after the initial one before nozzle cleaning
G0 E7 X15 Z0.2 F500 ; purge
G0 X25 E4 F500 ; purge
G0 X35 E4 F650 ; purge
G0 X45 E4 F800 ; purge
G0 X48 Z0.05 F8000 ; wipe, move close to the bed
G0 X51 Z0.2 F8000 ; wipe, move quickly away from the bed

G92 E0
M221 S100 ; set flow to 100%
G21 ; set units to millimeters
G90 ; use absolute coordinates
M83 ; use relative distances for extrusion
M900 K0.05 ; Filament gcode



M142 S36 ; set heatbreak target temp
M107
;LAYER_CHANGE
;Z:0.2
;HEIGHT:0.2
;BEFORE_LAYER_CHANGE
G92 E0.0
;0.2


G1 E-2.8 F2100
G1 Z.2 F720
;AFTER_LAYER_CHANGE
;0.2
; printing object v105buttons.stl id:0 copy 0
G1 X124.391 Y119.681 F12000
G1 E2.8 F1500
M204 P600
;TYPE:Perimeter
;WIDTH:0.499999
M73 P1 R5
G1 F1200
G1 X124.316 Y119.707 E.00302
M73 P2 R5
G1 X124.139 Y119.894 E.00979
G1 X124.163 Y119.63 E.01008
G1 X124.172 Y117.22 E.0916
G1 X124.127 Y116.507 E.02715
G1 X124.184 Y116.58 E.00352
G1 X124.605 Y116.833 E.01867
G1 X125.262 Y116.862 E.02499
G1 X126.708 Y116.865 E.05496
G1 X126.884 Y117.041 E.00946
G1 X126.884 Y119.375 E.08871
G1 X126.708 Y119.551 E.00946
G1 X125.24 Y119.554 E.05579
G1 X124.7 Y119.573 E.02054
G1 X124.447 Y119.661 E.01018
M204 P1000
G1 X124.63 Y120.06 F12000
M204 P600
;TYPE:External perimeter
G1 F1200
G1 X124.588 Y120.074 E.00168
G1 X124.327 Y120.396 E.01575
G1 X124.022 Y120.869 E.02139
G1 X123.783 Y121.14 E.01373
;WIDTH:0.470136
G1 X123.544 Y121.412 E.01286
;WIDTH:0.440273
G1 X123.509 Y121.549 E.00467
G1 X123.49 Y121.389 E.00532
;WIDTH:0.470136
G1 X123.516 Y121.012 E.01342
;WIDTH:0.499999
G1 X123.542 Y120.634 E.0144
G1 X123.655 Y120.125 E.01982
G1 X123.706 Y119.628 E.01899
G1 X123.715 Y117.249 E.09042
G1 X123.65 Y116.261 E.03763
G1 X123.541 Y115.748 E.01993
G1 X123.515 Y115.387 E.01376
;WIDTH:0.468616
G1 X123.489 Y115.027 E.01278
;WIDTH:0.437233
G1 X123.509 Y114.883 E.00477
G1 X123.545 Y115.003 E.00411
;WIDTH:0.468616
G1 X123.783 Y115.275 E.01279
;WIDTH:0.499999
G1 X124.022 Y115.547 E.01376
G1 X124.232 Y115.895 E.01545
G1 X124.544 Y116.298 E.01937
G1 X124.716 Y116.386 E.00734
G1 X125.263 Y116.405 E.0208
G1 X126.897 Y116.408 E.0621
G1 X127.341 Y116.852 E.02386
G1 X127.341 Y117.166 E.01193
M73 P3 R5
G1 X127.341 Y119.564 E.09114
G1 X126.897 Y120.008 E.02386
G1 X125.256 Y120.011 E.06237
G1 X124.716 Y120.03 E.02054
G1 X124.686 Y120.04 E.0012
M204 P1000
G1 X124.599 Y120.029 F12000
G1 E-2.24 F2100
;WIPE_START
G1 F9600
G1 X124.588 Y120.074 E-.02156
G1 X124.327 Y120.396 E-.08614
G1 X124.022 Y120.869 E-.11696
G1 X123.783 Y121.14 E-.07509
G1 X123.544 Y121.412 E-.07525
G1 X123.509 Y121.549 E-.02938
G1 X123.49 Y121.389 E-.03348
G1 X123.516 Y121.012 E-.07853
G1 X123.53 Y120.803 E-.04361
;WIPE_END
G1 X126.002 Y123.138 F12000
G1 E2.8 F1500
M204 P600
;WIDTH:0.399994
G1 F1200
G1 X123.687 Y123.138 E.06873
;WIDTH:0.430624
G1 X123.614 Y123.123 E.0024
;WIDTH:0.461254
G1 X123.54 Y123.107 E.00263
G1 X123.524 Y123.033 E.00263
;WIDTH:0.430624
G1 X123.509 Y122.959 E.00243
;WIDTH:0.399994
G1 X123.509 Y121.549 E.04186
M204 P1000
G1 E-2.24 F2100
;WIPE_START
G1 F9600
G1 X123.509 Y122.959 E-.29302
G1 X123.524 Y123.033 E-.01569
G1 X123.54 Y123.107 E-.01573
G1 X123.614 Y123.123 E-.01573
G1 X123.687 Y123.138 E-.01549
G1 X124.67 Y123.138 E-.20434
;WIPE_END
G1 X126.192 Y123.338 F12000
G1 E2.8 F1500
M204 P600
;WIDTH:0.421461
G1 F1200
G1 X126.002 Y123.138 E.00868
G1 X126.57 Y123.149 E.01788
G1 X126.57 Y124.759 E.05068
G1 X126.533 Y124.965 E.00659
G1 X126.233 Y124.964 E.00944
G1 X126.192 Y124.81 E.00502
G1 X126.192 Y123.398 E.04444
M204 P1000
G1 X126.332 Y123.101 F12000
G1 E-2.24 F2100
;WIPE_START
G1 F9600
G1 X126.002 Y123.138 E-.06692
G1 X126.57 Y123.149 E-.11806
G1 X126.57 Y124.759 E-.33458
G1 X126.536 Y124.951 E-.04044
;WIPE_END
G1 X123.509 Y108.341 F12000
G1 E2.8 F1500
M204 P600
;WIDTH:0.399994
G1 F1200
G1 X123.509 Y114.867 E.19376
;WIDTH:0.401354
G1 X123.509 Y114.883 E.00048
M204 P1000
G1 E-2.24 F2100
;WIPE_START
G1 F9600
G1 X123.509 Y114.867 E-.00332
G1 X123.509 Y112.188 E-.55668
;WIPE_END
G1 X124.39 Y106.474 F12000
G1 E2.8 F1500
M204 P600
;TYPE:Perimeter
;WIDTH:0.499999
G1 F1200
G1 X124.315 Y106.5 E.00302
G1 X124.139 Y106.686 E.00973
G1 X124.163 Y106.423 E.01004
G1 X124.173 Y104.679 E.06628
G1 X124.17 Y104.154 E.01995
G1 X124.139 Y103.314 E.03195
G1 X124.263 Y103.458 E.00722
G1 X124.7 Y103.635 E.01792
G1 X125.262 Y103.654 E.02137
G1 X126.708 Y103.657 E.05496
G1 X126.884 Y103.833 E.00946
G1 X126.884 Y106.167 E.08871
G1 X126.708 Y106.343 E.00946
G1 X125.24 Y106.346 E.05579
G1 X124.7 Y106.365 E.02054
G1 X124.446 Y106.454 E.01023
M204 P1000
G1 X124.629 Y106.852 F12000
M204 P600
;TYPE:External perimeter
G1 F1200
G1 X124.588 Y106.867 E.00166
G1 X124.327 Y107.188 E.01572
G1 X124.022 Y107.661 E.02139
G1 X123.783 Y107.932 E.01373
;WIDTH:0.470136
G1 X123.544 Y108.204 E.01286
;WIDTH:0.440273
G1 X123.509 Y108.341 E.00467
M73 P4 R5
G1 X123.49 Y108.181 E.00532
;WIDTH:0.470136
G1 X123.516 Y107.821 E.01282
;WIDTH:0.499999
G1 X123.541 Y107.46 E.01375
G1 X123.65 Y106.947 E.01993
G1 X123.706 Y106.42 E.02014
G1 X123.716 Y104.676 E.06628
G1 X123.705 Y103.558 E.04249
G1 X123.65 Y103.053 E.01931
G1 X123.541 Y102.54 E.01993
G1 X123.515 Y102.179 E.01376
;WIDTH:0.468616
G1 X123.489 Y101.819 E.01278
;WIDTH:0.437233
G1 X123.509 Y101.675 E.00477
G1 X123.545 Y101.795 E.00411
;WIDTH:0.468616
G1 X123.783 Y102.067 E.01279
;WIDTH:0.499999
G1 X124.022 Y102.339 E.01376
G1 X124.232 Y102.687 E.01545
G1 X124.544 Y103.09 E.01937
G1 X124.716 Y103.178 E.00734
G1 X125.263 Y103.197 E.0208
G1 X126.897 Y103.2 E.0621
G1 X127.341 Y103.644 E.02386
G1 X127.341 Y106.356 E.10307
G1 X126.897 Y106.8 E.02386
G1 X125.256 Y106.803 E.06237
G1 X124.716 Y106.822 E.02054
G1 X124.686 Y106.832 E.0012
M204 P1000
G1 X124.599 Y106.821 F12000
G1 E-2.24 F2100
;WIPE_START
G1 F9600
G1 X124.588 Y106.867 E-.02163
G1 X124.327 Y107.188 E-.08598
G1 X124.022 Y107.661 E-.11696
G1 X123.783 Y107.932 E-.07509
G1 X123.544 Y108.204 E-.07525
G1 X123.509 Y108.341 E-.02938
G1 X123.49 Y108.181 E-.03348
G1 X123.516 Y107.821 E-.07501
G1 X123.532 Y107.594 E-.04722
;WIPE_END
G1 X123.509 Y95.133 F12000
G1 E2.8 F1500
M204 P600
;WIDTH:0.399994
G1 F1200
G1 X123.509 Y101.659 E.19376
;WIDTH:0.401354
G1 X123.509 Y101.675 E.00048
M204 P1000
G1 E-2.24 F2100
;WIPE_START
G1 F9600
G1 X123.509 Y101.659 E-.00332
G1 X123.509 Y98.98 E-.55668
;WIPE_END
G1 X124.328 Y90.276 F12000
G1 E2.8 F1500
M204 P600
;TYPE:Perimeter
;WIDTH:0.499999
G1 F1200
G1 X124.7 Y90.427 E.01526
G1 X125.262 Y90.446 E.02137
G1 X126.708 Y90.449 E.05496
G1 X126.884 Y90.625 E.00946
G1 X126.884 Y92.959 E.08871
G1 X126.708 Y93.135 E.00946
G1 X125.24 Y93.138 E.05579
G1 X124.7 Y93.157 E.02054
G1 X124.315 Y93.292 E.01551
G1 X124.139 Y93.478 E.00973
G1 X124.163 Y93.215 E.01004
G1 X124.173 Y91.471 E.06628
G1 X124.17 Y90.946 E.01995
G1 X124.139 Y90.106 E.03195
G1 X124.273 Y90.253 E.00756
M204 P1000
G1 X124.601 Y89.911 F12000
M204 P600
;TYPE:External perimeter
G1 F1200
G1 X124.716 Y89.97 E.00491
G1 X125.263 Y89.989 E.0208
G1 X126.897 Y89.992 E.0621
G1 X127.341 Y90.436 E.02386
G1 X127.341 Y93.148 E.10307
G1 X126.897 Y93.592 E.02386
G1 X125.256 Y93.595 E.06237
G1 X124.716 Y93.614 E.02054
G1 X124.588 Y93.659 E.00516
G1 X124.327 Y93.98 E.01572
G1 X124.022 Y94.453 E.02139
G1 X123.783 Y94.724 E.01373
;WIDTH:0.470136
G1 X123.544 Y94.996 E.01286
;WIDTH:0.440273
G1 X123.509 Y95.133 E.00467
G1 X123.49 Y94.973 E.00532
;WIDTH:0.470136
G1 X123.516 Y94.613 E.01282
;WIDTH:0.499999
G1 X123.541 Y94.252 E.01375
G1 X123.65 Y93.739 E.01993
G1 X123.706 Y93.212 E.02014
G1 X123.716 Y91.468 E.06628
G1 X123.705 Y90.35 E.04249
G1 X123.65 Y89.845 E.01931
G1 X123.541 Y89.332 E.01993
G1 X123.515 Y88.971 E.01376
;WIDTH:0.468616
G1 X123.489 Y88.611 E.01278
;WIDTH:0.437233
G1 X123.509 Y88.467 E.00477
G1 X123.545 Y88.587 E.00411
;WIDTH:0.468616
G1 X123.783 Y88.859 E.01279
;WIDTH:0.499999
G1 X124.022 Y89.131 E.01376
M73 P5 R5
G1 X124.232 Y89.479 E.01545
G1 X124.547 Y89.884 E.0195
M204 P1000
G1 X124.588 Y90.04 F12000
G1 E-2.24 F2100
;WIPE_START
G1 F9600
G1 X124.716 Y89.97 E-.03941
G1 X125.263 Y89.989 E-.11374
G1 X126.897 Y89.992 E-.33957
G1 X127.126 Y90.221 E-.06728
;WIPE_END
G1 X126.033 Y86.861 F12000
G1 E2.8 F1500
M204 P600
;WIDTH:0.402708
G1 F1200
G1 X126.002 Y86.862 E.00093
;WIDTH:0.400002
G1 X123.687 Y86.862 E.06874
;WIDTH:0.430631
G1 X123.614 Y86.877 E.0024
;WIDTH:0.46126
G1 X123.54 Y86.893 E.00263
G1 X123.524 Y86.967 E.00263
;WIDTH:0.430627
G1 X123.509 Y87.041 E.00243
;WIDTH:0.401354
G1 X123.509 Y88.467 E.0425
M204 P1000
G1 E-2.24 F2100
;WIPE_START
G1 F9600
G1 X123.509 Y87.041 E-.29634
G1 X123.524 Y86.967 E-.01569
G1 X123.54 Y86.893 E-.01573
G1 X123.614 Y86.877 E-.01573
G1 X123.687 Y86.862 E-.01549
G1 X124.654 Y86.862 E-.20102
;WIPE_END
G1 X126.192 Y86.662 F12000
G1 E2.8 F1500
M204 P600
;WIDTH:0.421461
G1 F1200
G1 X126.192 Y85.241 E.04473
G1 X126.233 Y85.036 E.00658
G1 X126.533 Y85.035 E.00944
G1 X126.57 Y85.171 E.00444
G1 X126.57 Y86.851 E.05288
G1 X126.033 Y86.861 E.01691
G1 X126.154 Y86.709 E.00612
M204 P1000
G1 X126.443 Y86.351 F12000
G1 E-2.24 F2100
;WIPE_START
G1 F9600
G1 X126.192 Y85.241 E-.30517
G1 X126.233 Y85.036 E-.04345
G1 X126.533 Y85.035 E-.06234
G1 X126.57 Y85.171 E-.02929
G1 X126.57 Y85.747 E-.11975
;WIPE_END
G1 X126.678 Y91.642 F12000
G1 E2.8 F1500
M204 P600
;TYPE:Solid infill
;WIDTH:0.529955
G1 F1200
G1 X125.895 Y90.859 E.04484
G1 X125.203 Y90.856 E.02802
G1 X126.473 Y92.125 E.07271
G1 X126.473 Y92.724 E.02426
G1 X126.384 Y92.725 E.0036
G1 X124.581 Y90.922 E.10326
G1 X124.583 Y91.613 E.02798
G1 X125.696 Y92.726 E.06374
G1 X125.016 Y92.735 E.02754
G1 X124.375 Y92.094 E.03671
M204 P1000
G1 E-2.24 F2100
;WIPE_START
G1 F9600
G1 X125.016 Y92.735 E-.18838
G1 X125.696 Y92.726 E-.14132
G1 X124.912 Y91.942 E-.2303
;WIPE_END
G1 X126.678 Y104.85 F12000
G1 E2.8 F1500
M204 P600
G1 F1200
G1 X125.895 Y104.067 E.04484
G1 X125.203 Y104.064 E.02802
G1 X126.473 Y105.333 E.07271
G1 X126.473 Y105.932 E.02426
G1 X126.384 Y105.933 E.0036
G1 X124.581 Y104.13 E.10326
G1 X124.583 Y104.821 E.02798
G1 X125.696 Y105.934 E.06374
G1 X125.016 Y105.943 E.02754
G1 X124.375 Y105.302 E.03671
M204 P1000
G1 E-2.24 F2100
;WIPE_START
G1 F9600
G1 X125.016 Y105.943 E-.18838
G1 X125.696 Y105.934 E-.14132
G1 X124.912 Y105.15 E-.2303
;WIPE_END
G1 X126.678 Y118.058 F12000
G1 E2.8 F1500
M204 P600
;WIDTH:0.529947
G1 F1200
G1 X125.895 Y117.275 E.04484
M73 P6 R5
G1 X125.203 Y117.271 E.02802
G1 X126.473 Y118.541 E.07273
G1 X126.473 Y119.14 E.02426
G1 X126.384 Y119.141 E.0036
G1 X124.584 Y117.341 E.10309
G1 X124.581 Y118.027 E.02778
G1 X125.696 Y119.142 E.06386
G1 X125.016 Y119.151 E.02754
G1 X124.373 Y118.508 E.03683
M204 P1000
; stop printing object v105buttons.stl id:0 copy 0
M106 S127.5
;LAYER_CHANGE
;Z:0.35
;HEIGHT:0.15
;BEFORE_LAYER_CHANGE
G92 E0.0
;0.35


G1 E-2.24 F2100
;WIPE_START
G1 F9600
G1 X125.016 Y119.151 E-.18897
G1 X125.696 Y119.142 E-.14132
G1 X124.914 Y118.36 E-.22971
;WIPE_END
G1 Z.35 F720
;AFTER_LAYER_CHANGE
;0.35
M104 S215 ; set temperature
; printing object v105buttons.stl id:0 copy 0
G1 X124.487 Y119.946 F12000
G1 E2.8 F1500
M204 P900
;TYPE:Perimeter
;WIDTH:0.449999
G1 X124.359 Y119.999 E.00361
G1 X123.835 Y120.522 E.01929
G1 X123.835 Y115.894 E.12059
G1 X124.359 Y116.417 E.01929
G1 X124.802 Y116.601 E.0125
G1 X126.818 Y116.601 E.05253
G1 X127.148 Y116.931 E.01216
G1 X127.148 Y119.485 E.06655
G1 X126.818 Y119.815 E.01216
G1 X124.802 Y119.815 E.05253
G1 X124.542 Y119.923 E.00734
M204 P1000
G1 X124.68 Y120.284 F12000
M204 P700
;TYPE:External perimeter
G1 F1500
G1 X124.655 Y120.294 E.0007
G1 X123.581 Y121.382 E.03983
;WIDTH:0.430086
G1 X123.509 Y121.551 E.00456
G1 X123.408 Y121.311 E.00646
;WIDTH:0.449999
G1 X123.418 Y116.634 E.12186
G1 X123.407 Y115.105 E.03984
;WIDTH:0.42869
G1 X123.509 Y114.881 E.00609
G1 X123.581 Y115.033 E.00416
;WIDTH:0.449999

G1 X124.655 Y116.122 E.03985
G1 X124.802 Y116.183 E.00415
G1 X126.991 Y116.183 E.05704
G1 X127.566 Y116.758 E.02119
G1 X127.566 Y117.165 E.0106

G1 X127.566 Y119.658 E.06496
G1 X126.991 Y120.233 E.02119
G1 X124.802 Y120.233 E.05704
G1 X124.736 Y120.261 E.00187
M204 P1000
G1 X124.66 Y120.264 F12000
G1 E-2.24 F2100
;WIPE_START
G1 F9600
G1 X124.655 Y120.294 E-.01818
G1 X123.581 Y121.382 E-.3177
G1 X123.509 Y121.551 E-.03817
G1 X123.408 Y121.311 E-.05411
G1 X123.409 Y120.677 E-.13184
;WIPE_END
G1 X125.997 Y123.138 F12000
G1 E2.8 F1500
M204 P700
;WIDTH:0.399994
G1 X123.693 Y123.138 E.05285
;WIDTH:0.431546
G1 X123.617 Y123.122 E.00193
;WIDTH:0.463098
G1 X123.541 Y123.106 E.00209
G1 X123.525 Y123.03 E.00209
;WIDTH:0.431546
G1 X123.509 Y122.954 E.00193
;WIDTH:0.399994
G1 X123.509 Y121.551 E.03218
M204 P1000
G1 E-2.24 F2100
;WIPE_START
G1 F9600
G1 X123.509 Y122.954 E-.29156
G1 X123.525 Y123.03 E-.01614
M73 P7 R5
G1 X123.541 Y123.106 E-.01614
G1 X123.617 Y123.122 E-.01614
G1 X123.693 Y123.138 E-.01614
G1 X124.674 Y123.138 E-.20388
;WIPE_END
G1 X126.189 Y123.338 F12000
G1 E2.8 F1500
M204 P700
;WIDTH:0.416096
G1 X125.997 Y123.138 E.00664
G1 X126.573 Y123.146 E.01379
G1 X126.573 Y125.13 E.0475
G1 X126.189 Y125.13 E.00919
G1 X126.189 Y123.398 E.04147
M204 P1000
G1 X126.314 Y123.09 F12000
G1 E-2.24 F2100
;WIPE_START
G1 F9600
G1 X125.997 Y123.138 E-.06717
G1 X126.573 Y123.146 E-.11971
G1 X126.573 Y124.941 E-.37312
;WIPE_END
G1 X123.509 Y108.343 F12000
G1 E2.8 F1500
M204 P700
;WIDTH:0.399994
G1 X123.509 Y114.865 E.1496
;WIDTH:0.401398
G1 X123.509 Y114.881 E.00037
M204 P1000
G1 E-2.24 F2100
;WIPE_START
G1 F9600
G1 X123.509 Y114.865 E-.00332
G1 X123.509 Y112.186 E-.55668
;WIPE_END
G1 X124.487 Y106.738 F12000
G1 E2.8 F1500
M204 P900
;TYPE:Perimeter
;WIDTH:0.449999
G1 X124.359 Y106.791 E.00361
G1 X123.835 Y107.314 E.01929
G1 X123.835 Y102.686 E.12059
G1 X124.359 Y103.209 E.01929
G1 X124.802 Y103.393 E.0125
G1 X126.818 Y103.393 E.05253
G1 X127.148 Y103.723 E.01216
G1 X127.148 Y106.277 E.06655
G1 X126.818 Y106.607 E.01216
G1 X124.802 Y106.607 E.05253
G1 X124.542 Y106.715 E.00734
M204 P1000
G1 X124.68 Y107.076 F12000
M204 P700
;TYPE:External perimeter
G1 F1500
G1 X124.655 Y107.086 E.0007
G1 X123.581 Y108.174 E.03983
;WIDTH:0.430086
G1 X123.509 Y108.343 E.00456
G1 X123.408 Y108.103 E.00646
;WIDTH:0.449999
G1 X123.418 Y103.426 E.12186
G1 X123.407 Y101.897 E.03984
;WIDTH:0.42869
G1 X123.509 Y101.673 E.00609
G1 X123.581 Y101.825 E.00416
;WIDTH:0.449999
G1 X124.655 Y102.914 E.03985
G1 X124.802 Y102.975 E.00415
G1 X126.991 Y102.975 E.05704
G1 X127.566 Y103.55 E.02119
