; generated by PrusaSlicer 2.6.1+win64 on 2024-02-09 at 22:37:12 UTC


;
;

;
;

;
;
; 

; external perimeters extrusion width = 0.45mm
; perimeters extrusion width = 0.45mm
; infill extrusion width = 0.45mm
; solid infill extrusion width = 0.45mm
; top infill extrusion width = 0.40mm
; first layer extrusion width = 0.50mm

M73 P0 R36
M201 X2500 Y2500 Z200 E2500 ; sets maximum accelerations, mm/sec^2
M203 X200 Y200 Z40 E100 ; sets maximum feedrates, mm / sec
M204 P2000 R1200 T2000 ; sets acceleration (P, T) and retract acceleration (R), mm/sec^2
M205 X8.00 Y8.00 Z2.00 E10.00 ; sets the jerk limits, mm/sec
M205 S0 T0 ; sets the minimum extruding and travel feed rate, mm/sec
;TYPE:Custom
M17 ; enable steppers
M862.3 P "MK4" ; printer model check
M862.1 P0.4 ; nozzle diameter check
M555 X95.531 Y76.675 W58.938 H52.65

G90 ; use absolute coordinates
M83 ; extruder relative mode

M140 S60 ; set bed temp

M104 S170 ; set extruder temp for bed leveling
M109 R170 ; wait for temp


M84 E ; turn off E motor

G28 ; home all without mesh bed level

G1 X42 Y-4 Z5 F4800

M302 S160 ; lower cold extrusion limit to 160C


G1 E-2 F2400 ; retraction


M84 E ; turn off E motor

G29 P9 X10 Y-4 W32 H4

M106 S100

G0 Z40 F10000

M190 S60 ; wait for bed temp

M107

;
; MBL
;
M84 E ; turn off E motor
G29 P1 ; invalidate mbl & probe print area
G29 P1 X0 Y0 W50 H20 C ; probe near purge place
G29 P3.2 ; interpolate mbl probes
G29 P3.13 ; extrapolate mbl outside probe area
G29 A ; activate mbl

; prepare for purge
M104 S220
G0 X0 Y-4 Z15 F4800 ; move away and ready for the purge
M109 S220

G92 E0
M569 S0 E ; set spreadcycle mode for extruder

;
; Extrude purge line
;
G92 E0 ; reset extruder position
G1 E2 F2400 ; deretraction after the initial one before nozzle cleaning
G0 E7 X15 Z0.2 F500 ; purge
G0 X25 E4 F500 ; purge
G0 X35 E4 F650 ; purge
G0 X45 E4 F800 ; purge
G0 X48 Z0.05 F8000 ; wipe, move close to the bed
G0 X51 Z0.2 F8000 ; wipe, move quickly away from the bed

G92 E0
M221 S100 ; set flow to 100%
G21 ; set units to millimeters
G90 ; use absolute coordinates
M83 ; use relative distances for extrusion
M900 K0.05 ; Filament gcode



M142 S36 ; set heatbreak target temp
M107
;LAYER_CHANGE
;Z:0.2
;HEIGHT:0.2
;BEFORE_LAYER_CHANGE
G92 E0.0
;0.2


G1 E-2.8 F2100
G1 Z.2 F720
;AFTER_LAYER_CHANGE
;0.2
; printing object v169newback.stl id:0 copy 0
G1 X135.6 Y84.896 F12000
G1 E2.8 F1500
M204 P600
;TYPE:External perimeter
;WIDTH:0.499999
G1 F1200
G1 X135.6 Y81.125 E.14332
G1 X140.305 Y81.125 E.17882
G1 X144.238 Y85.058 E.21139
G1 X144.4 Y85.125 E.00666
G1 X150.886 Y85.117 E.24651
;WIDTH:0.509787
G1 X151.524 Y85.11 E.02477
G1 X152.057 Y85.086 E.02071
;WIDTH:0.499999
G1 X152.971 Y85.118 E.03476
G1 X154.024 Y85.124 E.04002
G1 X154.054 Y85.881 E.02879
;WIDTH:0.514094
G1 X154.134 Y86.686 E.03169
G1 X154.169 Y87.325 E.02507
;WIDTH:0.498434
G1 X154.148 Y87.854 E.02005
;WIDTH:0.515346
G1 X154.075 Y88.397 E.02152
G1 X154.043 Y88.993 E.02345
;WIDTH:0.499999
G1 X154.02 Y89.632 E.0243
G1 X154.019 Y124.875 E1.33946
G1 X144.4 Y124.875 E.36558
G1 X144.238 Y124.942 E.00666
G1 X140.305 Y128.875 E.21139
G1 X135.6 Y128.875 E.17882
G1 X135.6 Y125.104 E.14332
G1 X135.533 Y124.942 E.00666
G1 X135.371 Y124.875 E.00666
G1 X114.629 Y124.875 E.78833
G1 X114.467 Y124.942 E.00666
G1 X114.4 Y125.104 E.00666
M73 P0 R35
G1 X114.4 Y128.875 E.14332
G1 X109.695 Y128.875 E.17882
G1 X105.762 Y124.942 E.21139
G1 X105.6 Y124.875 E.00666
G1 X100.362 Y124.89 E.19908
;WIDTH:0.515384
G1 X99.761 Y124.931 E.02367
G1 X99.218 Y125.004 E.02152
;WIDTH:0.498601
G1 X98.674 Y125.024 E.02063
;WIDTH:0.513227
G1 X98.048 Y124.991 E.02451
G1 X97.547 Y124.924 E.01977
;WIDTH:0.50698
G1 X97.031 Y124.888 E.01996
;WIDTH:0.499999
G1 X95.981 Y124.878 E.03991
G1 X95.981 Y85.125 E1.51086
G1 X105.6 Y85.125 E.36558
G1 X105.762 Y85.058 E.00666
G1 X109.695 Y81.125 E.21139
G1 X114.4 Y81.125 E.17882
G1 X114.4 Y84.896 E.14332
G1 X114.467 Y85.058 E.00666
G1 X114.629 Y85.125 E.00666
G1 X121.588 Y85.125 E.26449
;WIDTH:0.539196
G1 X121.892 Y85.145 E.01257
;WIDTH:0.578393
G1 X122.195 Y85.164 E.01352
;WIDTH:0.585825
G1 X122.77 Y85.168 E.02596
;WIDTH:0.613604
G1 X123.336 Y85.182 E.02687
G1 X123.527 Y85.163 E.00911
;WIDTH:0.575736
G1 X123.719 Y85.144 E.00855
;WIDTH:0.537868
G1 X123.911 Y85.125 E.00794
;WIDTH:0.499999
G1 X135.371 Y85.125 E.43555
G1 X135.533 Y85.058 E.00666
G1 X135.577 Y84.952 E.00436
M204 P1000
G1 E-2.24 F2100
;WIPE_START
G1 F9600
G1 X135.593 Y82.257 E-.56
;WIPE_END
G1 X150.307 Y86.757 F12000
G1 E2.8 F1500
M204 P600
G1 F1200
G1 X150.465 Y86.396 E.01498
G1 X150.783 Y86.006 E.01913
G1 X151.163 Y85.733 E.01778
;WIDTH:0.506364
G1 X151.62 Y85.568 E.01872
G1 X152.034 Y85.542 E.01599
;WIDTH:0.504248
G1 X152.549 Y85.585 E.01982
G1 X153.002 Y85.777 E.01887
;WIDTH:0.499999
G1 X153.376 Y86.105 E.01891
;WIDTH:0.527039
G1 X153.625 Y86.524 E.01962
G1 X153.702 Y86.952 E.01751
;WIDTH:0.500724
G1 X153.715 Y87.613 E.02517
;WIDTH:0.519354
G1 X153.622 Y88.169 E.02233
G1 X153.329 Y88.648 E.02224
;WIDTH:0.499999
G1 X152.95 Y88.957 E.01859
G1 X152.561 Y89.124 E.01609
G1 X152.021 Y89.197 E.02071
G1 X151.543 Y89.126 E.01837
G1 X151.1 Y88.934 E.01835
G1 X150.722 Y88.634 E.01834
G1 X150.434 Y88.246 E.01836
G1 X150.256 Y87.797 E.01836
G1 X150.201 Y87.317 E.01836
G1 X150.284 Y86.812 E.01945
M204 P1000
G1 E-2.24 F2100
;WIPE_START
G1 F9600
G1 X150.465 Y86.396 E-.09428
G1 X150.783 Y86.006 E-.10457
G1 X151.163 Y85.733 E-.09724
G1 X151.62 Y85.568 E-.10097
G1 X152.034 Y85.542 E-.0862
G1 X152.402 Y85.573 E-.07674
;WIPE_END
G1 X124.627 Y87.13 F12000
G1 E2.8 F1500
M204 P600
G1 F1200
G1 X124.691 Y87.631 E.0192
G1 X124.62 Y88.109 E.01837
G1 X124.428 Y88.552 E.01835
G1 X124.101 Y88.951 E.01961
M73 P1 R35
G1 X123.74 Y89.218 E.01707
G1 X123.291 Y89.396 E.01836
G1 X122.811 Y89.451 E.01836
G1 X122.381 Y89.394 E.01649
G1 X121.91 Y89.202 E.01933
G1 X121.516 Y88.893 E.01903
G1 X121.224 Y88.5 E.01861
G1 X121.046 Y88.051 E.01836
G1 X120.991 Y87.571 E.01836
G1 X121.062 Y87.093 E.01837
G1 X121.254 Y86.65 E.01835
G1 X121.554 Y86.272 E.01834
G1 X121.942 Y85.984 E.01836
;WIDTH:0.537868
G1 X122.089 Y85.906 E.00685
;WIDTH:0.575736
G1 X122.236 Y85.828 E.00737
;WIDTH:0.613604
G1 X122.384 Y85.75 E.00794
G1 X122.876 Y85.708 E.02343
G1 X123.298 Y85.75 E.02012
G1 X123.463 Y85.838 E.00887
;WIDTH:0.575736
G1 X123.627 Y85.926 E.00825
;WIDTH:0.537868
G1 X123.792 Y86.014 E.0077
;WIDTH:0.499999
G1 X124.17 Y86.314 E.01834
G1 X124.458 Y86.702 E.01836
G1 X124.605 Y87.074 E.0152
M204 P1000
G1 E-2.24 F2100
;WIPE_START
G1 F9600
G1 X124.691 Y87.631 E-.11712
G1 X124.62 Y88.109 E-.10042
G1 X124.428 Y88.552 E-.10034
G1 X124.101 Y88.951 E-.10721
G1 X123.74 Y89.218 E-.09331
G1 X123.554 Y89.292 E-.0416
;WIPE_END
G1 X100.556 Y122.895 F12000
G1 E2.8 F1500
M204 P600
G1 F1200
G1 X100.561 Y122.937 E.00161
G1 X100.488 Y123.417 E.01845
G1 X100.285 Y123.864 E.01866
G1 X99.953 Y124.234 E.01889
;WIDTH:0.502547
G1 X99.796 Y124.327 E.00697
;WIDTH:0.519354
G1 X99.533 Y124.478 E.01201
G1 X98.986 Y124.57 E.02197
;WIDTH:0.500736
G1 X98.316 Y124.558 E.02551
;WIDTH:0.514391
G1 X97.823 Y124.449 E.01979
G1 X97.378 Y124.146 E.02111
;WIDTH:0.499999
G1 X97.101 Y123.806 E.01667
G1 X96.917 Y123.357 E.01844
G1 X96.861 Y122.877 E.01837
G1 X96.932 Y122.399 E.01837
G1 X97.124 Y121.956 E.01835
G1 X97.424 Y121.578 E.01834
G1 X97.812 Y121.29 E.01836
G1 X98.261 Y121.112 E.01836
G1 X98.741 Y121.057 E.01836
G1 X99.219 Y121.128 E.01837
G1 X99.662 Y121.32 E.01835
G1 X100.04 Y121.62 E.01834
G1 X100.328 Y122.008 E.01836
G1 X100.506 Y122.457 E.01836
G1 X100.549 Y122.836 E.0145
M204 P1000
G1 X100.966 Y122.807 F12000
M204 P600
;TYPE:Solid infill
;WIDTH:0.5
G1 F1200
G1 X101.176 Y122.597 E.01129
G1 X100.891 Y122.312 E.01532
M204 P1000
G1 X100.68 Y121.8 F12000
M204 P600
G1 F1200
G1 X100.853 Y121.628 E.00927
G1 X100.529 Y121.304 E.01741
G1 X100.853 Y120.981 E.01739
G1 X101.499 Y121.628 E.03475
G1 X101.176 Y121.951 E.01736
G1 X101.499 Y122.274 E.01736
G1 X102.469 Y121.304 E.05214
G1 X102.145 Y120.981 E.01739
G1 X101.822 Y121.304 E.01736
G1 X101.176 Y120.658 E.03472
G1 X101.499 Y120.335 E.01736
G1 X101.822 Y120.658 E.01736
G1 X102.145 Y120.335 E.01736
G1 X101.822 Y120.012 E.01736
G1 X102.145 Y119.688 E.01739
G1 X102.792 Y120.335 E.03478
G1 X102.469 Y120.658 E.01736
G1 X102.792 Y120.981 E.01736
G1 X103.115 Y120.658 E.01736
G1 X103.761 Y121.304 E.03472
G1 X103.438 Y121.628 E.01739
G1 X103.115 Y121.304 E.01739
G1 X102.469 Y121.951 E.03475
G1 X102.792 Y122.274 E.01736
G1 X103.115 Y121.951 E.01736
G1 X103.438 Y122.274 E.01736
G1 X103.115 Y122.597 E.01736
G1 X103.438 Y122.92 E.01736
G1 X104.085 Y122.274 E.03475
G1 X103.761 Y121.951 E.01739
G1 X104.085 Y121.628 E.01739
G1 X104.731 Y122.274 E.03472
G1 X104.408 Y122.597 E.01736
G1 X104.731 Y122.92 E.01736
G1 X105.054 Y122.597 E.01736
G1 X105.701 Y123.244 E.03478
G1 X105.378 Y123.567 E.01736
G1 X105.054 Y123.244 E.01739
G1 X104.731 Y123.567 E.01736
G1 X105.054 Y123.89 E.01736
G1 X104.731 Y124.213 E.01736
G1 X104.085 Y123.567 E.03472
G1 X104.408 Y123.244 E.01736
G1 X104.085 Y122.92 E.01739
G1 X103.438 Y123.567 E.03478
G1 X103.761 Y123.89 E.01736
G1 X103.438 Y124.213 E.01736
G1 X103.115 Y123.89 E.01736
G1 X102.538 Y124.467 E.03101
M204 P1000
G1 X103.832 Y124.466 F12000
M204 P600
G1 F1200
G1 X104.085 Y124.213 E.0136
G1 X104.337 Y124.465 E.01354
M204 P1000
G1 X105.127 Y124.464 F12000
M204 P600
G1 F1200
G1 X105.378 Y124.213 E.01349
G1 X105.63 Y124.466 E.01357
M204 P1000
G1 X105.754 Y124.483 F12000
M204 P600
G1 F1200
G1 X106.024 Y124.213 E.01451
G1 X105.701 Y123.89 E.01736
G1 X106.024 Y123.567 E.01736
G1 X106.67 Y124.213 E.03472
G1 X106.347 Y124.537 E.01739
G1 X106.67 Y124.86 E.01736
G1 X106.994 Y124.537 E.01739
G1 X107.64 Y125.183 E.03472
G1 X107.317 Y125.506 E.01736
G1 X106.994 Y125.183 E.01736
G1 X106.789 Y125.387 E.01099
M204 P1000
G1 X107.759 Y126.357 F12000
M204 P600
G1 F1200
G1 X107.963 Y126.153 E.01096
G1 X107.64 Y125.829 E.01739
G1 X107.963 Y125.506 E.01736
G1 X108.61 Y126.153 E.03478
G1 X108.286 Y126.476 E.01739
G1 X108.61 Y126.799 E.01739
G1 X108.933 Y126.476 E.01736
G1 X109.579 Y127.122 E.03472
G1 X109.256 Y127.445 E.01736
G1 X108.933 Y127.122 E.01736
G1 X108.728 Y127.327 E.01102
M204 P1000
G1 X109.698 Y128.296 F12000
M204 P600
G1 F1200
G1 X109.902 Y128.092 E.01096
G1 X109.579 Y127.769 E.01736
G1 X109.902 Y127.445 E.01739
G1 X110.549 Y128.092 E.03478
G1 X110.226 Y128.415 E.01736
G1 X110.274 Y128.464 E.00261
M204 P1000
G1 X110.823 Y128.464 F12000
M204 P600
G1 F1200
G1 X110.872 Y128.415 E.00263
G1 X110.921 Y128.464 E.00263
M204 P1000
G1 E-2.24 F2100
;WIPE_START
G1 F9600
G1 X110.872 Y128.415 E-.0144
G1 X110.823 Y128.464 E-.0144
;WIPE_END
G1 E-.5312 F2100
G1 X119.344 Y124.468 F12000
G1 E2.8 F1500
M204 P600
G1 F1200
G1 X119.598 Y124.213 E.01368
G1 X119.853 Y124.468 E.01371
M204 P1000
G1 X120.637 Y124.467 F12000
M204 P600
G1 F1200
G1 X120.891 Y124.213 E.01365
G1 X121.145 Y124.467 E.01365
M204 P1000
G1 X121.284 Y124.467 F12000
M204 P600
G1 F1200
G1 X121.538 Y124.213 E.01365
G1 X121.215 Y123.89 E.01736
G1 X121.538 Y123.567 E.01736
G1 X122.184 Y124.213 E.03472
G1 X121.93 Y124.467 E.01365
M204 P1000
G1 X122.577 Y124.467 F12000
M204 P600
G1 F1200
G1 X122.831 Y124.213 E.01365
G1 X122.507 Y123.89 E.01739
G1 X122.831 Y123.567 E.01739
G1 X123.154 Y123.89 E.01736
G1 X123.8 Y123.244 E.03472
G1 X123.477 Y122.92 E.01739
G1 X123.154 Y123.244 E.01739
G1 X122.831 Y122.92 E.01739
G1 X123.154 Y122.597 E.01736
G1 X122.831 Y122.274 E.01736
G1 X122.184 Y122.92 E.03475
G1 X122.507 Y123.244 E.01739
G1 X122.184 Y123.567 E.01736
G1 X121.538 Y122.92 E.03475
G1 X121.861 Y122.597 E.01736
G1 X121.538 Y122.274 E.01736
G1 X121.215 Y122.597 E.01736
G1 X120.568 Y121.951 E.03475
G1 X120.891 Y121.628 E.01736
G1 X121.215 Y121.951 E.01739
G1 X121.538 Y121.628 E.01736
G1 X121.215 Y121.304 E.01739
G1 X121.538 Y120.981 E.01736
G1 X122.184 Y121.628 E.03475
G1 X121.861 Y121.951 E.01736
G1 X122.184 Y122.274 E.01736
G1 X123.154 Y121.304 E.05214
G1 X122.831 Y120.981 E.01736
G1 X122.507 Y121.304 E.01739
G1 X121.861 Y120.658 E.03472
G1 X122.184 Y120.335 E.01736
G1 X122.507 Y120.658 E.01736
G1 X122.831 Y120.335 E.01739
G1 X122.507 Y120.012 E.01739
G1 X122.831 Y119.688 E.01741
G1 X123.477 Y120.335 E.03475
G1 X123.154 Y120.658 E.01736
G1 X123.477 Y120.981 E.01736
G1 X123.8 Y120.658 E.01736
G1 X124.447 Y121.304 E.03475
G1 X124.123 Y121.628 E.01741
G1 X123.8 Y121.304 E.01739
G1 X123.154 Y121.951 E.03475
G1 X123.477 Y122.274 E.01736
G1 X123.8 Y121.951 E.01736
G1 X124.123 Y122.274 E.01736
G1 X123.8 Y122.597 E.01736
G1 X124.123 Y122.92 E.01736
G1 X124.77 Y122.274 E.03475
G1 X124.447 Y121.951 E.01736
G1 X124.77 Y121.628 E.01736
G1 X125.416 Y122.274 E.03472
G1 X125.093 Y122.597 E.01736
G1 X125.416 Y122.92 E.01736
G1 X125.739 Y122.597 E.01736
G1 X126.386 Y123.244 E.03478
G1 X126.063 Y123.567 E.01736
G1 X125.739 Y123.244 E.01739
G1 X125.416 Y123.567 E.01736
G1 X125.739 Y123.89 E.01736
G1 X125.416 Y124.213 E.01736
G1 X124.77 Y123.567 E.03472
G1 X125.093 Y123.244 E.01736
G1 X124.77 Y122.92 E.01739
G1 X124.123 Y123.567 E.03478
G1 X124.447 Y123.89 E.01739
G1 X124.123 Y124.213 E.01739
G1 X123.8 Y123.89 E.01736
G1 X123.224 Y124.467 E.03099
M204 P1000
G1 X124.517 Y124.466 F12000
M204 P600
G1 F1200
G1 X124.77 Y124.213 E.0136
G1 X125.023 Y124.466 E.0136
M204 P1000
G1 X125.81 Y124.466 F12000
M204 P600
G1 F1200
G1 X126.063 Y124.213 E.0136
G1 X126.315 Y124.466 E.01357
M204 P1000
G1 X126.456 Y124.466 F12000
M204 P600
G1 F1200
G1 X126.709 Y124.213 E.0136
G1 X126.386 Y123.89 E.01736
G1 X126.709 Y123.567 E.01736
G1 X127.355 Y124.213 E.03472
G1 X127.103 Y124.466 E.01357
M204 P1000
G1 E-2.24 F2100
;WIPE_START
G1 F9600
G1 X127.355 Y124.213 E-.07421
G1 X126.709 Y123.567 E-.18985
G1 X126.386 Y123.89 E-.09493
G1 X126.709 Y124.213 E-.09493
G1 X126.456 Y124.466 E-.07435
;WIPE_END
G1 E-.03173 F2100
G1 X134.862 Y124.464 F12000
G1 E2.8 F1500
M204 P600
G1 F1200
G1 X135.112 Y124.213 E.01346
G1 X135.363 Y124.464 E.01349
M204 P1000
G1 X136.011 Y125.112 F12000
M204 P600
G1 F1200
G1 X136.082 Y125.183 E.00382
G1 X136.011 Y125.253 E.00379
M204 P1000
G1 X136.011 Y126.546 F12000
M204 P600
G1 F1200
G1 X136.405 Y126.153 E.02115
G1 X136.082 Y125.829 E.01739
G1 X136.405 Y125.506 E.01736
G1 X136.728 Y125.829 E.01736
G1 X137.375 Y125.183 E.03475
G1 X137.052 Y124.86 E.01736
G1 X136.728 Y125.183 E.01739
G1 X136.082 Y124.537 E.03472
G1 X136.405 Y124.213 E.01739
G1 X136.728 Y124.537 E.01739
G1 X137.052 Y124.213 E.01741
G1 X136.728 Y123.89 E.01739
G1 X137.052 Y123.567 E.01739
G1 X137.698 Y124.213 E.03472
G1 X137.375 Y124.537 E.01739
G1 X137.698 Y124.86 E.01736
G1 X138.021 Y124.537 E.01736
G1 X138.668 Y125.183 E.03475
G1 X138.344 Y125.506 E.01739
G1 X138.021 Y125.183 E.01736
G1 X137.375 Y125.829 E.03472
G1 X137.698 Y126.153 E.01739
G1 X138.021 Y125.829 E.01739
G1 X138.344 Y126.153 E.01739
G1 X138.021 Y126.476 E.01736
G1 X138.344 Y126.799 E.01736
G1 X138.991 Y126.153 E.03475
G1 X138.668 Y125.829 E.01739
G1 X138.991 Y125.506 E.01736
G1 X139.637 Y126.153 E.03475
G1 X139.314 Y126.476 E.01736
G1 X139.637 Y126.799 E.01736
G1 X139.96 Y126.476 E.01736
G1 X140.607 Y127.122 E.03475
G1 X140.284 Y127.445 E.01736
G1 X139.96 Y127.122 E.01739
G1 X139.637 Y127.445 E.01736
G1 X139.96 Y127.769 E.01739
G1 X139.637 Y128.092 E.01736
G1 X138.991 Y127.445 E.03475
G1 X139.314 Y127.122 E.01736
G1 X138.991 Y126.799 E.01736
G1 X138.021 Y127.769 E.05214
G1 X138.344 Y128.092 E.01736
G1 X138.668 Y127.769 E.01739
G1 X139.314 Y128.415 E.03472
G1 X139.265 Y128.464 E.00263
M204 P1000
G1 X138.716 Y128.464 F12000
M204 P600
G1 F1200
G1 X138.668 Y128.415 E.00261
G1 X138.619 Y128.464 E.00263
M204 P1000
G1 X137.972 Y128.464 F12000
M204 P600
G1 F1200
G1 X138.021 Y128.415 E.00263
G1 X137.698 Y128.092 E.01736
G1 X137.375 Y128.415 E.01736
G1 X136.728 Y127.769 E.03475
G1 X137.052 Y127.445 E.01741
G1 X137.375 Y127.769 E.01739
G1 X138.021 Y127.122 E.03475
G1 X137.698 Y126.799 E.01736
G1 X137.375 Y127.122 E.01736
G1 X137.052 Y126.799 E.01736
G1 X137.375 Y126.476 E.01736
G1 X137.052 Y126.153 E.01736
G1 X136.405 Y126.799 E.03475
G1 X136.728 Y127.122 E.01736
G1 X136.405 Y127.445 E.01736
G1 X136.082 Y127.122 E.01736
