; generated by PrusaSlicer 2.6.1+win64 on 2024-02-10 at 10:14:33 UTC


;
;

;
;

;
;
; 

; external perimeters extrusion width = 0.45mm
; perimeters extrusion width = 0.45mm
; infill extrusion width = 0.45mm
; solid infill extrusion width = 0.45mm
; top infill extrusion width = 0.40mm
; first layer extrusion width = 0.50mm

M73 P0 R3
M201 X2500 Y2500 Z200 E2500 ; sets maximum accelerations, mm/sec^2
M203 X200 Y200 Z40 E100 ; sets maximum feedrates, mm / sec
M204 P2000 R1200 T2000 ; sets acceleration (P, T) and retract acceleration (R), mm/sec^2
M205 X8.00 Y8.00 Z2.00 E10.00 ; sets the jerk limits, mm/sec
M205 S0 T0 ; sets the minimum extruding and travel feed rate, mm/sec
;TYPE:Custom
M17 ; enable steppers
M862.3 P "MK4" ; printer model check
M862.1 P0.4 ; nozzle diameter check
M555 X81.4827 Y61.3936 W32 H46.05

G90 ; use absolute coordinates
M83 ; extruder relative mode

M140 S60 ; set bed temp

M104 S170 ; set extruder temp for bed leveling
M109 R170 ; wait for temp


M84 E ; turn off E motor

G28 ; home all without mesh bed level

G1 X42 Y-4 Z5 F4800

M302 S160 ; lower cold extrusion limit to 160C


G1 E-2 F2400 ; retraction


M84 E ; turn off E motor

G29 P9 X10 Y-4 W32 H4

M106 S100

G0 Z40 F10000

M190 S60 ; wait for bed temp

M107

;
; MBL
;
M84 E ; turn off E motor
G29 P1 ; invalidate mbl & probe print area
G29 P1 X0 Y0 W50 H20 C ; probe near purge place
G29 P3.2 ; interpolate mbl probes
G29 P3.13 ; extrapolate mbl outside probe area
G29 A ; activate mbl

; prepare for purge
M104 S220
G0 X0 Y-4 Z15 F4800 ; move away and ready for the purge
M109 S220

G92 E0
M569 S0 E ; set spreadcycle mode for extruder

;
; Extrude purge line
;
G92 E0 ; reset extruder position
G1 E2 F2400 ; deretraction after the initial one before nozzle cleaning
G0 E7 X15 Z0.2 F500 ; purge
G0 X25 E4 F500 ; purge
G0 X35 E4 F650 ; purge
G0 X45 E4 F800 ; purge
G0 X48 Z0.05 F8000 ; wipe, move close to the bed
G0 X51 Z0.2 F8000 ; wipe, move quickly away from the bed

G92 E0
M221 S100 ; set flow to 100%
G21 ; set units to millimeters
G90 ; use absolute coordinates
M83 ; use relative distances for extrusion
M900 K0.05 ; Filament gcode



M142 S36 ; set heatbreak target temp
M107
;LAYER_CHANGE
;Z:0.2
;HEIGHT:0.2
;BEFORE_LAYER_CHANGE
G92 E0.0
;0.2


G1 E-2.8 F2100
G1 Z.2 F720
;AFTER_LAYER_CHANGE
;0.2
; printing object v173newbuttons.stl id:0 copy 0
M73 P1 R3
G1 X82.755 Y89.414 F12000
G1 E2.8 F1500
M204 P600
;TYPE:External perimeter
;WIDTH:0.500026
M73 P2 R3
G1 F1200
G1 X82.755 Y96.377 E.26465
;WIDTH:0.501758
M73 P3 R3
G1 X82.755 Y96.395 E.00069
M204 P1000
G1 E-2.24 F2100
;WIPE_START
G1 F9600
G1 X82.755 Y96.377 E-.00374
G1 X82.755 Y93.7 E-.55626
;WIPE_END
G1 X82.755 Y102.622 F12000
M73 P4 R3
G1 E2.8 F1500
M204 P600
;WIDTH:0.499999
G1 F1200
G1 X82.64 Y102.428 E.00857
G1 X82.315 Y102.24 E.01427
G1 X81.914 Y101.863 E.02092
G1 X81.933 Y100.662 E.04565
G1 X81.932 Y97.872 E.10604
G1 X81.915 Y97.135 E.02802
G1 X82.21 Y96.858 E.01538
;WIDTH:0.500134
G1 X82.64 Y96.571 E.01965
;WIDTH:0.501758
G1 X82.755 Y96.395 E.00802
G1 X82.866 Y96.573 E.008
;WIDTH:0.500134
G1 X83.359 Y96.733 E.0197
;WIDTH:0.499999
G1 X83.859 Y96.8 E.01917
G1 X84.356 Y96.953 E.01976
G1 X84.636 Y97.189 E.01392
G1 X84.817 Y97.503 E.01377
G1 X84.885 Y97.995 E.01888
G1 X84.885 Y101.004 E.11436
G1 X84.817 Y101.496 E.01888
G1 X84.636 Y101.81 E.01377
G1 X84.356 Y102.046 E.01392
G1 X83.859 Y102.2 E.01978
G1 X83.347 Y102.269 E.01964
G1 X82.866 Y102.426 E.01923
G1 X82.784 Y102.57 E.0063
M204 P1000
G1 E-2.24 F2100
;WIPE_START
G1 F9600
G1 X82.64 Y102.428 E-.04203
G1 X82.315 Y102.24 E-.07802
G1 X81.914 Y101.863 E-.11438
G1 X81.933 Y100.662 E-.24961
G1 X81.933 Y100.296 E-.07596
;WIPE_END
G1 X82.755 Y83.187 F12000
G1 E2.8 F1500
M204 P600
;WIDTH:0.501758
G1 F1200
G1 X82.866 Y83.365 E.008
;WIDTH:0.500134
G1 X83.359 Y83.525 E.0197
;WIDTH:0.500026
G1 X83.859 Y83.592 E.01917
G1 X84.356 Y83.745 E.01977
G1 X84.636 Y83.981 E.01392
G1 X84.817 Y84.295 E.01378
G1 X84.885 Y84.683 E.01497
G1 X84.885 Y87.796 E.11832
M73 P5 R3
G1 X84.817 Y88.288 E.01888
G1 X84.636 Y88.602 E.01378
G1 X84.356 Y88.838 E.01392
G1 X83.859 Y88.992 E.01978
G1 X83.347 Y89.061 E.01964
G1 X82.866 Y89.218 E.01923
G1 X82.755 Y89.414 E.00856
;WIDTH:0.499999
G1 X82.64 Y89.22 E.00857
G1 X82.315 Y89.032 E.01427
G1 X81.914 Y88.655 E.02092
G1 X81.933 Y87.454 E.04565
G1 X81.932 Y84.664 E.10604
G1 X81.915 Y83.927 E.02802
G1 X82.21 Y83.65 E.01538
;WIDTH:0.500134
G1 X82.64 Y83.363 E.01965
;WIDTH:0.501758
G1 X82.722 Y83.238 E.0057
M204 P1000
G1 E-2.24 F2100
;WIPE_START
G1 F9600
G1 X82.866 Y83.365 E-.0399
G1 X83.359 Y83.525 E-.10771
G1 X83.859 Y83.592 E-.10483
G1 X84.356 Y83.745 E-.10807
G1 X84.636 Y83.981 E-.0761
G1 X84.817 Y84.295 E-.07532
G1 X84.857 Y84.523 E-.04807
;WIPE_END
G1 X82.755 Y76.206 F12000
G1 E2.8 F1500
M204 P600
;WIDTH:0.500026
G1 F1200
G1 X82.755 Y83.169 E.26465
;WIDTH:0.501758
G1 X82.755 Y83.187 E.00069
M204 P1000
G1 E-2.24 F2100
;WIPE_START
G1 F9600
G1 X82.755 Y83.169 E-.00374
G1 X82.755 Y80.492 E-.55626
;WIPE_END
G1 X82.754 Y69.982 F12000
G1 E2.8 F1500
M204 P600
;WIDTH:0.501834
G1 F1200
G1 X82.861 Y70.16 E.00793
;WIDTH:0.500189
G1 X82.948 Y70.192 E.00352
;WIDTH:0.500026
G1 X83.384 Y70.195 E.01657
G1 X83.883 Y70.34 E.01975
G1 X84.349 Y70.53 E.01913
G1 X84.635 Y70.772 E.01424
G1 X84.817 Y71.087 E.01383
G1 X84.885 Y71.475 E.01497
G1 X84.885 Y74.588 E.11832
G1 X84.817 Y75.08 E.01888
G1 X84.636 Y75.394 E.01378
G1 X84.356 Y75.63 E.01392
G1 X83.859 Y75.784 E.01978
G1 X83.347 Y75.853 E.01964
G1 X82.866 Y76.01 E.01923
G1 X82.755 Y76.206 E.00856
;WIDTH:0.499999
G1 X82.64 Y76.012 E.00857
G1 X82.315 Y75.824 E.01427
M73 P6 R3
G1 X81.914 Y75.447 E.02092
G1 X81.933 Y74.246 E.04565
G1 X81.932 Y71.456 E.10604
G1 X81.915 Y70.719 E.02802
G1 X82.215 Y70.437 E.01565
;WIDTH:0.500189
G1 X82.64 Y70.155 E.01939
;WIDTH:0.501834
G1 X82.721 Y70.032 E.00562
M204 P1000
G1 E-2.24 F2100
;WIPE_START
G1 F9600
G1 X82.861 Y70.16 E-.03942
G1 X82.948 Y70.192 E-.01926
G1 X83.384 Y70.195 E-.09061
G1 X83.883 Y70.34 E-.10799
G1 X84.349 Y70.53 E-.10458
G1 X84.635 Y70.772 E-.07786
G1 X84.817 Y71.087 E-.0756
G1 X84.854 Y71.299 E-.04468
;WIPE_END
G1 X83.955 Y65.924 F12000
G1 E2.8 F1500
M204 P600
;WIDTH:0.499998
G1 F1200
G1 X83.955 Y66.915 E.03766
;WIDTH:0.53921
G1 X83.935 Y67.01 E.00401
;WIDTH:0.578422
G1 X83.915 Y67.104 E.00428
G1 X83.821 Y67.124 E.00428
;WIDTH:0.53921
G1 X83.726 Y67.144 E.00401
;WIDTH:0.5
G1 X82.983 Y67.144 E.02824
;WIDTH:0.53921
G1 X82.889 Y67.163 E.00396
;WIDTH:0.57842
G1 X82.794 Y67.183 E.00432
G1 X82.774 Y67.277 E.00428
;WIDTH:0.53921
G1 X82.755 Y67.372 E.004
;WIDTH:0.5
G1 X82.755 Y69.957 E.09825
;WIDTH:0.501834
G1 X82.754 Y69.982 E.00095
M204 P1000
G1 E-2.24 F2100
;WIPE_START
G1 F9600
G1 X82.755 Y69.957 E-.0052
G1 X82.755 Y67.372 E-.5372
G1 X82.772 Y67.289 E-.0176
;WIPE_END
G1 X83.955 Y106.913 F12000
G1 E2.8 F1500
M204 P600
;WIDTH:0.499998
G1 F1200
G1 X83.955 Y105.922 E.03766
;WIDTH:0.53921
G1 X83.935 Y105.827 E.00401
;WIDTH:0.578422
G1 X83.915 Y105.733 E.00428
G1 X83.821 Y105.713 E.00428
;WIDTH:0.53921
G1 X83.726 Y105.694 E.004
;WIDTH:0.5
G1 X82.983 Y105.694 E.02824
;WIDTH:0.53921
G1 X82.889 Y105.674 E.00397
;WIDTH:0.57842
G1 X82.794 Y105.654 E.00432
G1 X82.774 Y105.56 E.00428
;WIDTH:0.53921
G1 X82.755 Y105.465 E.004
;WIDTH:0.500026
G1 X82.755 Y102.622 E.10806
M204 P1000
G1 X82.622 Y101.942 F12000
M204 P600
;TYPE:Solid infill
;WIDTH:0.5
G1 F1200
G1 X82.803 Y101.762 E.0097
G1 X82.48 Y101.439 E.01736
G1 X82.803 Y101.116 E.01736
G1 X83.449 Y101.762 E.03472
G1 X83.356 Y101.856 E.00503
M204 P1000
G1 X84.054 Y101.72 F12000
M204 P600
G1 F1200
G1 X83.773 Y101.439 E.0151
G1 X84.096 Y101.116 E.01736
G1 X84.391 Y101.411 E.01586
M204 P1000
G1 X84.473 Y100.738 F12000
M204 P600
G1 F1200
G1 X84.419 Y100.792 E.0029
M73 P7 R3
G1 X84.096 Y100.469 E.01736
G1 X84.419 Y100.146 E.01736
G1 X84.096 Y99.823 E.01736
G1 X83.449 Y100.469 E.03475
G1 X83.773 Y100.792 E.01739
G1 X83.449 Y101.116 E.01741
G1 X82.803 Y100.469 E.03475
G1 X83.126 Y100.146 E.01736
G1 X82.803 Y99.823 E.01736
G1 X82.48 Y100.146 E.01736
G1 X82.344 Y100.01 E.00731
M204 P1000
G1 X82.344 Y100.657 F12000
M204 P600
G1 F1200
G1 X82.48 Y100.792 E.00728
G1 X82.34 Y100.932 E.00752
M204 P1000
G1 E-2.24 F2100
;WIPE_START
G1 F9600
G1 X82.48 Y100.792 E-.04114
G1 X82.344 Y100.657 E-.03982
;WIPE_END
G1 E-.47904 F2100
G1 X82.344 Y99.364 F12000
G1 E2.8 F1500
M204 P600
G1 F1200
G1 X82.48 Y99.5 E.00731
G1 X82.803 Y99.176 E.01739
G1 X82.48 Y98.853 E.01736
G1 X82.803 Y98.53 E.01736
G1 X83.449 Y99.176 E.03472
G1 X83.126 Y99.5 E.01739
G1 X83.449 Y99.823 E.01736
G1 X84.419 Y98.853 E.05214
G1 X84.096 Y98.53 E.01736
G1 X83.773 Y98.853 E.01736
G1 X83.126 Y98.207 E.03475
G1 X83.449 Y97.884 E.01736
G1 X83.773 Y98.207 E.01739
G1 X84.096 Y97.884 E.01736
G1 X83.773 Y97.56 E.01739
G1 X84.054 Y97.279 E.0151
M204 P1000
G1 X83.518 Y97.169 F12000
M204 P600
G1 F1200
G1 X83.449 Y97.237 E.00368
G1 X83.36 Y97.148 E.00478
M204 P1000
G1 X82.991 Y97.049 F12000
M204 P600
G1 F1200
G1 X82.803 Y97.237 E.0101
G1 X83.126 Y97.56 E.01736
G1 X82.803 Y97.884 E.01739
G1 X82.333 Y97.413 E.02529
M204 P1000
G1 X82.344 Y98.071 F12000
M204 P600
G1 F1200
G1 X82.48 Y98.207 E.00731
G1 X82.344 Y98.343 E.00731
M204 P1000
G1 E-2.24 F2100
;WIPE_START
G1 F9600
G1 X82.48 Y98.207 E-.03997
G1 X82.344 Y98.071 E-.03997
;WIPE_END
G1 E-.48006 F2100
G1 X84.473 Y98.152 F12000
G1 E2.8 F1500
M204 P600
G1 F1200
G1 X84.419 Y98.207 E.00293
G1 X84.473 Y98.261 E.0029
M204 P1000
G1 X84.473 Y99.445 F12000
M204 P600
G1 F1200
G1 X84.419 Y99.5 E.00293
G1 X84.473 Y99.554 E.0029
M204 P1000
G1 E-2.24 F2100
;WIPE_START
G1 F9600
G1 X84.419 Y99.5 E-.01587
G1 X84.473 Y99.445 E-.01602
;WIPE_END
G1 E-.52811 F2100
G1 X82.622 Y88.734 F12000
G1 E2.8 F1500
M204 P600
G1 F1200
G1 X82.803 Y88.554 E.0097
G1 X82.48 Y88.231 E.01736
G1 X82.803 Y87.908 E.01736
G1 X83.449 Y88.554 E.03472
G1 X83.356 Y88.648 E.00503
M204 P1000
G1 X84.054 Y88.512 F12000
M204 P600
G1 F1200
M73 P8 R3
G1 X83.773 Y88.231 E.0151
G1 X84.096 Y87.908 E.01736
G1 X84.391 Y88.203 E.01586
M204 P1000
G1 X84.473 Y87.53 F12000
M204 P600
G1 F1200
G1 X84.419 Y87.584 E.0029
G1 X84.096 Y87.261 E.01736
G1 X84.419 Y86.938 E.01736
G1 X84.096 Y86.615 E.01736
G1 X83.449 Y87.261 E.03475
G1 X83.773 Y87.584 E.01739
G1 X83.449 Y87.908 E.01741
G1 X82.803 Y87.261 E.03475
G1 X83.126 Y86.938 E.01736
G1 X82.803 Y86.615 E.01736
G1 X82.48 Y86.938 E.01736
G1 X82.344 Y86.802 E.00731
M204 P1000
G1 X82.344 Y87.449 F12000
M204 P600
G1 F1200
G1 X82.48 Y87.584 E.00728
G1 X82.34 Y87.724 E.00752
M204 P1000
G1 E-2.24 F2100
;WIPE_START
G1 F9600
G1 X82.48 Y87.584 E-.04114
G1 X82.344 Y87.449 E-.03982
;WIPE_END
G1 E-.47904 F2100
G1 X82.344 Y86.156 F12000
G1 E2.8 F1500
M204 P600
G1 F1200
G1 X82.48 Y86.292 E.00731
G1 X82.803 Y85.968 E.01739
G1 X82.48 Y85.645 E.01736
G1 X82.803 Y85.322 E.01736
G1 X83.449 Y85.968 E.03472
G1 X83.126 Y86.292 E.01739
G1 X83.449 Y86.615 E.01736
G1 X84.419 Y85.645 E.05214
G1 X84.096 Y85.322 E.01736
G1 X83.773 Y85.645 E.01736
G1 X83.126 Y84.999 E.03475
G1 X83.449 Y84.676 E.01736
G1 X83.773 Y84.999 E.01739
G1 X84.096 Y84.676 E.01736
G1 X83.773 Y84.352 E.01739
G1 X84.054 Y84.071 E.0151
M204 P1000
G1 X83.518 Y83.961 F12000
M204 P600
G1 F1200
G1 X83.449 Y84.029 E.00368
G1 X83.36 Y83.94 E.00478
M204 P1000
G1 X82.991 Y83.841 F12000
M204 P600
G1 F1200
G1 X82.803 Y84.029 E.0101
G1 X83.126 Y84.352 E.01736
G1 X82.803 Y84.676 E.01739
G1 X82.333 Y84.205 E.02529
M204 P1000
G1 X82.344 Y84.863 F12000
M204 P600
G1 F1200
G1 X82.48 Y84.999 E.00731
G1 X82.344 Y85.135 E.00731
M204 P1000
G1 E-2.24 F2100
;WIPE_START
G1 F9600
G1 X82.48 Y84.999 E-.03997
G1 X82.344 Y84.863 E-.03997
;WIPE_END
G1 E-.48006 F2100
G1 X84.473 Y84.944 F12000
G1 E2.8 F1500
M204 P600
G1 F1200
G1 X84.419 Y84.999 E.00293
G1 X84.473 Y85.053 E.0029
M204 P1000
G1 X84.473 Y86.237 F12000
M204 P600
G1 F1200
G1 X84.419 Y86.292 E.00293
G1 X84.473 Y86.346 E.0029
M204 P1000
G1 E-2.24 F2100
;WIPE_START
G1 F9600
M73 P9 R3
G1 X84.419 Y86.292 E-.01587
G1 X84.473 Y86.237 E-.01602
;WIPE_END
G1 E-.52811 F2100
G1 X82.622 Y75.526 F12000
G1 E2.8 F1500
M204 P600
G1 F1200
G1 X82.803 Y75.346 E.0097
G1 X82.48 Y75.023 E.01736
G1 X82.803 Y74.699 E.01739
G1 X83.45 Y75.346 E.03478
G1 X83.356 Y75.44 E.00505
M204 P1000
G1 X84.054 Y75.304 F12000
M204 P600
G1 F1200
G1 X83.773 Y75.023 E.0151
G1 X84.096 Y74.699 E.01739
G1 X84.391 Y74.995 E.01588
M204 P1000
G1 X84.473 Y74.322 F12000
M204 P600
G1 F1200
G1 X84.419 Y74.376 E.0029
G1 X84.096 Y74.053 E.01736
G1 X84.419 Y73.73 E.01736
G1 X84.096 Y73.407 E.01736
G1 X83.45 Y74.053 E.03472
G1 X83.773 Y74.376 E.01736
G1 X83.45 Y74.699 E.01736
G1 X82.803 Y74.053 E.03475
G1 X83.126 Y73.73 E.01736
G1 X82.803 Y73.407 E.01736
G1 X82.48 Y73.73 E.01736
G1 X82.344 Y73.594 E.00731
M204 P1000
G1 X82.344 Y74.24 F12000
M204 P600
G1 F1200
G1 X82.48 Y74.376 E.00731
G1 X82.34 Y74.516 E.00752
M204 P1000
G1 E-2.24 F2100
;WIPE_START
G1 F9600
G1 X82.48 Y74.376 E-.04114
G1 X82.344 Y74.24 E-.03997
;WIPE_END
G1 E-.47889 F2100
G1 X82.344 Y72.947 F12000
G1 E2.8 F1500
M204 P600
G1 F1200
G1 X82.48 Y73.083 E.00731
G1 X82.803 Y72.76 E.01736
G1 X82.48 Y72.437 E.01736
G1 X82.803 Y72.114 E.01736
G1 X83.45 Y72.76 E.03475
G1 X83.126 Y73.083 E.01739
G1 X83.45 Y73.407 E.01741
G1 X84.419 Y72.437 E.05211
G1 X84.096 Y72.114 E.01736
G1 X83.773 Y72.437 E.01736
G1 X83.126 Y71.791 E.03475
G1 X83.45 Y71.467 E.01741
G1 X83.773 Y71.791 E.01739
G1 X84.096 Y71.467 E.01739
G1 X83.773 Y71.144 E.01736
G1 X84.063 Y70.854 E.01559
M204 P1000
G1 X83.588 Y70.683 F12000
M204 P600
G1 F1200
G1 X83.45 Y70.821 E.00742
G1 X83.234 Y70.605 E.01161
M204 P1000
G1 X83.022 Y70.602 F12000
M204 P600
G1 F1200
G1 X82.803 Y70.821 E.01177
G1 X83.126 Y71.144 E.01736
G1 X82.803 Y71.467 E.01736
G1 X82.333 Y70.997 E.02526
M204 P1000
G1 X82.344 Y71.654 F12000
M204 P600
G1 F1200
G1 X82.48 Y71.791 E.00734
G1 X82.344 Y71.927 E.00731
M204 P1000
G1 E-2.24 F2100
;WIPE_START
G1 F9600
G1 X82.48 Y71.791 E-.03997
G1 X82.344 Y71.654 E-.04012
;WIPE_END
G1 E-.47991 F2100
G1 X84.473 Y71.736 F12000
G1 E2.8 F1500
M204 P600
G1 F1200
G1 X84.419 Y71.791 E.00293
G1 X84.473 Y71.845 E.0029
M204 P1000
M73 P10 R3
G1 X84.473 Y73.029 F12000
M204 P600
G1 F1200
G1 X84.419 Y73.083 E.0029
G1 X84.473 Y73.137 E.0029
M204 P1000
; stop printing object v173newbuttons.stl id:0 copy 0
M106 S127.5
;LAYER_CHANGE
;Z:0.35
;HEIGHT:0.15
;BEFORE_LAYER_CHANGE
G92 E0.0
;0.35


G1 E-2.24 F2100
;WIPE_START
G1 F9600
G1 X84.419 Y73.083 E-.01587
G1 X84.473 Y73.029 E-.01587
;WIPE_END
G1 E-.52826 F2100
G1 Z.35 F720
;AFTER_LAYER_CHANGE
;0.35
M104 S215 ; set temperature
; printing object v173newbuttons.stl id:0 copy 0
G1 X82.755 Y89.414 F12000
G1 E2.8 F1500
M204 P700
;TYPE:External perimeter
;WIDTH:0.500098
G1 X82.755 Y96.37 E.20298
;WIDTH:0.501834

G1 X82.754 Y96.394 E.0007

M204 P1000
G1 E-2.24 F2100
;WIPE_START
G1 F9600
G1 X82.755 Y96.37 E-.00499
G1 X82.755 Y93.699 E-.55501
;WIPE_END
G1 X82.755 Y102.622 F12000
G1 E2.8 F1500
M204 P700
;WIDTH:0.500098
G1 X82.626 Y102.447 E.00634
;WIDTH:0.451439
G1 X82.268 Y102.241 E.0108
;WIDTH:0.449999
G1 X81.62 Y101.868 E.01948
G1 X81.62 Y97.132 E.1234
;WIDTH:0.4537
G1 X82.626 Y96.553 E.03051
;WIDTH:0.501834

G1 X82.754 Y96.394 E.00598
G1 X82.878 Y96.557 E.006

;WIDTH:0.4537
G1 X82.989 Y96.586 E.00302
;WIDTH:0.449999

G1 X83.692 Y96.586 E.01832
G1 X84.27 Y96.666 E.0152
G1 X84.652 Y96.887 E.0115
G1 X84.936 Y97.225 E.0115
G1 X85.09 Y97.649 E.01175
G1 X85.11 Y97.926 E.00724

G1 X85.11 Y100.997 E.08002
G1 X85.03 Y101.573 E.01515
G1 X84.809 Y101.956 E.01152
G1 X84.471 Y102.239 E.01149
G1 X84.053 Y102.391 E.01159
G1 X83.401 Y102.405 E.01699
;WIDTH:0.451439
G1 X82.879 Y102.444 E.01369
;WIDTH:0.500098
G1 X82.789 Y102.573 E.00459
M204 P1000
G1 E-2.24 F2100
;WIPE_START
G1 F9600
G1 X82.626 Y102.447 E-.04281
G1 X82.268 Y102.241 E-.08583
G1 X81.62 Y101.868 E-.15538
G1 X81.62 Y100.54 E-.27598
;WIPE_END
G1 X82.727 Y83.22 F12000
G1 E2.8 F1500
M204 P700
;WIDTH:0.501834

G1 X82.754 Y83.186 E.00127
G1 X82.878 Y83.349 E.006

;WIDTH:0.4537
M73 P11 R3
G1 X82.989 Y83.378 E.00302
;WIDTH:0.449999
G1 X83.692 Y83.378 E.01832
G1 X84.27 Y83.458 E.0152
G1 X84.652 Y83.679 E.0115
G1 X84.936 Y84.017 E.0115
