; generated by PrusaSlicer 2.6.1+win64 on 2024-04-28 at 13:56:25 UTC


;
;

;
;

;
;
; 

; external perimeters extrusion width = 0.45mm
; perimeters extrusion width = 0.45mm
; infill extrusion width = 0.45mm
; solid infill extrusion width = 0.45mm
; top infill extrusion width = 0.40mm
; first layer extrusion width = 0.50mm

M73 P0 R4
M201 X2500 Y2500 Z200 E2500 ; sets maximum accelerations, mm/sec^2
M203 X200 Y200 Z40 E100 ; sets maximum feedrates, mm / sec
M204 P2000 R1200 T2000 ; sets acceleration (P, T) and retract acceleration (R), mm/sec^2
M205 X8.00 Y8.00 Z2.00 E10.00 ; sets the jerk limits, mm/sec
M205 S0 T0 ; sets the minimum extruding and travel feed rate, mm/sec
;TYPE:Custom
M17 ; enable steppers
M862.3 P "MK4" ; printer model check
M862.1 P0.4 ; nozzle diameter check
M555 X123.549 Y79.975 W32 H46.05

G90 ; use absolute coordinates
M83 ; extruder relative mode

M140 S60 ; set bed temp

M104 S170 ; set extruder temp for bed leveling
M109 R170 ; wait for temp


M84 E ; turn off E motor

G28 ; home all without mesh bed level

G1 X42 Y-4 Z5 F4800

M302 S160 ; lower cold extrusion limit to 160C


G1 E-2 F2400 ; retraction


M84 E ; turn off E motor

G29 P9 X10 Y-4 W32 H4

M106 S100

G0 Z40 F10000

M190 S60 ; wait for bed temp

M107

;
; MBL
;
M84 E ; turn off E motor
G29 P1 ; invalidate mbl & probe print area
G29 P1 X0 Y0 W50 H20 C ; probe near purge place
G29 P3.2 ; interpolate mbl probes
G29 P3.13 ; extrapolate mbl outside probe area
G29 A ; activate mbl

; prepare for purge
M104 S215
G0 X0 Y-4 Z15 F4800 ; move away and ready for the purge
M109 S215

G92 E0
M569 S0 E ; set spreadcycle mode for extruder

;
; Extrude purge line
;
G92 E0 ; reset extruder position
M73 P0 R3
G1 E2 F2400 ; deretraction after the initial one before nozzle cleaning
G0 E7 X15 Z0.2 F500 ; purge
G0 X25 E4 F500 ; purge
G0 X35 E4 F650 ; purge
G0 X45 E4 F800 ; purge
G0 X48 Z0.05 F8000 ; wipe, move close to the bed
G0 X51 Z0.2 F8000 ; wipe, move quickly away from the bed

G92 E0
M221 S100 ; set flow to 100%
G21 ; set units to millimeters
G90 ; use absolute coordinates
M83 ; use relative distances for extrusion
M900 K0.05 ; Filament gcode



M142 S36 ; set heatbreak target temp
M107
;LAYER_CHANGE
;Z:0.2
;HEIGHT:0.2
;BEFORE_LAYER_CHANGE
G92 E0.0
;0.2


G1 E-2.8 F2100
G1 Z.2 F720
;AFTER_LAYER_CHANGE
;0.2
; printing object 2024-04-17 v200 newbuttons.stl id:0 copy 0
M73 P1 R3
G1 X124.845 Y121.049 F12000
G1 E2.8 F1500
M204 P600
;TYPE:Perimeter
;WIDTH:0.499999
M73 P2 R3
G1 F1200
G1 X124.692 Y120.973 E.00649
M73 P3 R3
G1 X124.44 Y120.75 E.01279
G1 X124.456 Y119.722 E.03908
G1 X124.456 Y115.954 E.14321
G1 X124.443 Y115.41 E.02068
G1 X124.589 Y115.272 E.00764
G1 X124.845 Y115.113 E.01145
G1 X125.393 Y115.273 E.0217
M73 P4 R3
G1 X125.949 Y115.345 E.02131
G1 X126.265 Y115.5 E.01338
G1 X126.447 Y115.743 E.01154
G1 X126.494 Y116.077 E.01282
G1 X126.494 Y119.85 E.1434
G1 X126.447 Y120.419 E.0217
G1 X126.265 Y120.662 E.01154
G1 X125.949 Y120.817 E.01338
G1 X125.393 Y120.889 E.02131
G1 X124.903 Y121.033 E.01941
M204 P1000
G1 X124.821 Y121.704 F12000
M204 P600
;TYPE:External perimeter
G1 F1200
G1 X124.707 Y121.509 E.00858
G1 X124.381 Y121.321 E.0143
G1 X123.98 Y120.945 E.02089
G1 X123.999 Y119.726 E.04634
G1 X123.999 Y115.965 E.14294
G1 X123.981 Y115.217 E.02844
G1 X124.276 Y114.939 E.01541
;WIDTH:0.500134
G1 X124.707 Y114.653 E.01966
;WIDTH:0.501758
G1 X124.821 Y114.477 E.008
G1 X124.932 Y114.655 E.008
;WIDTH:0.500134
G1 X125.427 Y114.815 E.01978
;WIDTH:0.499999
G1 X125.926 Y114.881 E.01913
G1 X126.422 Y115.035 E.01974
G1 X126.702 Y115.27 E.01389
G1 X126.883 Y115.585 E.01381
G1 X126.951 Y116.077 E.01888
G1 X126.951 Y120.085 E.15233
G1 X126.883 Y120.577 E.01888
G1 X126.702 Y120.892 E.01381
G1 X126.422 Y121.127 E.01389
G1 X125.926 Y121.281 E.01974
G1 X125.413 Y121.351 E.01968
G1 X124.932 Y121.508 E.01923
G1 X124.851 Y121.652 E.00628
M204 P1000
G1 X124.819 Y121.478 F12000
G1 E-2.24 F2100
;WIPE_START
G1 F9600
G1 X124.707 Y121.509 E-.04217
G1 X124.381 Y121.321 E-.0782
G1 X123.98 Y120.945 E-.11424
G1 X123.999 Y119.726 E-.25335
G1 X123.999 Y119.379 E-.07204
;WIPE_END
G1 X124.821 Y108.496 F12000
G1 E2.8 F1500
M204 P600
;WIDTH:0.500026
G1 F1200
G1 X124.821 Y114.458 E.22661
;WIDTH:0.501758
G1 X124.821 Y114.477 E.00072
M204 P1000
G1 E-2.24 F2100
;WIPE_START
G1 F9600
G1 X124.821 Y114.458 E-.00395
G1 X124.821 Y111.782 E-.55605
;WIPE_END
G1 X124.845 Y101.905 F12000
G1 E2.8 F1500
M204 P600
;TYPE:Perimeter
;WIDTH:0.499999
G1 F1200
G1 X125.393 Y102.065 E.0217
M73 P5 R3
G1 X125.949 Y102.137 E.02131
G1 X126.265 Y102.292 E.01338
G1 X126.447 Y102.535 E.01154
G1 X126.494 Y102.803 E.01034
G1 X126.494 Y106.642 E.14591
G1 X126.447 Y107.211 E.0217
G1 X126.265 Y107.454 E.01154
G1 X125.949 Y107.609 E.01338
G1 X125.393 Y107.681 E.02131
G1 X124.833 Y107.847 E.0222
G1 X124.692 Y107.765 E.0062
G1 X124.44 Y107.542 E.01279
G1 X124.456 Y106.514 E.03908
G1 X124.456 Y102.746 E.14321
G1 X124.443 Y102.202 E.02068
G1 X124.589 Y102.064 E.00764
G1 X124.794 Y101.936 E.00919
M204 P1000
G1 X124.821 Y101.269 F12000
M204 P600
;TYPE:External perimeter
;WIDTH:0.501758
G1 F1200
G1 X124.932 Y101.447 E.008
;WIDTH:0.500134
G1 X125.427 Y101.607 E.01978
;WIDTH:0.500026
G1 X125.926 Y101.673 E.01913
G1 X126.422 Y101.827 E.01974
G1 X126.702 Y102.062 E.01389
G1 X126.883 Y102.377 E.01381
G1 X126.951 Y102.764 E.01493
G1 X126.951 Y106.877 E.15633
G1 X126.883 Y107.369 E.01888
G1 X126.702 Y107.684 E.01381
G1 X126.422 Y107.919 E.01389
G1 X125.926 Y108.073 E.01974
G1 X125.413 Y108.143 E.01968
G1 X124.932 Y108.3 E.01923
G1 X124.821 Y108.496 E.00856
;WIDTH:0.499999
G1 X124.707 Y108.301 E.00858
G1 X124.381 Y108.113 E.0143
G1 X123.98 Y107.737 E.02089
G1 X123.999 Y106.518 E.04634
G1 X123.999 Y102.757 E.14294
G1 X123.981 Y102.009 E.02844
G1 X124.276 Y101.731 E.01541
;WIDTH:0.500134
G1 X124.707 Y101.445 E.01966
;WIDTH:0.501758
G1 X124.788 Y101.319 E.00571
M204 P1000
G1 E-2.24 F2100
;WIPE_START
G1 F9600
G1 X124.932 Y101.447 E-.04004
G1 X125.427 Y101.607 E-.10811
G1 X125.926 Y101.673 E-.1046
G1 X126.422 Y101.827 E-.10793
G1 X126.702 Y102.062 E-.07597
G1 X126.883 Y102.377 E-.0755
G1 X126.923 Y102.604 E-.04785
;WIPE_END
G1 X124.821 Y95.288 F12000
G1 E2.8 F1500
M204 P600
;WIDTH:0.500026
G1 F1200
G1 X124.821 Y101.25 E.22661
;WIDTH:0.501758
G1 X124.821 Y101.269 E.00072
M204 P1000
G1 E-2.24 F2100
;WIPE_START
G1 F9600
G1 X124.821 Y101.25 E-.00395
G1 X124.821 Y98.574 E-.55605
;WIPE_END
M73 P6 R3
G1 X124.845 Y88.697 F12000
G1 E2.8 F1500
M204 P600
;TYPE:Perimeter
;WIDTH:0.499999
G1 F1200
G1 X125.393 Y88.857 E.0217
G1 X125.949 Y88.929 E.02131
G1 X126.265 Y89.084 E.01338
G1 X126.447 Y89.327 E.01154
G1 X126.494 Y89.595 E.01034
G1 X126.494 Y93.434 E.14591
G1 X126.447 Y94.003 E.0217
G1 X126.265 Y94.246 E.01154
G1 X125.949 Y94.401 E.01338
G1 X125.393 Y94.473 E.02131
G1 X124.833 Y94.639 E.0222
G1 X124.692 Y94.557 E.0062
G1 X124.44 Y94.334 E.01279
G1 X124.456 Y93.306 E.03908
G1 X124.456 Y89.538 E.14321
G1 X124.443 Y88.994 E.02068
G1 X124.589 Y88.856 E.00764
G1 X124.794 Y88.728 E.00919
M204 P1000
G1 X124.821 Y88.061 F12000
M204 P600
;TYPE:External perimeter
;WIDTH:0.501758
G1 F1200
G1 X124.932 Y88.239 E.008
;WIDTH:0.500134
G1 X125.427 Y88.399 E.01978
;WIDTH:0.500026
G1 X125.926 Y88.465 E.01913
G1 X126.422 Y88.619 E.01974
G1 X126.702 Y88.854 E.01389
G1 X126.883 Y89.169 E.01381
G1 X126.951 Y89.556 E.01493
G1 X126.951 Y93.669 E.15633
G1 X126.883 Y94.161 E.01888
G1 X126.702 Y94.476 E.01381
G1 X126.422 Y94.711 E.01389
G1 X125.926 Y94.865 E.01974
G1 X125.413 Y94.935 E.01968
G1 X124.932 Y95.092 E.01923
G1 X124.821 Y95.288 E.00856
;WIDTH:0.499999
G1 X124.707 Y95.093 E.00858
G1 X124.381 Y94.905 E.0143
G1 X123.98 Y94.529 E.02089
G1 X123.999 Y93.31 E.04634
G1 X123.999 Y89.549 E.14294
G1 X123.981 Y88.801 E.02844
G1 X124.276 Y88.523 E.01541
;WIDTH:0.500134
G1 X124.707 Y88.237 E.01966
;WIDTH:0.501758
G1 X124.788 Y88.111 E.00571
M204 P1000
G1 E-2.24 F2100
;WIPE_START
G1 F9600
G1 X124.932 Y88.239 E-.04004
G1 X125.427 Y88.399 E-.10811
G1 X125.926 Y88.465 E-.1046
M73 P7 R3
G1 X126.422 Y88.619 E-.10793
G1 X126.702 Y88.854 E-.07597
G1 X126.883 Y89.169 E-.0755
G1 X126.923 Y89.396 E-.04785
;WIPE_END
G1 X126.021 Y84.505 F12000
G1 E2.8 F1500
M204 P600
;WIDTH:0.499998
G1 F1200
G1 X126.021 Y85.496 E.03766
;WIDTH:0.53921
G1 X126.001 Y85.591 E.00401
;WIDTH:0.578422
G1 X125.982 Y85.686 E.00431
G1 X125.887 Y85.705 E.00431
;WIDTH:0.53921
G1 X125.792 Y85.725 E.00401
;WIDTH:0.5
G1 X125.05 Y85.725 E.0282
;WIDTH:0.53921
G1 X124.955 Y85.745 E.00401
;WIDTH:0.57842
G1 X124.86 Y85.764 E.00431
G1 X124.841 Y85.859 E.00431
;WIDTH:0.53921
G1 X124.821 Y85.954 E.00401
;WIDTH:0.500026
G1 X124.821 Y88.042 E.07936
;WIDTH:0.501758
G1 X124.821 Y88.061 E.00072
M204 P1000
G1 E-2.24 F2100
;WIPE_START
G1 F9600
G1 X124.821 Y88.042 E-.00395
G1 X124.821 Y85.954 E-.43391
G1 X124.841 Y85.859 E-.02017
G1 X124.86 Y85.764 E-.02013
G1 X124.955 Y85.745 E-.02013
G1 X125.05 Y85.725 E-.02017
G1 X125.25 Y85.725 E-.04154
;WIPE_END
G1 X126.021 Y125.495 F12000
G1 E2.8 F1500
M204 P600
;WIDTH:0.499998
G1 F1200
G1 X126.021 Y124.504 E.03766
;WIDTH:0.53921
G1 X126.001 Y124.409 E.00401
;WIDTH:0.578422
G1 X125.982 Y124.314 E.00431
G1 X125.887 Y124.295 E.00431
;WIDTH:0.53921
G1 X125.792 Y124.275 E.00401
;WIDTH:0.5
G1 X125.05 Y124.275 E.0282
;WIDTH:0.53921
G1 X124.955 Y124.255 E.00401
;WIDTH:0.57842
G1 X124.86 Y124.236 E.00431
G1 X124.841 Y124.141 E.00431
;WIDTH:0.53921
G1 X124.821 Y124.046 E.00401
;WIDTH:0.500026
G1 X124.821 Y121.704 E.08902
M204 P1000
G1 E-2.24 F2100
;WIPE_START
G1 F9600
G1 X124.821 Y124.046 E-.4867
G1 X124.841 Y124.141 E-.02017
G1 X124.86 Y124.236 E-.02013
G1 X124.955 Y124.255 E-.02013
G1 X125.016 Y124.268 E-.01287
;WIPE_END
G1 X125.708 Y115.52 F12000
G1 E2.8 F1500
M204 P600
;TYPE:Solid infill
;WIDTH:0.507058
G1 F1200
G1 X126.028 Y115.84 E.01747
G1 X126.054 Y115.886 E.00204
G1 X126.083 Y116.047 E.00631
G1 X126.083 Y116.551 E.01945
G1 X125.176 Y115.644 E.0495
G1 X124.887 Y115.557 E.01165
G1 X124.858 Y115.584 E.00153
G1 X124.867 Y115.992 E.01575
G1 X126.083 Y117.207 E.06634
G1 X126.083 Y117.864 E.02536
G1 X124.867 Y116.648 E.06637
G1 X124.867 Y117.305 E.02536
G1 X126.083 Y118.52 E.06634
G1 X126.083 Y119.176 E.02532
G1 X124.867 Y117.961 E.06634
G1 X124.867 Y118.618 E.02536
G1 X126.083 Y119.833 E.06634
G1 X126.083 Y120.115 E.01088
M73 P8 R3
G1 X126.054 Y120.276 E.00631
G1 X126.026 Y120.325 E.00218
G1 X125.965 Y120.371 E.00295
G1 X124.867 Y119.274 E.0599
G1 X124.864 Y119.927 E.0252
G1 X125.409 Y120.472 E.02975
G1 X125.162 Y120.519 E.0097
G1 X124.887 Y120.605 E.01112
G1 X124.652 Y120.371 E.0128
M204 P1000
G1 E-2.24 F2100
;WIPE_START
G1 F9600
G1 X124.887 Y120.605 E-.06892
G1 X125.162 Y120.519 E-.05988
G1 X125.409 Y120.472 E-.05225
G1 X124.864 Y119.927 E-.16017
G1 X124.867 Y119.274 E-.1357
G1 X125.15 Y119.557 E-.08308
;WIPE_END
G1 X125.708 Y102.312 F12000
G1 E2.8 F1500
M204 P600
G1 F1200
G1 X126.028 Y102.632 E.01747
G1 X126.054 Y102.678 E.00204
G1 X126.083 Y102.839 E.00631
G1 X126.083 Y103.343 E.01945
G1 X125.176 Y102.436 E.0495
G1 X124.887 Y102.349 E.01165
G1 X124.858 Y102.376 E.00153
G1 X124.867 Y102.784 E.01575
G1 X126.083 Y103.999 E.06634
G1 X126.083 Y104.656 E.02536
G1 X124.867 Y103.44 E.06637
G1 X124.867 Y104.097 E.02536
G1 X126.083 Y105.312 E.06634
G1 X126.083 Y105.968 E.02532
G1 X124.867 Y104.753 E.06634
G1 X124.867 Y105.41 E.02536
G1 X126.083 Y106.625 E.06634
G1 X126.083 Y106.907 E.01088
G1 X126.054 Y107.068 E.00631
G1 X126.026 Y107.117 E.00218
G1 X125.965 Y107.163 E.00295
G1 X124.867 Y106.066 E.0599
G1 X124.864 Y106.719 E.0252
G1 X125.409 Y107.264 E.02975
G1 X125.162 Y107.311 E.0097
G1 X124.887 Y107.397 E.01112
G1 X124.652 Y107.163 E.0128
M204 P1000
G1 E-2.24 F2100
;WIPE_START
G1 F9600
G1 X124.887 Y107.397 E-.06892
G1 X125.162 Y107.311 E-.05988
G1 X125.409 Y107.264 E-.05225
G1 X124.864 Y106.719 E-.16017
M73 P9 R3
G1 X124.867 Y106.066 E-.1357
G1 X125.15 Y106.349 E-.08308
;WIPE_END
G1 X125.708 Y89.104 F12000
G1 E2.8 F1500
M204 P600
G1 F1200
G1 X126.028 Y89.424 E.01747
G1 X126.054 Y89.47 E.00204
G1 X126.083 Y89.631 E.00631
G1 X126.083 Y90.135 E.01945
G1 X125.176 Y89.228 E.0495
G1 X124.887 Y89.141 E.01165
G1 X124.858 Y89.168 E.00153
G1 X124.867 Y89.576 E.01575
G1 X126.083 Y90.791 E.06634
G1 X126.083 Y91.448 E.02536
G1 X124.867 Y90.232 E.06637
G1 X124.867 Y90.889 E.02536
G1 X126.083 Y92.104 E.06634
G1 X126.083 Y92.76 E.02532
G1 X124.867 Y91.545 E.06634
G1 X124.867 Y92.202 E.02536
G1 X126.083 Y93.417 E.06634
G1 X126.083 Y93.699 E.01088
G1 X126.054 Y93.86 E.00631
G1 X126.026 Y93.909 E.00218
G1 X125.965 Y93.955 E.00295
G1 X124.867 Y92.858 E.0599
G1 X124.864 Y93.511 E.0252
G1 X125.409 Y94.056 E.02975
G1 X125.162 Y94.103 E.0097
G1 X124.887 Y94.189 E.01112
G1 X124.652 Y93.955 E.0128
M204 P1000
; stop printing object 2024-04-17 v200 newbuttons.stl id:0 copy 0
M106 S127.5
;LAYER_CHANGE
;Z:0.35
;HEIGHT:0.15
;BEFORE_LAYER_CHANGE
G92 E0.0
;0.35


G1 E-2.24 F2100
;WIPE_START
G1 F9600
G1 X124.887 Y94.189 E-.06892
G1 X125.162 Y94.103 E-.05988
G1 X125.409 Y94.056 E-.05225
G1 X124.864 Y93.511 E-.16017
G1 X124.867 Y92.858 E-.1357
G1 X125.15 Y93.141 E-.08308
;WIPE_END
G1 Z.35 F720
;AFTER_LAYER_CHANGE
;0.35
M104 S210 ; set temperature
; printing object 2024-04-17 v200 newbuttons.stl id:0 copy 0
G1 X124.842 Y121.134 F12000
G1 E2.8 F1500
M204 P900
;TYPE:Perimeter
;WIDTH:0.449999
G1 X124.104 Y120.708 E.0222
G1 X124.104 Y115.454 E.1369
G1 X124.842 Y115.028 E.0222
G1 X125.055 Y115.085 E.00575
G1 X125.758 Y115.085 E.01832
G1 X126.191 Y115.146 E.01139
G1 X126.446 Y115.293 E.00767
G1 X126.635 Y115.519 E.00768
G1 X126.703 Y115.705 E.00516
G1 X126.758 Y116.008 E.00802
G1 X126.758 Y120.078 E.10605
M73 P10 R3
G1 X126.697 Y120.509 E.01134
G1 X126.55 Y120.764 E.00767
G1 X126.325 Y120.953 E.00766
G1 X126.042 Y121.056 E.00785
G1 X125.042 Y121.077 E.02606
G1 X124.9 Y121.117 E.00384
M204 P1000
G1 X124.821 Y121.703 F12000
M204 P700
;TYPE:External perimeter
;WIDTH:0.500098
G1 F1500
G1 X124.692 Y121.529 E.00632
;WIDTH:0.451439
G1 X124.334 Y121.323 E.0108
;WIDTH:0.449999
G1 X123.686 Y120.949 E.01949
G1 X123.686 Y115.213 E.14946
;WIDTH:0.4537
G1 X124.692 Y114.634 E.03051
;WIDTH:0.501834
G1 X124.821 Y114.476 E.00597
G1 X124.944 Y114.638 E.00596
;WIDTH:0.4537
G1 X125.055 Y114.667 E.00302
;WIDTH:0.449999

G1 X125.758 Y114.667 E.01832
G1 X126.336 Y114.747 E.0152
G1 X126.718 Y114.968 E.0115
G1 X127.002 Y115.307 E.01152
G1 X127.157 Y115.73 E.01174
G1 X127.176 Y116.008 E.00726

G1 X127.176 Y120.078 E.10605
G1 X127.096 Y120.654 E.01515
G1 X126.875 Y121.037 E.01152
G1 X126.537 Y121.321 E.0115
G1 X126.12 Y121.473 E.01156
G1 X125.467 Y121.486 E.01702
;WIDTH:0.451439
G1 X124.945 Y121.525 E.01369
;WIDTH:0.500098
G1 X124.855 Y121.654 E.00459
M204 P1000
G1 E-2.24 F2100
;WIPE_START
G1 F9600
G1 X124.692 Y121.529 E-.04269
G1 X124.334 Y121.323 E-.08583
G1 X123.686 Y120.949 E-.15548
G1 X123.686 Y119.621 E-.276
;WIPE_END
G1 X124.821 Y108.495 F12000
G1 E2.8 F1500
M204 P700
G1 X124.821 Y114.452 E.17383
;WIDTH:0.501834

G1 X124.821 Y114.476 E.0007

M204 P1000
G1 E-2.24 F2100
;WIPE_START
G1 F9600
G1 X124.821 Y114.452 E-.00499
G1 X124.821 Y111.781 E-.55501
;WIPE_END
G1 X124.842 Y101.82 F12000
G1 E2.8 F1500
M204 P900
;TYPE:Perimeter
;WIDTH:0.449999
G1 X125.055 Y101.877 E.00575
G1 X125.758 Y101.877 E.01832
G1 X126.191 Y101.938 E.01139
G1 X126.446 Y102.085 E.00767
G1 X126.635 Y102.311 E.00768
G1 X126.685 Y102.449 E.00382
G1 X126.758 Y102.763 E.0084
G1 X126.758 Y106.87 E.10701
M73 P11 R3
G1 X126.697 Y107.301 E.01134
G1 X126.55 Y107.556 E.00767
G1 X126.325 Y107.745 E.00766
G1 X126.042 Y107.848 E.00785
G1 X125.042 Y107.869 E.02606
G1 X124.842 Y107.926 E.00542
G1 X124.104 Y107.5 E.0222
G1 X124.104 Y102.246 E.1369
G1 X124.79 Y101.85 E.02064
M204 P1000
G1 X124.821 Y101.268 F12000
M204 P700
;TYPE:External perimeter
;WIDTH:0.501834
G1 F1500
G1 X124.944 Y101.43 E.00596
;WIDTH:0.4537
G1 X125.055 Y101.459 E.00302
;WIDTH:0.449999
G1 X125.758 Y101.459 E.01832
G1 X126.336 Y101.539 E.0152
G1 X126.718 Y101.76 E.0115
G1 X127.002 Y102.099 E.01152
G1 X127.099 Y102.365 E.00738
G1 X127.176 Y102.744 E.01008
G1 X127.176 Y106.87 E.10751
G1 X127.096 Y107.447 E.01518
