; generated by PrusaSlicer 2.6.1+win64 on 2024-01-21 at 20:18:54 UTC


;
;

;
;

;
;
; 

; external perimeters extrusion width = 0.45mm
; perimeters extrusion width = 0.45mm
; infill extrusion width = 0.45mm
; solid infill extrusion width = 0.45mm
; top infill extrusion width = 0.40mm
; first layer extrusion width = 0.50mm

M73 P0 R6
M201 X2500 Y2500 Z200 E2500 ; sets maximum accelerations, mm/sec^2
M203 X200 Y200 Z40 E100 ; sets maximum feedrates, mm / sec
M204 P2000 R1200 T2000 ; sets acceleration (P, T) and retract acceleration (R), mm/sec^2
M205 X8.00 Y8.00 Z2.00 E10.00 ; sets the jerk limits, mm/sec
M205 S0 T0 ; sets the minimum extruding and travel feed rate, mm/sec
;TYPE:Custom
M17 ; enable steppers
M862.3 P "MK4" ; printer model check
M862.1 P0.4 ; nozzle diameter check
M555 X122.359 Y80.662 W32 H44.676

G90 ; use absolute coordinates
M83 ; extruder relative mode

M140 S60 ; set bed temp

M104 S170 ; set extruder temp for bed leveling
M109 R170 ; wait for temp


M84 E ; turn off E motor

G28 ; home all without mesh bed level

G1 X42 Y-4 Z5 F4800

M302 S160 ; lower cold extrusion limit to 160C


G1 E-2 F2400 ; retraction


M84 E ; turn off E motor

G29 P9 X10 Y-4 W32 H4

M106 S100

G0 Z40 F10000

M190 S60 ; wait for bed temp

M107

;
; MBL
;
M84 E ; turn off E motor
G29 P1 ; invalidate mbl & probe print area
G29 P1 X0 Y0 W50 H20 C ; probe near purge place
G29 P3.2 ; interpolate mbl probes
G29 P3.13 ; extrapolate mbl outside probe area
G29 A ; activate mbl

; prepare for purge
M104 S220
G0 X0 Y-4 Z15 F4800 ; move away and ready for the purge
M109 S220

G92 E0
M569 S0 E ; set spreadcycle mode for extruder

;
; Extrude purge line
;
G92 E0 ; reset extruder position
G1 E2 F2400 ; deretraction after the initial one before nozzle cleaning
G0 E7 X15 Z0.2 F500 ; purge
G0 X25 E4 F500 ; purge
G0 X35 E4 F650 ; purge
G0 X45 E4 F800 ; purge
G0 X48 Z0.05 F8000 ; wipe, move close to the bed
G0 X51 Z0.2 F8000 ; wipe, move quickly away from the bed

G92 E0
M221 S100 ; set flow to 100%
G21 ; set units to millimeters
G90 ; use absolute coordinates
M83 ; use relative distances for extrusion
M900 K0.05 ; Filament gcode



M142 S36 ; set heatbreak target temp
M107
;LAYER_CHANGE
;Z:0.2
;HEIGHT:0.2
;BEFORE_LAYER_CHANGE
G92 E0.0
;0.2


G1 E-2.8 F2100
G1 Z.2 F720
;AFTER_LAYER_CHANGE
;0.2
; printing object v94buttons.stl id:0 copy 0
M73 P0 R5
G1 X123.832 Y120.068 F12000
G1 E2.8 F1500
M204 P600
;TYPE:Perimeter
;WIDTH:0.499999
M73 P1 R5
G1 F1200
G1 X123.718 Y120.148 E.00529
M73 P2 R5
G1 X123.36 Y120.67 E.02406
G1 X123.261 Y120.524 E.0067
G1 X123.265 Y116.698 E.14541
G1 X123.241 Y115.969 E.02772
G1 X123.36 Y115.746 E.00961
G1 X123.852 Y116.413 E.0315
G1 X124.228 Y116.564 E.0154
G1 X124.785 Y116.607 E.02123
G1 X126.557 Y116.614 E.06735
G1 X126.734 Y116.791 E.00951
G1 X126.734 Y119.625 E.10771
G1 X126.557 Y119.802 E.00951
G1 X124.731 Y119.811 E.0694
G1 X124.116 Y119.871 E.02348
G1 X123.881 Y120.034 E.01087
M204 P1000
G1 X124.143 Y120.378 F12000
M204 P600
;TYPE:External perimeter
G1 F1200
G1 X124.095 Y120.406 E.00211
G1 X123.837 Y120.783 E.01736
G1 X123.616 Y121.07 E.01377
;WIDTH:0.472314
G1 X123.395 Y121.357 E.01293
;WIDTH:0.444629
G1 X123.359 Y121.499 E.00489
G1 X123.322 Y121.357 E.0049
;WIDTH:0.472314
G1 X123.204 Y121.219 E.00648
;WIDTH:0.499999
G1 X123.086 Y121.081 E.0069
G1 X122.77 Y120.612 E.02149
G1 X122.801 Y120.211 E.01529
G1 X122.809 Y119.21 E.03805
G1 X122.804 Y116.42 E.10604
G1 X122.77 Y115.804 E.02345
G1 X123.102 Y115.347 E.02147
;WIDTH:0.470765
G1 X123.321 Y115.058 E.0129
;WIDTH:0.441531
G1 X123.359 Y114.933 E.00433
G1 X123.397 Y115.058 E.00433
;WIDTH:0.470765
G1 X123.515 Y115.197 E.00649
;WIDTH:0.499999
G1 X123.633 Y115.335 E.0069
G1 X124.095 Y116.01 E.03109
G1 X124.265 Y116.108 E.00746
G1 X124.786 Y116.15 E.01987
M73 P3 R5
G1 X126.747 Y116.158 E.07453
G1 X127.191 Y116.602 E.02386
G1 X127.191 Y116.916 E.01193
G1 X127.191 Y119.814 E.11014
G1 X126.747 Y120.258 E.02386
G1 X124.769 Y120.267 E.07518
G1 X124.265 Y120.308 E.01922
G1 X124.195 Y120.348 E.00306
M204 P1000
G1 X124.099 Y120.345 F12000
G1 E-2.24 F2100
;WIPE_START
G1 F9600
G1 X124.095 Y120.406 E-.02402
G1 X123.837 Y120.783 E-.09493
G1 X123.616 Y121.07 E-.07528
G1 X123.395 Y121.357 E-.07528
G1 X123.359 Y121.499 E-.03044
G1 X123.322 Y121.357 E-.03049
G1 X123.204 Y121.219 E-.03773
G1 X123.086 Y121.081 E-.03773
G1 X122.77 Y120.612 E-.11752
G1 X122.784 Y120.436 E-.03658
;WIPE_END
G1 X125.852 Y123.138 F12000
G1 E2.8 F1500
M204 P600
;WIDTH:0.399994
G1 F1200
G1 X123.537 Y123.138 E.06873
;WIDTH:0.430624
G1 X123.464 Y123.123 E.0024
;WIDTH:0.461254
G1 X123.39 Y123.107 E.00263
G1 X123.374 Y123.033 E.00263
;WIDTH:0.430624
G1 X123.359 Y122.959 E.00243
;WIDTH:0.399994
G1 X123.359 Y121.499 E.04335
M204 P1000
G1 E-2.24 F2100
;WIPE_START
G1 F9600
G1 X123.359 Y122.959 E-.30341
G1 X123.374 Y123.033 E-.01569
G1 X123.39 Y123.107 E-.01573
G1 X123.464 Y123.123 E-.01573
G1 X123.537 Y123.138 E-.01549
G1 X124.47 Y123.138 E-.19395
;WIPE_END
G1 X126.042 Y123.338 F12000
G1 E2.8 F1500
M204 P600
;WIDTH:0.421461
G1 F1200
G1 X125.852 Y123.138 E.00868
G1 X126.42 Y123.149 E.01788
G1 X126.42 Y124.759 E.05068
G1 X126.383 Y124.965 E.00659
G1 X126.083 Y124.964 E.00944
G1 X126.042 Y124.81 E.00502
G1 X126.042 Y123.398 E.04444
M204 P1000
G1 X126.182 Y123.101 F12000
G1 E-2.24 F2100
;WIPE_START
G1 F9600
G1 X125.852 Y123.138 E-.06692
G1 X126.42 Y123.149 E-.11806
G1 X126.42 Y124.759 E-.33458
G1 X126.386 Y124.951 E-.04044
;WIPE_END
G1 X123.359 Y108.291 F12000
G1 E2.8 F1500
M204 P600
;WIDTH:0.399994
G1 F1200
G1 X123.359 Y114.917 E.19673
;WIDTH:0.401354
G1 X123.359 Y114.933 E.00048
M204 P1000
G1 E-2.24 F2100
;WIPE_START
G1 F9600
G1 X123.359 Y114.917 E-.00333
G1 X123.359 Y112.238 E-.55667
;WIPE_END
G1 X123.859 Y103.181 F12000
G1 E2.8 F1500
M204 P600
;TYPE:Perimeter
;WIDTH:0.499999
G1 F1200
G1 X124.228 Y103.356 E.01552
G1 X124.785 Y103.399 E.02123
G1 X126.557 Y103.406 E.06735
G1 X126.734 Y103.583 E.00951
G1 X126.734 Y106.417 E.10771
G1 X126.557 Y106.594 E.00951
G1 X124.731 Y106.603 E.0694
G1 X124.049 Y106.683 E.0261
G1 X123.718 Y106.94 E.01593
G1 X123.36 Y107.462 E.02406
G1 X123.252 Y107.302 E.00734
G1 X123.245 Y106.784 E.01969
G1 X123.266 Y106.136 E.02464
G1 X123.265 Y103.374 E.10497
G1 X123.234 Y102.77 E.02299
G1 X123.36 Y102.538 E.01003
G1 X123.789 Y103.147 E.02831
G1 X123.805 Y103.155 E.00068
M204 P1000
G1 X124.141 Y102.828 F12000
M204 P600
;TYPE:External perimeter
M73 P4 R5
G1 F1200
G1 X124.265 Y102.9 E.00545
G1 X124.786 Y102.942 E.01987
G1 X126.747 Y102.95 E.07453
G1 X127.191 Y103.394 E.02386
G1 X127.191 Y106.606 E.12208
G1 X126.747 Y107.05 E.02386
G1 X124.769 Y107.059 E.07518
G1 X124.265 Y107.1 E.01922
G1 X124.095 Y107.198 E.00746
G1 X123.846 Y107.561 E.01673
G1 X123.621 Y107.855 E.01407
;WIDTH:0.472314
G1 X123.395 Y108.149 E.01324
;WIDTH:0.444629
G1 X123.359 Y108.291 E.00489
G1 X123.322 Y108.149 E.0049
;WIDTH:0.472314
G1 X123.204 Y108.011 E.00648
;WIDTH:0.499999
G1 X123.086 Y107.873 E.0069
G1 X122.766 Y107.399 E.02174
G1 X122.809 Y106.136 E.04803
G1 X122.808 Y103.397 E.1041
G1 X122.768 Y102.599 E.03037
G1 X123.099 Y102.144 E.02138
;WIDTH:0.470765
G1 X123.321 Y101.85 E.01311
;WIDTH:0.441531
G1 X123.359 Y101.725 E.00433
G1 X123.397 Y101.85 E.00433
;WIDTH:0.470765
G1 X123.515 Y101.989 E.00649
;WIDTH:0.499999
G1 X123.633 Y102.127 E.0069
G1 X124.091 Y102.796 E.03081
M204 P1000
G1 X124.121 Y102.97 F12000
G1 E-2.24 F2100
;WIPE_START
G1 F9600
G1 X124.265 Y102.9 E-.04213
G1 X124.786 Y102.942 E-.10862
G1 X126.747 Y102.95 E-.40752
G1 X126.753 Y102.956 E-.00173
;WIPE_END
G1 X123.359 Y95.083 F12000
G1 E2.8 F1500
M204 P600
;WIDTH:0.399994
G1 F1200
G1 X123.359 Y101.709 E.19673
;WIDTH:0.401354
G1 X123.359 Y101.725 E.00048
M204 P1000
G1 E-2.24 F2100
;WIPE_START
G1 F9600
G1 X123.359 Y101.709 E-.00333
G1 X123.359 Y99.03 E-.55667
;WIPE_END
G1 X123.859 Y89.973 F12000
G1 E2.8 F1500
M204 P600
;TYPE:Perimeter
;WIDTH:0.499999
G1 F1200
G1 X124.228 Y90.148 E.01552
G1 X124.785 Y90.191 E.02123
G1 X126.557 Y90.198 E.06735
G1 X126.734 Y90.375 E.00951
G1 X126.734 Y93.209 E.10771
G1 X126.557 Y93.386 E.00951
G1 X124.731 Y93.395 E.0694
G1 X124.049 Y93.475 E.0261
G1 X123.718 Y93.732 E.01593
G1 X123.36 Y94.254 E.02406
G1 X123.252 Y94.094 E.00734
G1 X123.245 Y93.576 E.01969
G1 X123.266 Y92.928 E.02464
G1 X123.265 Y90.166 E.10497
G1 X123.234 Y89.562 E.02299
G1 X123.36 Y89.33 E.01003
G1 X123.789 Y89.939 E.02831
G1 X123.805 Y89.947 E.00068
M204 P1000
G1 X124.141 Y89.62 F12000
M204 P600
;TYPE:External perimeter
G1 F1200
G1 X124.265 Y89.692 E.00545
G1 X124.786 Y89.734 E.01987
G1 X126.747 Y89.742 E.07453
G1 X127.191 Y90.186 E.02386
G1 X127.191 Y93.399 E.12211
G1 X126.747 Y93.842 E.02384
G1 X124.769 Y93.851 E.07518
G1 X124.265 Y93.892 E.01922
G1 X124.095 Y93.99 E.00746
G1 X123.846 Y94.353 E.01673
G1 X123.621 Y94.647 E.01407
;WIDTH:0.472315
G1 X123.395 Y94.941 E.01324
;WIDTH:0.44463
G1 X123.359 Y95.083 E.00489
G1 X123.322 Y94.941 E.0049
;WIDTH:0.472315
M73 P5 R5
G1 X123.204 Y94.803 E.00648
;WIDTH:0.499999
G1 X123.086 Y94.665 E.0069
G1 X122.766 Y94.191 E.02174
G1 X122.809 Y92.928 E.04803
G1 X122.808 Y90.189 E.1041
G1 X122.768 Y89.391 E.03037
G1 X123.099 Y88.936 E.02138
;WIDTH:0.470765
G1 X123.321 Y88.642 E.01311
;WIDTH:0.441531
G1 X123.359 Y88.517 E.00433
G1 X123.397 Y88.642 E.00433
;WIDTH:0.470765
G1 X123.515 Y88.781 E.00649
;WIDTH:0.499999
G1 X123.633 Y88.919 E.0069
G1 X124.091 Y89.588 E.03081
M204 P1000
G1 X124.121 Y89.762 F12000
G1 E-2.24 F2100
;WIPE_START
G1 F9600
G1 X124.265 Y89.692 E-.04213
G1 X124.786 Y89.734 E-.10862
G1 X126.747 Y89.742 E-.40752
G1 X126.753 Y89.748 E-.00173
;WIPE_END
G1 X125.883 Y86.861 F12000
G1 E2.8 F1500
M204 P600
;WIDTH:0.402708
G1 F1200
G1 X125.852 Y86.862 E.00093
;WIDTH:0.400002
G1 X123.537 Y86.862 E.06874
;WIDTH:0.430631
G1 X123.464 Y86.877 E.0024
;WIDTH:0.46126
G1 X123.39 Y86.893 E.00263
G1 X123.374 Y86.967 E.00263
;WIDTH:0.430627
G1 X123.359 Y87.041 E.00243
;WIDTH:0.401354
G1 X123.359 Y88.517 E.04399
M204 P1000
G1 E-2.24 F2100
;WIPE_START
G1 F9600
G1 X123.359 Y87.041 E-.30673
G1 X123.374 Y86.967 E-.01569
G1 X123.39 Y86.893 E-.01573
G1 X123.464 Y86.877 E-.01573
G1 X123.537 Y86.862 E-.01549
G1 X124.454 Y86.862 E-.19063
;WIPE_END
G1 X125.883 Y86.861 F12000
G1 E2.8 F1500
M204 P600
;WIDTH:0.421461
G1 F1200
G1 X126.042 Y86.662 E.00802
G1 X126.042 Y85.241 E.04473
G1 X126.083 Y85.036 E.00658
G1 X126.383 Y85.035 E.00944
G1 X126.42 Y85.171 E.00444
G1 X126.42 Y86.851 E.05288
G1 X125.943 Y86.86 E.01502
M204 P1000
G1 X126.004 Y87.084 F12000
G1 E-2.24 F2100
;WIPE_START
G1 F9600
G1 X126.042 Y86.662 E-.046
G1 X126.042 Y85.241 E-.2953
G1 X126.083 Y85.036 E-.04345
G1 X126.383 Y85.035 E-.06234
G1 X126.42 Y85.171 E-.02929
G1 X126.42 Y85.573 E-.08362
;WIPE_END
G1 X125.596 Y90.4 F12000
G1 E2.8 F1500
M204 P600
;TYPE:Solid infill
;WIDTH:0.5023
G1 F1200
G1 X126.323 Y91.127 E.03927
G1 X126.323 Y91.776 E.02479
G1 X125.15 Y90.604 E.06334
G1 X124.776 Y90.603 E.01429
G1 X124.476 Y90.58 E.01149
G1 X126.323 Y92.426 E.09975
G1 X126.323 Y92.976 E.02101
G1 X126.223 Y92.976 E.00382
G1 X123.677 Y90.43 E.13753
G1 X123.677 Y91.08 E.02483
G1 X125.576 Y92.978 E.10256
G1 X124.928 Y92.981 E.02475
G1 X123.677 Y91.73 E.06758
G1 X123.677 Y92.379 E.02479
G1 X124.315 Y93.017 E.03446
G1 X124.181 Y93.027 E.00513
G1 X123.859 Y93.104 E.01265
G1 X123.799 Y93.151 E.00291
G1 X123.472 Y92.824 E.01766
M204 P1000
G1 E-2.24 F2100
;WIPE_START
G1 F9600
G1 X123.799 Y93.151 E-.0961
G1 X123.859 Y93.104 E-.01584
G1 X124.181 Y93.027 E-.0688
G1 X124.315 Y93.017 E-.02792
G1 X123.677 Y92.379 E-.1875
G1 X123.677 Y91.73 E-.13487
G1 X123.776 Y91.829 E-.02897
;WIPE_END
G1 X125.596 Y103.608 F12000
G1 E2.8 F1500
M204 P600
G1 F1200
G1 X126.323 Y104.335 E.03927
G1 X126.323 Y104.984 E.02479
G1 X125.15 Y103.812 E.06334
M73 P6 R5
G1 X124.776 Y103.811 E.01429
G1 X124.476 Y103.788 E.01149
G1 X126.323 Y105.634 E.09975
G1 X126.323 Y106.184 E.02101
G1 X126.223 Y106.184 E.00382
G1 X123.677 Y103.638 E.13753
G1 X123.677 Y104.288 E.02483
G1 X125.576 Y106.186 E.10256
G1 X124.928 Y106.189 E.02475
G1 X123.677 Y104.938 E.06758
G1 X123.677 Y105.587 E.02479
G1 X124.315 Y106.225 E.03446
G1 X124.181 Y106.235 E.00513
G1 X123.859 Y106.312 E.01265
G1 X123.799 Y106.359 E.00291
G1 X123.472 Y106.032 E.01766
M204 P1000
G1 E-2.24 F2100
;WIPE_START
G1 F9600
G1 X123.799 Y106.359 E-.0961
G1 X123.859 Y106.312 E-.01584
G1 X124.181 Y106.235 E-.0688
G1 X124.315 Y106.225 E-.02792
G1 X123.677 Y105.587 E-.1875
G1 X123.677 Y104.938 E-.13487
G1 X123.776 Y105.037 E-.02897
;WIPE_END
G1 X125.495 Y116.816 F12000
G1 E2.8 F1500
M204 P600
;WIDTH:0.54949
G1 F1200
G1 X126.323 Y117.643 E.04929
G1 X126.323 Y118.359 E.03016
G1 X124.983 Y117.019 E.07982
G1 X124.776 Y117.019 E.00872
G1 X124.223 Y116.976 E.02336
G1 X126.323 Y119.076 E.12509
G1 X126.323 Y119.392 E.01331
G1 X125.924 Y119.393 E.01681
G1 X123.671 Y117.141 E.13418
G1 X123.671 Y117.857 E.03016
G1 X125.21 Y119.396 E.09168
G1 X124.776 Y119.397 E.01828
G1 X124.515 Y119.417 E.01103
G1 X123.671 Y118.573 E.05028
G1 X123.671 Y119.289 E.03016
G1 X124.059 Y119.678 E.02314
M204 P1000
; stop printing object v94buttons.stl id:0 copy 0
M106 S127.5
;LAYER_CHANGE
;Z:0.35
;HEIGHT:0.15
;BEFORE_LAYER_CHANGE
G92 E0.0
;0.35


G1 E-2.24 F2100
;WIPE_START
G1 F9600
G1 X123.671 Y119.289 E-.11418
G1 X123.671 Y118.573 E-.14879
G1 X124.515 Y119.417 E-.24804
G1 X124.75 Y119.399 E-.04899
;WIPE_END
G1 Z.35 F720
;AFTER_LAYER_CHANGE
;0.35
M104 S215 ; set temperature
; printing object v94buttons.stl id:0 copy 0
G1 X124.037 Y120.196 F12000
G1 E2.8 F1500
M204 P900
;TYPE:Perimeter
;WIDTH:0.449999
G1 X123.909 Y120.249 E.00361
G1 X123.359 Y120.799 E.02027
G1 X123.002 Y120.442 E.01315
G1 X123.002 Y115.974 E.11642
G1 X123.359 Y115.617 E.01315
G1 X123.909 Y116.167 E.02027
G1 X124.352 Y116.351 E.0125
G1 X126.668 Y116.351 E.06035
G1 X126.998 Y116.681 E.01216
G1 X126.998 Y119.735 E.07957
G1 X126.668 Y120.065 E.01216
G1 X124.352 Y120.065 E.06035
G1 X124.093 Y120.173 E.00731
M204 P1000
G1 X124.221 Y120.537 F12000
M204 P700
;TYPE:External perimeter
M73 P7 R5
G1 F1500
G1 X123.907 Y120.842 E.01141
G1 X123.405 Y121.363 E.01885
;WIDTH:0.422984
G1 X123.359 Y121.501 E.00355
G1 X123.313 Y121.363 E.00355
;WIDTH:0.449999
G1 X122.584 Y120.615 E.02721
G1 X122.584 Y115.801 E.12543
G1 X123.313 Y115.052 E.02723
;WIDTH:0.421787
G1 X123.359 Y114.931 E.00315
G1 X123.405 Y115.052 E.00315
;WIDTH:0.449999
G1 X124.205 Y115.872 E.02985
G1 X124.352 Y115.933 E.00415
G1 X126.841 Y115.933 E.06485
G1 X127.416 Y116.508 E.02119
G1 X127.416 Y116.915 E.0106
G1 X127.416 Y119.908 E.07798
G1 X126.841 Y120.483 E.02119
G1 X124.352 Y120.483 E.06485
G1 X124.277 Y120.514 E.00211
M204 P1000
G1 X123.876 Y120.336 F12000
G1 E-2.24 F2100
;WIPE_START
G1 F9600
G1 X123.907 Y120.842 E-.10275
G1 X123.405 Y121.363 E-.15035
G1 X123.359 Y121.501 E-.03023
G1 X123.313 Y121.363 E-.03023
G1 X122.584 Y120.615 E-.21706
G1 X122.584 Y120.474 E-.02938
;WIPE_END
G1 X125.847 Y123.138 F12000
G1 E2.8 F1500
M204 P700
;WIDTH:0.399994
G1 X123.543 Y123.138 E.05285
;WIDTH:0.431546
G1 X123.467 Y123.122 E.00193
;WIDTH:0.463098
G1 X123.391 Y123.106 E.00209
G1 X123.375 Y123.03 E.00209
;WIDTH:0.431546
G1 X123.359 Y122.954 E.00193
;WIDTH:0.399994
G1 X123.359 Y121.501 E.03333
M204 P1000
G1 E-2.24 F2100
;WIPE_START
G1 F9600
G1 X123.359 Y122.954 E-.30195
G1 X123.375 Y123.03 E-.01614
G1 X123.391 Y123.106 E-.01614
G1 X123.467 Y123.122 E-.01614
G1 X123.543 Y123.138 E-.01614
G1 X124.474 Y123.138 E-.19349
;WIPE_END
G1 X126.039 Y123.338 F12000
G1 E2.8 F1500
M204 P700
;WIDTH:0.416096
G1 X125.847 Y123.138 E.00664
G1 X126.423 Y123.146 E.01379
G1 X126.423 Y125.13 E.0475
G1 X126.039 Y125.13 E.00919
G1 X126.039 Y123.398 E.04147
M204 P1000
G1 X126.164 Y123.09 F12000
G1 E-2.24 F2100
;WIPE_START
G1 F9600
G1 X125.847 Y123.138 E-.06717
G1 X126.423 Y123.146 E-.11971
G1 X126.423 Y124.941 E-.37312
;WIPE_END
G1 X123.359 Y108.293 F12000
G1 E2.8 F1500
M204 P700
;WIDTH:0.399994
G1 X123.359 Y114.915 E.15189
;WIDTH:0.401398
G1 X123.359 Y114.931 E.00037
M204 P1000
G1 E-2.24 F2100
;WIPE_START
G1 F9600
G1 X123.359 Y114.915 E-.00332
G1 X123.359 Y112.236 E-.55668
;WIPE_END
G1 X124.036 Y103.012 F12000
G1 E2.8 F1500
M204 P900
