; generated by PrusaSlicer 2.6.1+win64 on 2024-01-21 at 20:17:29 UTC


;
;

;
;

;
;
; 

; external perimeters extrusion width = 0.45mm
; perimeters extrusion width = 0.45mm
; infill extrusion width = 0.45mm
; solid infill extrusion width = 0.45mm
; top infill extrusion width = 0.40mm
; first layer extrusion width = 0.50mm

; external perimeters extrusion width = 0.45mm
; perimeters extrusion width = 0.45mm
; infill extrusion width = 0.45mm
; solid infill extrusion width = 0.45mm
; top infill extrusion width = 0.40mm
; first layer extrusion width = 0.50mm

; external perimeters extrusion width = 0.45mm
; perimeters extrusion width = 0.45mm
; infill extrusion width = 0.45mm
; solid infill extrusion width = 0.45mm
; top infill extrusion width = 0.40mm
; first layer extrusion width = 0.50mm

M73 P0 R82
M201 X2500 Y2500 Z200 E2500 ; sets maximum accelerations, mm/sec^2
M203 X200 Y200 Z40 E100 ; sets maximum feedrates, mm / sec
M204 P2000 R1200 T2000 ; sets acceleration (P, T) and retract acceleration (R), mm/sec^2
M205 X8.00 Y8.00 Z2.00 E10.00 ; sets the jerk limits, mm/sec
M205 S0 T0 ; sets the minimum extruding and travel feed rate, mm/sec
;TYPE:Custom
M17 ; enable steppers
M862.3 P "MK4" ; printer model check
M862.1 P0.4 ; nozzle diameter check
M555 X91.781 Y45.55 W66.438 H114.5

G90 ; use absolute coordinates
M83 ; extruder relative mode

M140 S60 ; set bed temp

M104 S170 ; set extruder temp for bed leveling
M109 R170 ; wait for temp


M84 E ; turn off E motor

G28 ; home all without mesh bed level

G1 X42 Y-4 Z5 F4800

M302 S160 ; lower cold extrusion limit to 160C


G1 E-2 F2400 ; retraction


M84 E ; turn off E motor

G29 P9 X10 Y-4 W32 H4

M106 S100

G0 Z40 F10000

M190 S60 ; wait for bed temp

M107

;
; MBL
;
M84 E ; turn off E motor
G29 P1 ; invalidate mbl & probe print area
G29 P1 X0 Y0 W50 H20 C ; probe near purge place
G29 P3.2 ; interpolate mbl probes
G29 P3.13 ; extrapolate mbl outside probe area
G29 A ; activate mbl

; prepare for purge
M104 S220
G0 X0 Y-4 Z15 F4800 ; move away and ready for the purge
M109 S220

G92 E0
M569 S0 E ; set spreadcycle mode for extruder

;
; Extrude purge line
;
G92 E0 ; reset extruder position
G1 E2 F2400 ; deretraction after the initial one before nozzle cleaning
G0 E7 X15 Z0.2 F500 ; purge
G0 X25 E4 F500 ; purge
G0 X35 E4 F650 ; purge
G0 X45 E4 F800 ; purge
G0 X48 Z0.05 F8000 ; wipe, move close to the bed
G0 X51 Z0.2 F8000 ; wipe, move quickly away from the bed

G92 E0
M221 S100 ; set flow to 100%
G21 ; set units to millimeters
G90 ; use absolute coordinates
M83 ; use relative distances for extrusion
M900 K0.05 ; Filament gcode



M142 S36 ; set heatbreak target temp
M107
;LAYER_CHANGE
;Z:0.2
;HEIGHT:0.2
;BEFORE_LAYER_CHANGE
G92 E0.0
;0.2


G1 E-2.8 F2100
G1 Z.2 F720
;AFTER_LAYER_CHANGE
;0.2
; printing object v94back-case.stl id:0 copy 0
G1 X114.822 Y113.286 F12000
G1 E2.8 F1500
M204 P600
;TYPE:Perimeter
;WIDTH:0.499999
G1 F1200
G1 X114.916 Y113.307 E.00366
G1 X135.859 Y113.307 E.79597
G1 X136.078 Y113.271 E.00844
G1 X136.344 Y113.106 E.0119
G1 X136.5 Y112.866 E.01088
G1 X136.545 Y112.621 E.00947
G1 X136.545 Y109.307 E.12595
G1 X141.096 Y109.307 E.17297
G1 X144.896 Y113.106 E.20422
G1 X145.074 Y113.235 E.00835
G1 X145.38 Y113.307 E.01195
G1 X155.45 Y113.307 E.38272
G1 X155.45 Y114.152 E.03212
G1 X155.45 Y115.292 E.04333
;WIDTH:0.536749
G1 X155.431 Y115.516 E.00923
;WIDTH:0.573499
G1 X155.413 Y115.74 E.00991
;WIDTH:0.610249
G1 X155.395 Y115.964 E.0106
G1 X155.411 Y116.682 E.03388
;WIDTH:0.612822
G1 X155.393 Y117.213 E.02518
G1 X155.412 Y117.442 E.01089
;WIDTH:0.575215
G1 X155.431 Y117.671 E.01017
;WIDTH:0.537607
G1 X155.45 Y117.9 E.00945
;WIDTH:0.499999
G1 X155.45 Y155.143 E1.41547
M73 P0 R81
G1 X145.38 Y155.143 E.38272
G1 X145.16 Y155.179 E.00847
G1 X144.896 Y155.344 E.01183
G1 X141.096 Y159.143 E.20422
G1 X136.545 Y159.143 E.17297
G1 X136.545 Y155.925 E.1223
G1 X136.532 Y155.698 E.00864
G1 X136.4 Y155.408 E.01211
G1 X136.16 Y155.212 E.01178
G1 X135.859 Y155.143 E.01174
G1 X114.922 Y155.143 E.79574
G1 X114.69 Y155.181 E.00893
G1 X114.432 Y155.344 E.0116
G1 X114.276 Y155.584 E.01088
G1 X114.231 Y155.829 E.00947
G1 X114.231 Y159.143 E.12595
G1 X109.679 Y159.143 E.173
G1 X105.88 Y155.344 E.20419
G1 X105.694 Y155.211 E.00869
G1 X105.395 Y155.143 E.01165
G1 X100.383 Y155.143 E.19049
;WIDTH:0.537156
G1 X100.159 Y155.124 E.00924
;WIDTH:0.574313
G1 X99.936 Y155.106 E.00989
;WIDTH:0.61147
G1 X99.713 Y155.087 E.01058
G1 X99.099 Y155.107 E.02904
;WIDTH:0.609945
G1 X98.494 Y155.088 E.02854
G1 X98.264 Y155.106 E.01088
;WIDTH:0.573297
G1 X98.034 Y155.125 E.01018
;WIDTH:0.536648
G1 X97.804 Y155.143 E.00947
;WIDTH:0.499999
G1 X95.326 Y155.143 E.09418
G1 X95.326 Y153.251 E.07191
G1 X95.289 Y153.03 E.00852
G1 X95.125 Y152.766 E.01181
G1 X94.254 Y151.895 E.04682
G1 X94.254 Y116.301 E1.3528
G1 X95.125 Y115.43 E.04682
G1 X95.25 Y115.259 E.00805
G1 X95.326 Y114.945 E.01228
G1 X95.326 Y113.307 E.06225
G1 X105.395 Y113.307 E.38269
G1 X105.61 Y113.273 E.00827
G1 X105.88 Y113.106 E.01207
G1 X109.679 Y109.307 E.20419
G1 X114.231 Y109.307 E.173
G1 X114.231 Y112.525 E.1223
G1 X114.243 Y112.752 E.00864
G1 X114.375 Y113.042 E.01211
G1 X114.619 Y113.239 E.01192
G1 X114.763 Y113.272 E.00561
M204 P1000
G1 X114.916 Y112.85 F12000
M204 P600
;TYPE:External perimeter
G1 F1200
G1 X135.859 Y112.85 E.79597
G1 X136.021 Y112.783 E.00666
G1 X136.088 Y112.621 E.00666
G1 X136.088 Y108.85 E.14332
G1 X141.286 Y108.85 E.19756
G1 X145.219 Y112.783 E.21139
G1 X145.38 Y112.85 E.00663
G1 X155.907 Y112.85 E.40009
G1 X155.907 Y155.6 E1.62477
G1 X145.38 Y155.6 E.40009
G1 X145.219 Y155.667 E.00663
G1 X141.286 Y159.6 E.21139
G1 X136.088 Y159.6 E.19756
G1 X136.088 Y155.829 E.14332
G1 X136.021 Y155.667 E.00666
G1 X135.859 Y155.6 E.00666
G1 X114.922 Y155.6 E.79574
G1 X114.755 Y155.667 E.00684
G1 X114.688 Y155.829 E.00666
G1 X114.688 Y159.6 E.14332
G1 X109.49 Y159.6 E.19756
G1 X105.557 Y155.667 E.21139
G1 X105.395 Y155.6 E.00666
G1 X94.869 Y155.6 E.40005
G1 X94.869 Y153.251 E.08928
G1 X94.802 Y153.089 E.00666
G1 X93.797 Y152.084 E.05402
G1 X93.797 Y116.112 E1.36716
G1 X94.802 Y115.107 E.05402
G1 X94.869 Y114.945 E.00666
G1 X94.869 Y112.85 E.07962
G1 X105.395 Y112.85 E.40005
G1 X105.557 Y112.783 E.00666
G1 X109.49 Y108.85 E.21139
G1 X114.688 Y108.85 E.19756
G1 X114.688 Y112.621 E.14332
G1 X114.755 Y112.783 E.00666
G1 X114.861 Y112.827 E.00436
M204 P1000
G1 X115.02 Y113.236 F12000
G1 E-2.24 F2100
;WIPE_START
G1 F9600
G1 X117.556 Y112.83 E-.56
;WIPE_END
G1 X153.025 Y118.887 F12000
G1 E2.8 F1500
M204 P600
;TYPE:Perimeter
G1 F1200
G1 X152.536 Y118.973 E.01887
G1 X151.873 Y118.906 E.02533
G1 X151.33 Y118.705 E.02201
G1 X150.821 Y118.349 E.02361
G1 X150.394 Y117.832 E.02548
G1 X150.147 Y117.297 E.0224
G1 X150.039 Y116.688 E.02351
G1 X150.101 Y116.02 E.0255
G1 X150.326 Y115.427 E.02411
G1 X150.663 Y114.952 E.02213
G1 X151.174 Y114.53 E.02519
G1 X151.745 Y114.271 E.02383
G1 X152.395 Y114.171 E.02499
G1 X153.007 Y114.238 E.0234
G1 X153.548 Y114.439 E.02193
G1 X154.056 Y114.795 E.02358
G1 X154.484 Y115.312 E.02551
;WIDTH:0.537674
G1 X154.748 Y115.839 E.02425
;WIDTH:0.573962
G1 X154.789 Y115.922 E.00409
;WIDTH:0.610249
G1 X154.83 Y116.004 E.00432
G1 X154.883 Y116.553 E.02602
;WIDTH:0.609456
G1 X154.831 Y117.131 E.02734
G1 X154.738 Y117.327 E.01022
;WIDTH:0.572971
G1 X154.645 Y117.522 E.00952
;WIDTH:0.536485
G1 X154.551 Y117.717 E.00888
;WIDTH:0.499999
G1 X154.184 Y118.224 E.02379
G1 X153.698 Y118.619 E.0238
G1 X153.17 Y118.861 E.02207
G1 X153.084 Y118.876 E.00332
M204 P1000
G1 X152.966 Y118.444 F12000
M204 P600
;TYPE:External perimeter
G1 F1200
G1 X152.406 Y118.521 E.02148
G1 X151.907 Y118.447 E.01917
G1 X151.455 Y118.254 E.01868
G1 X151.057 Y117.946 E.01913
G1 X150.75 Y117.545 E.01919
G1 X150.557 Y117.081 E.0191
G1 X150.491 Y116.561 E.01992
G1 X150.571 Y116.019 E.02082
G1 X150.747 Y115.606 E.01706
G1 X151.068 Y115.189 E.02
G1 X151.506 Y114.861 E.0208
G1 X151.978 Y114.679 E.01923
G1 X152.505 Y114.627 E.02013
G1 X152.995 Y114.705 E.01886
G1 X153.423 Y114.89 E.01772
G1 X153.826 Y115.204 E.01942
G1 X154.151 Y115.641 E.0207
G1 X154.323 Y116.077 E.01781
G1 X154.387 Y116.583 E.01938
G1 X154.307 Y117.125 E.02082
G1 X154.101 Y117.589 E.01929
G1 X153.781 Y117.984 E.01932
G1 X153.373 Y118.282 E.0192
G1 X153.021 Y118.422 E.0144
M204 P1000
G1 X152.862 Y118.83 F12000
G1 E-2.24 F2100
;WIPE_START
G1 F9600
G1 X152.406 Y118.521 E-.12945
G1 X151.907 Y118.447 E-.10483
G1 X151.455 Y118.254 E-.10214
G1 X151.057 Y117.946 E-.10458
G1 X150.75 Y117.545 E-.10495
G1 X150.724 Y117.483 E-.01405
;WIPE_END
G1 X124.945 Y115.168 F12000
G1 E2.8 F1500
M204 P600
;TYPE:Perimeter
G1 F1200
G1 X125.274 Y115.566 E.01963
G1 X125.52 Y116.101 E.02238
G1 X125.629 Y116.71 E.02351
G1 X125.567 Y117.378 E.0255
G1 X125.342 Y117.971 E.02411
G1 X124.974 Y118.478 E.02381
G1 X124.488 Y118.873 E.0238
G1 X123.96 Y119.115 E.02207
G1 X123.326 Y119.227 E.02447
G1 X122.663 Y119.16 E.02533
G1 X122.12 Y118.959 E.02201
G1 X121.611 Y118.603 E.02361
G1 X121.184 Y118.086 E.02548
G1 X120.937 Y117.551 E.0224
G1 X120.829 Y116.942 E.02351
G1 X120.891 Y116.274 E.0255
G1 X121.116 Y115.681 E.02411
G1 X121.453 Y115.206 E.02213
G1 X121.964 Y114.784 E.02519
G1 X122.535 Y114.525 E.02383
G1 X123.185 Y114.425 E.02499
G1 X123.797 Y114.492 E.0234
G1 X124.338 Y114.693 E.02193
G1 X124.846 Y115.049 E.02358
G1 X124.907 Y115.122 E.00362
M204 P1000
G1 X124.517 Y115.381 F12000
M204 P600
;TYPE:External perimeter
G1 F1200
G1 X124.616 Y115.458 E.00477
G1 X124.94 Y115.895 E.02068
G1 X125.113 Y116.331 E.01783
G1 X125.176 Y116.775 E.01704
G1 X125.113 Y117.319 E.02081
G1 X124.921 Y117.792 E.0194
G1 X124.614 Y118.196 E.01928
G1 X124.213 Y118.508 E.01931
G1 X123.749 Y118.704 E.01914
G1 X123.252 Y118.776 E.01909
G1 X122.728 Y118.708 E.02008
G1 X122.262 Y118.519 E.01911
G1 X121.861 Y118.216 E.0191
G1 X121.547 Y117.808 E.01957
G1 X121.35 Y117.346 E.01909
G1 X121.281 Y116.815 E.02035
G1 X121.361 Y116.273 E.02082
G1 X121.566 Y115.811 E.01921
G1 X121.858 Y115.443 E.01785
G1 X122.296 Y115.115 E.0208
G1 X122.768 Y114.933 E.01923
G1 X123.295 Y114.881 E.02013
G1 X123.785 Y114.959 E.01886
G1 X124.213 Y115.144 E.01772
G1 X124.469 Y115.344 E.01235
M204 P1000
G1 X124.631 Y115.328 F12000
G1 E-2.24 F2100
;WIPE_START
G1 F9600
G1 X124.616 Y115.458 E-.03866
G1 X124.94 Y115.895 E-.11305
G1 X125.113 Y116.331 E-.09748
G1 X125.176 Y116.775 E-.09319
G1 X125.113 Y117.319 E-.11381
G1 X124.925 Y117.782 E-.10381
;WIPE_END
G1 X97.477 Y153.905 F12000
G1 E2.8 F1500
M204 P600
;TYPE:Perimeter
G1 F1200
G1 X97.046 Y153.378 E.02587
G1 X96.805 Y152.85 E.02206
G1 X96.698 Y152.238 E.02361
G1 X96.763 Y151.571 E.02547
G1 X96.966 Y151.023 E.02221
G1 X97.321 Y150.516 E.02352
G1 X97.835 Y150.089 E.0254
G1 X98.405 Y149.831 E.02378
G1 X98.976 Y149.733 E.02202
G1 X99.654 Y149.796 E.02588
G1 X100.208 Y149.999 E.02242
G1 X100.716 Y150.355 E.02358
G1 X101.144 Y150.872 E.02551
G1 X101.39 Y151.407 E.02238
G1 X101.425 Y151.516 E.00435
G1 X101.499 Y152.016 E.01921
G1 X101.437 Y152.684 E.0255
G1 X101.212 Y153.277 E.02411
G1 X100.844 Y153.784 E.02381
G1 X100.358 Y154.179 E.0238
;WIDTH:0.548282
G1 X99.839 Y154.443 E.02447
;WIDTH:0.579876
G1 X99.756 Y154.482 E.00409
;WIDTH:0.61147
G1 X99.673 Y154.522 E.00436
G1 X99.099 Y154.577 E.02726
;WIDTH:0.609945
G1 X98.534 Y154.524 E.02676
G1 X98.349 Y154.436 E.00966
;WIDTH:0.573297
G1 X98.165 Y154.348 E.00899
;WIDTH:0.536648
G1 X97.98 Y154.261 E.00839
;WIDTH:0.499999
G1 X97.526 Y153.94 E.02113
M204 P1000
G1 X97.763 Y153.54 F12000
M204 P600
;TYPE:External perimeter
G1 F1200
G1 X97.702 Y153.492 E.00295
G1 X97.384 Y153.055 E.02054
G1 X97.212 Y152.619 E.01781
G1 X97.15 Y152.113 E.01938
G1 X97.231 Y151.577 E.0206
G1 X97.417 Y151.148 E.01777
G1 X97.729 Y150.747 E.01931
G1 X98.167 Y150.421 E.02075
G1 X98.634 Y150.239 E.01905
G1 X99.094 Y150.186 E.0176
G1 X99.597 Y150.25 E.01927
G1 X100.061 Y150.436 E.019
G1 X100.463 Y150.738 E.01911
G1 X100.781 Y151.15 E.01978
G1 X100.98 Y151.618 E.01933
G1 X101.047 Y152.143 E.02012
G1 X100.967 Y152.685 E.02082
G1 X100.761 Y153.149 E.01929
G1 X100.441 Y153.544 E.01932
G1 X100.033 Y153.842 E.0192
G1 X99.6 Y154.014 E.01771
G1 X99.099 Y154.083 E.01922
G1 X98.549 Y154.001 E.02113
G1 X98.104 Y153.809 E.01842
G1 X97.81 Y153.577 E.01423
M204 P1000
G1 X97.692 Y153.572 F12000
G1 E-2.24 F2100
;WIPE_START
G1 F9600
G1 X97.702 Y153.492 E-.02856
G1 X97.384 Y153.055 E-.11231
G1 X97.212 Y152.619 E-.0974
G1 X97.15 Y152.113 E-.10594
G1 X97.231 Y151.577 E-.11265
G1 X97.417 Y151.148 E-.09717
G1 X97.435 Y151.125 E-.00597
;WIPE_END
G1 X154.316 Y113.513 F12000
G1 E2.8 F1500
M204 P600
;TYPE:Solid infill
;WIDTH:0.501761
G1 F1200
G1 X155.038 Y114.235 E.03896
G1 X155.038 Y114.884 E.02476
G1 X153.873 Y113.718 E.06289
G1 X153.224 Y113.718 E.02476
G1 X153.466 Y113.96 E.01306
G1 X153.317 Y113.899 E.00614
G1 X153.078 Y113.833 E.00946
G1 X152.623 Y113.766 E.01755
G1 X152.575 Y113.718 E.00259
G1 X151.926 Y113.718 E.02476
G1 X152.01 Y113.802 E.00453
G1 X151.81 Y113.825 E.00768
G1 X151.6 Y113.886 E.00834
G1 X151.49 Y113.93 E.00452
G1 X151.278 Y113.718 E.01144
G1 X150.629 Y113.718 E.02476
G1 X151.043 Y114.133 E.02236
G1 X150.932 Y114.197 E.00489
G1 X150.664 Y114.403 E.0129
G1 X149.98 Y113.718 E.03693
G1 X149.331 Y113.718 E.02476
G1 X150.327 Y114.715 E.05377
G1 X150.051 Y115.087 E.01767
G1 X148.682 Y113.718 E.07387
G1 X148.033 Y113.718 E.02476
G1 X149.838 Y115.523 E.09739
G1 X149.767 Y115.69 E.00692
G1 X149.686 Y116.02 E.01296
G1 X147.384 Y113.718 E.12421
G1 X146.735 Y113.718 E.02476
G1 X149.854 Y116.837 E.16829
M204 P1000
G1 E-2.24 F2100
;WIPE_START
G1 F9600
G1 X147.949 Y114.932 E-.56
;WIPE_END
G1 X154.725 Y117.815 F12000
G1 E2.8 F1500
M204 P600
G1 F1200
G1 X155.038 Y118.128 E.01689
G1 X155.038 Y118.777 E.02476
G1 X154.609 Y118.348 E.02315
G1 X154.5 Y118.487 E.00674
G1 X154.296 Y118.684 E.01082
G1 X155.038 Y119.426 E.04004
G1 X155.038 Y120.075 E.02476
G1 X153.925 Y118.961 E.06008
G1 X153.716 Y119.08 E.00918
G1 X153.489 Y119.174 E.00937
G1 X155.038 Y120.724 E.08361
G1 X155.038 Y121.373 E.02476
G1 X152.99 Y119.324 E.11053
G1 X152.581 Y119.383 E.01577
G1 X152.399 Y119.382 E.00694
G1 X155.038 Y122.022 E.14242
G1 X155.038 Y122.67 E.02472
G1 X151.633 Y119.265 E.18372
G1 X151.561 Y119.245 E.00285
G1 X151.162 Y119.08 E.01647
G1 X150.942 Y118.955 E.00965
G1 X150.568 Y118.674 E.01785
G1 X150.441 Y118.561 E.00649
G1 X150.061 Y118.074 E.02357
G1 X149.943 Y117.877 E.00876
G1 X149.742 Y117.374 E.02067
G1 X146.086 Y113.718 E.19726
G1 X145.437 Y113.718 E.02476
G1 X155.038 Y123.319 E.51803
G1 X155.038 Y123.968 E.02476
G1 X140.789 Y109.718 E.76885
G1 X140.14 Y109.718 E.02476
G1 X155.038 Y124.617 E.80387
G1 X155.038 Y125.266 E.02476
G1 X139.491 Y109.718 E.83888
G1 X138.842 Y109.718 E.02476
G1 X155.038 Y125.915 E.8739
G1 X155.038 Y126.564 E.02476
G1 X138.193 Y109.718 E.90892
G1 X137.544 Y109.718 E.02476
G1 X155.038 Y127.213 E.94394
G1 X155.038 Y127.862 E.02476
G1 X136.956 Y109.78 E.97564
G1 X136.956 Y110.428 E.02472
G1 X155.038 Y128.511 E.97566
G1 X155.038 Y129.159 E.02472
G1 X136.956 Y111.077 E.97564
G1 X136.956 Y111.726 E.02476
M73 P1 R81
G1 X155.038 Y129.808 E.97564
G1 X155.038 Y130.457 E.02476
G1 X136.956 Y112.375 E.97564
G1 X136.956 Y112.63 E.00973
G1 X136.937 Y112.83 E.00766
G1 X136.898 Y112.966 E.0054
G1 X155.038 Y131.106 E.97877
G1 X155.038 Y131.755 E.02476
G1 X136.654 Y113.371 E.99193
G1 X136.575 Y113.454 E.00437
G1 X136.424 Y113.562 E.00708
G1 X136.272 Y113.637 E.00647
G1 X155.038 Y132.404 E1.01257
G1 X155.038 Y133.053 E.02476
G1 X135.7 Y113.714 E1.04343
G1 X135.051 Y113.714 E.02476
G1 X155.038 Y133.702 E1.07845
G1 X155.038 Y134.351 E.02476
G1 X134.402 Y113.715 E1.11344
G1 X133.753 Y113.715 E.02476
G1 X155.038 Y135 E1.14846
G1 X155.038 Y135.648 E.02472
G1 X133.105 Y113.715 E1.18342
G1 X132.456 Y113.715 E.02476
G1 X155.038 Y136.297 E1.21844
G1 X155.038 Y136.946 E.02476
G1 X131.807 Y113.715 E1.25346
G1 X131.158 Y113.715 E.02476
G1 X155.038 Y137.595 E1.28847
G1 X155.038 Y138.244 E.02476
G1 X130.509 Y113.715 E1.32349
G1 X129.861 Y113.715 E.02472
G1 X155.038 Y138.893 E1.35848
G1 X155.038 Y139.542 E.02476
G1 X129.212 Y113.715 E1.3935
