; generated by PrusaSlicer 2.6.1+win64 on 2024-01-28 at 09:33:23 UTC


;
;

;
;

;
;
; 

; external perimeters extrusion width = 0.45mm
; perimeters extrusion width = 0.45mm
; infill extrusion width = 0.45mm
; solid infill extrusion width = 0.45mm
; top infill extrusion width = 0.40mm
; first layer extrusion width = 0.50mm

; external perimeters extrusion width = 0.45mm
; perimeters extrusion width = 0.45mm
; infill extrusion width = 0.45mm
; solid infill extrusion width = 0.45mm
; top infill extrusion width = 0.40mm
; first layer extrusion width = 0.50mm

; external perimeters extrusion width = 0.45mm
; perimeters extrusion width = 0.45mm
; infill extrusion width = 0.45mm
; solid infill extrusion width = 0.45mm
; top infill extrusion width = 0.40mm
; first layer extrusion width = 0.50mm

; external perimeters extrusion width = 0.45mm
; perimeters extrusion width = 0.45mm
; infill extrusion width = 0.45mm
; solid infill extrusion width = 0.45mm
; top infill extrusion width = 0.40mm
; first layer extrusion width = 0.50mm

M73 P0 R89
M201 X2500 Y2500 Z200 E2500 ; sets maximum accelerations, mm/sec^2
M203 X200 Y200 Z40 E100 ; sets maximum feedrates, mm / sec
M204 P2000 R1200 T2000 ; sets acceleration (P, T) and retract acceleration (R), mm/sec^2
M205 X8.00 Y8.00 Z2.00 E10.00 ; sets the jerk limits, mm/sec
M205 S0 T0 ; sets the minimum extruding and travel feed rate, mm/sec
;TYPE:Custom
M17 ; enable steppers
M862.3 P "MK4" ; printer model check
M862.1 P0.4 ; nozzle diameter check
M555 X91.881 Y45.55 W66.238 H114.4

G90 ; use absolute coordinates
M83 ; extruder relative mode

M140 S60 ; set bed temp

M104 S170 ; set extruder temp for bed leveling
M109 R170 ; wait for temp


M84 E ; turn off E motor

G28 ; home all without mesh bed level

G1 X42 Y-4 Z5 F4800

M302 S160 ; lower cold extrusion limit to 160C


G1 E-2 F2400 ; retraction


M84 E ; turn off E motor

G29 P9 X10 Y-4 W32 H4

M106 S100

G0 Z40 F10000

M190 S60 ; wait for bed temp

M107

;
; MBL
;
M84 E ; turn off E motor
G29 P1 ; invalidate mbl & probe print area
G29 P1 X0 Y0 W50 H20 C ; probe near purge place
G29 P3.2 ; interpolate mbl probes
G29 P3.13 ; extrapolate mbl outside probe area
G29 A ; activate mbl

; prepare for purge
M104 S220
G0 X0 Y-4 Z15 F4800 ; move away and ready for the purge
M109 S220

G92 E0
M569 S0 E ; set spreadcycle mode for extruder

;
; Extrude purge line
;
G92 E0 ; reset extruder position
G1 E2 F2400 ; deretraction after the initial one before nozzle cleaning
G0 E7 X15 Z0.2 F500 ; purge
G0 X25 E4 F500 ; purge
G0 X35 E4 F650 ; purge
G0 X45 E4 F800 ; purge
G0 X48 Z0.05 F8000 ; wipe, move close to the bed
G0 X51 Z0.2 F8000 ; wipe, move quickly away from the bed

G92 E0
M221 S100 ; set flow to 100%
G21 ; set units to millimeters
G90 ; use absolute coordinates
M83 ; use relative distances for extrusion
M900 K0.05 ; Filament gcode



M142 S36 ; set heatbreak target temp
M107
;LAYER_CHANGE
;Z:0.2
;HEIGHT:0.2
;BEFORE_LAYER_CHANGE
G92 E0.0
;0.2


M73 P0 R88
G1 E-2.8 F2100
G1 Z.2 F720
;AFTER_LAYER_CHANGE
;0.2
; printing object v105back-case.stl id:0 copy 0
G1 X114.399 Y113.386 F12000
G1 E2.8 F1500
M204 P600
;TYPE:Perimeter
;WIDTH:0.499999
G1 F1200
G1 X114.493 Y113.407 E.00366
G1 X135.436 Y113.407 E.79597
G1 X135.671 Y113.365 E.00907
G1 X135.92 Y113.206 E.01123
G1 X136.076 Y112.966 E.01088
G1 X136.121 Y112.721 E.00947
G1 X136.121 Y109.407 E.12595
G1 X140.631 Y109.407 E.17141
G1 X144.431 Y113.206 E.20422
G1 X144.614 Y113.337 E.00855
G1 X144.915 Y113.407 E.01175
G1 X150.65 Y113.407 E.21797
;WIDTH:0.545851
G1 X150.844 Y113.43 E.00817
;WIDTH:0.591703
G1 X151.038 Y113.453 E.00891
;WIDTH:0.637555
G1 X151.231 Y113.476 E.00961
;WIDTH:0.683398
G1 X151.425 Y113.499 E.0104
G1 X152.015 Y113.482 E.03143
G1 X152.605 Y113.499 E.03143
G1 X152.702 Y113.476 E.00531
;WIDTH:0.638461
G1 X152.799 Y113.454 E.00493
;WIDTH:0.593524
G1 X152.897 Y113.431 E.00461
;WIDTH:0.548586
G1 X153.33 Y113.407 E.01823
;WIDTH:0.499999
G1 X154.926 Y113.407 E.06066
G1 X154.926 Y115.264 E.07058
;WIDTH:0.529619
G1 X154.911 Y115.623 E.01454
;WIDTH:0.559239
G1 X154.896 Y115.982 E.01543
G1 X154.914 Y116.591 E.02616
;WIDTH:0.562466
G1 X154.895 Y117.204 E.02649
G1 X154.91 Y117.542 E.01462
;WIDTH:0.531233
G1 X154.926 Y117.88 E.01374
;WIDTH:0.499999
G1 X154.927 Y129.444 E.4395
G1 X155.008 Y129.728 E.01122
G1 X155.203 Y129.953 E.01132
G1 X155.612 Y130.088 E.01637
G1 X155.826 Y130.088 E.00813
G1 X155.826 Y130.302 E.00813
G1 X155.826 Y137.614 E.2779
G1 X155.612 Y137.614 E.00813
G1 X155.203 Y137.749 E.01637
G1 X155.066 Y137.885 E.00734
G1 X154.98 Y138.033 E.00651
G1 X154.926 Y138.3 E.01035
G1 X154.926 Y155.043 E.63634
G1 X144.915 Y155.043 E.38048
G1 X144.693 Y155.08 E.00855
G1 X144.431 Y155.244 E.01175
G1 X140.631 Y159.043 E.20422
G1 X136.121 Y159.043 E.17141
G1 X136.121 Y155.854 E.1212
G1 X136.109 Y155.598 E.00974
G1 X135.977 Y155.308 E.01211
G1 X135.736 Y155.112 E.01181
G1 X135.436 Y155.043 E.0117
G1 X114.952 Y155.043 E.77852
G1 X114.303 Y155.07 E.02469
G1 X114.04 Y155.213 E.01138
G1 X113.852 Y155.484 E.01254
G1 X113.807 Y155.729 E.00947
G1 X113.807 Y159.043 E.12595
G1 X109.297 Y159.043 E.17141
G1 X105.498 Y155.244 E.20419
G1 X105.323 Y155.117 E.00822
G1 X105.013 Y155.043 E.01211
G1 X99.988 Y155.043 E.19098
;WIDTH:0.527929
G1 X99.618 Y155.029 E.01493
;WIDTH:0.555874
G1 X99.249 Y155.015 E.01575
G1 X98.675 Y155.032 E.02449
G1 X98.102 Y155.015 E.02445
G1 X97.751 Y155.029 E.01498
;WIDTH:0.527937
G1 X97.4 Y155.043 E.01417
;WIDTH:0.499999
G1 X95.002 Y155.043 E.09114
G1 X95.002 Y153.209 E.0697
G1 X94.965 Y152.987 E.00855
G1 X94.801 Y152.724 E.01178
G1 X93.93 Y151.853 E.04682
G1 X93.93 Y116.343 E1.3496
G1 X94.801 Y115.472 E.04682
G1 X94.925 Y115.304 E.00794
G1 X95.002 Y114.987 E.0124
G1 X95.002 Y113.407 E.06005
G1 X105.013 Y113.407 E.38048
G1 X105.231 Y113.371 E.0084
G1 X105.498 Y113.206 E.01193
G1 X109.297 Y109.407 E.20419
G1 X113.807 Y109.407 E.17141
G1 X113.807 Y112.596 E.1212
G1 X113.82 Y112.852 E.00974
G1 X113.952 Y113.142 E.01211
G1 X114.198 Y113.34 E.012
G1 X114.34 Y113.373 E.00554
M204 P1000
G1 X114.493 Y112.95 F12000
M204 P600
;TYPE:External perimeter
G1 F1200
G1 X135.436 Y112.95 E.79597
G1 X135.597 Y112.883 E.00663
G1 X135.664 Y112.721 E.00666
G1 X135.664 Y108.95 E.14332
G1 X140.821 Y108.95 E.196
G1 X144.754 Y112.883 E.21139
G1 X144.915 Y112.95 E.00663
G1 X155.383 Y112.95 E.39785
G1 X155.383 Y129.402 E.62528
G1 X155.43 Y129.541 E.00558
G1 X155.612 Y129.631 E.00772
G1 X156.283 Y129.631 E.0255
G1 X156.283 Y138.071 E.32077
G1 X155.612 Y138.071 E.0255
G1 X155.43 Y138.161 E.00772
G1 X155.383 Y138.3 E.00558
G1 X155.383 Y155.5 E.65371
G1 X144.915 Y155.5 E.39785
G1 X144.754 Y155.567 E.00663
G1 X140.821 Y159.5 E.21139
G1 X135.664 Y159.5 E.196
G1 X135.664 Y155.729 E.14332
G1 X135.597 Y155.567 E.00666
G1 X135.436 Y155.5 E.00663
G1 X114.493 Y155.5 E.79597
G1 X114.331 Y155.567 E.00666
G1 X114.264 Y155.729 E.00666
G1 X114.264 Y159.5 E.14332
G1 X109.108 Y159.5 E.19596
G1 X105.175 Y155.567 E.21139
G1 X105.013 Y155.5 E.00666
G1 X94.545 Y155.5 E.39785
G1 X94.545 Y153.209 E.08707
G1 X94.478 Y153.048 E.00663
G1 X93.473 Y152.042 E.05404
G1 X93.473 Y116.153 E1.36401
G1 X94.478 Y115.148 E.05402
G1 X94.545 Y114.987 E.00663
G1 X94.545 Y112.95 E.07742
G1 X105.013 Y112.95 E.39785
G1 X105.175 Y112.883 E.00666
G1 X109.108 Y108.95 E.21139
G1 X114.264 Y108.95 E.19596
G1 X114.264 Y112.721 E.14332
G1 X114.331 Y112.883 E.00666
G1 X114.437 Y112.927 E.00436
M204 P1000
G1 X114.596 Y113.336 F12000
G1 E-2.24 F2100
;WIPE_START
G1 F9600
G1 X117.132 Y112.93 E-.56
;WIPE_END
G1 X152.576 Y118.894 F12000
G1 E2.8 F1500
M204 P600
;TYPE:Perimeter
G1 F1200
G1 X152.105 Y118.975 E.01816
G1 X151.479 Y118.917 E.02389
G1 X150.906 Y118.704 E.02323
G1 X150.365 Y118.317 E.02528
G1 X150.295 Y118.255 E.00355
G1 X149.973 Y117.843 E.01987
G1 X149.726 Y117.304 E.02253
G1 X149.614 Y116.642 E.02552
G1 X149.678 Y116.012 E.02407
G1 X149.903 Y115.427 E.02382
G1 X150.27 Y114.92 E.02379
G1 X150.719 Y114.548 E.02216
;WIDTH:0.532565
G1 X151.002 Y114.398 E.01304
;WIDTH:0.56513
G1 X151.286 Y114.247 E.01397
;WIDTH:0.604556
G1 X151.346 Y114.21 E.00329
;WIDTH:0.643982
G1 X151.407 Y114.173 E.00357
;WIDTH:0.683407
G1 X151.467 Y114.137 E.00373
G1 X152.015 Y114.088 E.0293
G1 X152.563 Y114.137 E.0293
G1 X152.703 Y114.212 E.00846
;WIDTH:0.637549
G1 X152.844 Y114.288 E.00792
;WIDTH:0.591699
G1 X152.984 Y114.364 E.00727
;WIDTH:0.545849
G1 X153.124 Y114.439 E.00664
;WIDTH:0.499999
G1 X153.656 Y114.82 E.02487
G1 X154.041 Y115.279 E.02277
;WIDTH:0.519002
G1 X154.313 Y115.836 E.02454
;WIDTH:0.559239
G1 X154.382 Y116.016 E.00828
G1 X154.434 Y116.591 E.02479
;WIDTH:0.559993
G1 X154.382 Y117.136 E.02354
G1 X154.255 Y117.427 E.01365
;WIDTH:0.529996
G1 X154.128 Y117.717 E.01282
;WIDTH:0.499999
G1 X153.76 Y118.224 E.02381
G1 X153.311 Y118.596 E.02216
G1 X152.732 Y118.867 E.0243
G1 X152.635 Y118.884 E.00374
M204 P1000
G1 X152.538 Y118.444 F12000
M204 P600
;TYPE:External perimeter
G1 F1200
G1 X152.492 Y118.463 E.00189
G1 X151.985 Y118.522 E.0194
G1 X151.481 Y118.448 E.01936
G1 X151.029 Y118.252 E.01872
G1 X150.621 Y117.935 E.01964
G1 X150.323 Y117.538 E.01887
G1 X150.131 Y117.065 E.0194
G1 X150.068 Y116.521 E.02081
G1 X150.147 Y116.019 E.01931
G1 X150.353 Y115.555 E.01929
G1 X150.671 Y115.161 E.01924
G1 X151.046 Y114.882 E.01776
G1 X151.529 Y114.682 E.01987
G1 X152.045 Y114.622 E.01974
G1 X152.549 Y114.696 E.01936
G1 X153.001 Y114.892 E.01872
G1 X153.428 Y115.23 E.0207
G1 X153.707 Y115.606 E.01779
G1 X153.9 Y116.079 E.01942
G1 X153.965 Y116.591 E.01962
G1 X153.883 Y117.125 E.02053
G1 X153.677 Y117.589 E.01929
G1 X153.36 Y117.983 E.01922
G1 X152.984 Y118.262 E.01779
G1 X152.593 Y118.422 E.01606
M204 P1000
G1 X152.533 Y118.494 F12000
G1 E-2.24 F2100
;WIPE_START
G1 F9600
G1 X152.492 Y118.463 E-.02265
G1 X151.985 Y118.522 E-.10607
G1 X151.481 Y118.448 E-.10586
G1 X151.029 Y118.252 E-.10238
G1 X150.621 Y117.935 E-.10737
G1 X150.323 Y117.538 E-.10316
G1 X150.3 Y117.482 E-.01251
;WIPE_END
G1 X124.549 Y115.193 F12000
G1 E2.8 F1500
M204 P600
;TYPE:Perimeter
G1 F1200
G1 X124.831 Y115.533 E.01679
G1 X125.094 Y116.094 E.02355
G1 X125.206 Y116.756 E.02552
G1 X125.142 Y117.386 E.02407
G1 X124.918 Y117.971 E.02381
G1 X124.55 Y118.478 E.02381
G1 X124.101 Y118.85 E.02216
G1 X123.522 Y119.121 E.0243
G1 X122.895 Y119.229 E.02418
G1 X122.269 Y119.171 E.02389
G1 X121.696 Y118.958 E.02323
G1 X121.594 Y118.906 E.00435
G1 X121.155 Y118.571 E.02099
G1 X120.779 Y118.119 E.02235
G1 X120.516 Y117.558 E.02355
G1 X120.404 Y116.896 E.02552
G1 X120.468 Y116.266 E.02407
G1 X120.693 Y115.681 E.02382
G1 X121.06 Y115.174 E.02379
G1 X121.509 Y114.802 E.02216
G1 X122.089 Y114.531 E.02433
G1 X122.716 Y114.423 E.02418
G1 X123.341 Y114.481 E.02386
G1 X123.914 Y114.693 E.02322
G1 X124.455 Y115.081 E.0253
G1 X124.511 Y115.147 E.00329
M204 P1000
G1 X124.095 Y115.387 F12000
M204 P600
;TYPE:External perimeter
G1 F1200
G1 X124.218 Y115.484 E.00595
G1 X124.497 Y115.86 E.01779
G1 X124.69 Y116.333 E.01942
G1 X124.753 Y116.877 E.02081
G1 X124.673 Y117.379 E.01932
G1 X124.467 Y117.843 E.01929
G1 X124.15 Y118.236 E.01919
G1 X123.774 Y118.516 E.01782
G1 X123.313 Y118.711 E.01902
G1 X122.815 Y118.778 E.0191
G1 X122.319 Y118.716 E.019
G1 X121.846 Y118.524 E.0194
G1 X121.434 Y118.209 E.01971
G1 X121.122 Y117.81 E.01925
G1 X120.926 Y117.347 E.01911
G1 X120.857 Y116.837 E.01956
G1 X120.921 Y116.331 E.01938
G1 X121.113 Y115.86 E.01933
G1 X121.42 Y115.456 E.01928
G1 X121.836 Y115.136 E.01995
G1 X122.319 Y114.936 E.01987
G1 X122.835 Y114.876 E.01974
G1 X123.339 Y114.95 E.01936
G1 X123.791 Y115.146 E.01872
G1 X124.048 Y115.349 E.01245
M204 P1000
G1 X124.238 Y115.322 F12000
G1 E-2.24 F2100
;WIPE_START
G1 F9600
G1 X124.218 Y115.484 E-.04511
G1 X124.497 Y115.86 E-.0973
G1 X124.69 Y116.333 E-.10616
G1 X124.753 Y116.877 E-.11381
G1 X124.673 Y117.379 E-.10564
G1 X124.493 Y117.784 E-.09198
;WIPE_END
G1 X96.356 Y152.744 F12000
G1 E2.8 F1500
M204 P600
;TYPE:Perimeter
G1 F1200
G1 X96.334 Y152.672 E.00286
G1 X96.269 Y152.111 E.02146
G1 X96.329 Y151.611 E.01914
G1 X96.54 Y151.028 E.02356
G1 X96.928 Y150.483 E.02543
G1 X97.417 Y150.085 E.02396
G1 X97.966 Y149.834 E.02294
G1 X98.586 Y149.729 E.0239
G1 X99.211 Y149.787 E.02386
G1 X99.784 Y149.999 E.02322
G1 X100.325 Y150.387 E.0253
G1 X100.713 Y150.854 E.02308
G1 X100.964 Y151.4 E.02284
G1 X101.076 Y152.062 E.02552
G1 X101.012 Y152.692 E.02407
G1 X100.788 Y153.277 E.02381
G1 X100.42 Y153.784 E.02381
G1 X99.971 Y154.156 E.02216
;WIDTH:0.525024
G1 X99.397 Y154.439 E.02565
;WIDTH:0.555859
G1 X99.215 Y154.504 E.00824
G1 X98.675 Y154.552 E.02312
G1 X98.135 Y154.504 E.02312
G1 X97.846 Y154.382 E.01338
;WIDTH:0.527937
G1 X97.556 Y154.26 E.01269
;WIDTH:0.499999
G1 X97.013 Y153.864 E.02554
G1 X96.644 Y153.418 E.022
G1 X96.412 Y152.925 E.02071
G1 X96.374 Y152.801 E.00493
M204 P1000
G1 X96.784 Y152.589 F12000
M204 P600
;TYPE:External perimeter
G1 F1200
G1 X96.726 Y152.109 E.01838
G1 X96.796 Y151.615 E.01896
G1 X96.995 Y151.146 E.01936
G1 X97.334 Y150.719 E.02072
G1 X97.742 Y150.422 E.01918
G1 X98.199 Y150.241 E.01868
G1 X98.705 Y150.182 E.01936
G1 X99.209 Y150.256 E.01936
G1 X99.661 Y150.452 E.01872
G1 X100.057 Y150.758 E.01902
G1 X100.342 Y151.122 E.01757
G1 X100.547 Y151.589 E.01938
G1 X100.623 Y152.121 E.02042
G1 X100.559 Y152.628 E.01942
G1 X100.367 Y153.098 E.0193
G1 X100.06 Y153.502 E.01928
G1 X99.644 Y153.822 E.01995
G1 X99.161 Y154.022 E.01987
G1 X98.645 Y154.082 E.01974
G1 X98.141 Y154.008 E.01936
G1 X97.677 Y153.806 E.01923
G1 X97.256 Y153.465 E.02059
G1 X96.977 Y153.089 E.01779
G1 X96.8 Y152.647 E.0181
M204 P1000
G1 X96.4 Y152.479 F12000
G1 X96.144 Y153.348
M204 P600
;TYPE:Solid infill
;WIDTH:0.5
G1 F1200
G1 X95.913 Y153.117 E.01242
G1 X95.59 Y153.44 E.01736
G1 X96.56 Y154.41 E.05214
G1 X96.772 Y154.198 E.01139
M204 P1000
G1 X97.133 Y154.483 F12000
M204 P600
G1 F1200
G1 X96.985 Y154.632 E.00798
M204 P1000
G1 X96.135 Y154.632 F12000
M204 P600
G1 F1200
G1 X95.913 Y154.41 E.01193
G1 X95.692 Y154.632 E.01191
M204 P1000
G1 X95.414 Y154.263 F12000
M204 P600
G1 F1200
G1 X95.59 Y154.087 E.00946
G1 X95.414 Y153.91 E.00949
M204 P1000
G1 X95.389 Y152.995 F12000
M204 P600
G1 F1200
G1 X95.59 Y152.794 E.0108
G1 X95.267 Y152.471 E.01736
G1 X95.882 Y151.856 E.03306
M204 P1000
G1 E-2.24 F2100
;WIPE_START
G1 F9600
G1 X95.267 Y152.471 E-.18074
G1 X95.59 Y152.794 E-.09493
G1 X95.389 Y152.995 E-.05907
;WIPE_END
G1 E-.22526 F2100
G1 X96.454 Y150.425 F12000
G1 E2.8 F1500
M204 P600
G1 F1200
G1 X96.237 Y150.208 E.01166
G1 X96.56 Y149.885 E.01736
G1 X95.913 Y149.239 E.03475
G1 X95.59 Y149.562 E.01736
G1 X95.913 Y149.885 E.01736
G1 X95.59 Y150.208 E.01736
G1 X95.267 Y149.885 E.01736
G1 X94.944 Y150.208 E.01736
G1 X95.59 Y150.855 E.03475
G1 X95.913 Y150.531 E.01739
G1 X96.193 Y150.811 E.01505
M204 P1000
G1 X96.12 Y150.972 F12000
M204 P600
G1 F1200
G1 X95.59 Y151.501 E.02846
G1 X95.267 Y151.178 E.01736
G1 X94.944 Y151.501 E.01736
G1 X95.267 Y151.824 E.01736
G1 X94.872 Y152.219 E.02123
M204 P1000
G1 X94.551 Y151.894 F12000
M204 P600
G1 F1200
G1 X94.621 Y151.824 E.00376
G1 X94.342 Y151.545 E.015
M204 P1000
G1 X94.342 Y150.899 F12000
M204 P600
G1 F1200
G1 X94.621 Y151.178 E.015
G1 X94.944 Y150.855 E.01736
G1 X94.342 Y150.252 E.03238
M204 P1000
G1 X94.342 Y149.606 F12000
M204 P600
G1 F1200
G1 X94.621 Y149.885 E.015
G1 X94.944 Y149.562 E.01736
G1 X94.621 Y149.239 E.01736
G1 X94.944 Y148.915 E.01739
G1 X95.267 Y149.239 E.01739
G1 X95.59 Y148.915 E.01739
G1 X94.944 Y148.269 E.03472
G1 X94.621 Y148.592 E.01736
G1 X94.342 Y148.313 E.015
M204 P1000
G1 X94.342 Y148.225 F12000
M204 P600
G1 F1200
G1 X94.944 Y147.623 E.03236
G1 X95.267 Y147.946 E.01736
G1 X95.59 Y147.623 E.01736
G1 X95.267 Y147.299 E.01739
G1 X95.913 Y146.653 E.03472
G1 X96.237 Y146.976 E.01739
G1 X95.913 Y147.299 E.01739
G1 X96.237 Y147.623 E.01741
G1 X96.56 Y147.299 E.01739
G1 X96.883 Y147.623 E.01739
G1 X96.237 Y148.269 E.03472
G1 X95.913 Y147.946 E.01739
G1 X95.59 Y148.269 E.01736
G1 X96.56 Y149.239 E.05214
G1 X96.883 Y148.915 E.01739
G1 X96.56 Y148.592 E.01736
G1 X97.206 Y147.946 E.03472
G1 X97.529 Y148.269 E.01736
G1 X97.206 Y148.592 E.01736
