; generated by PrusaSlicer 2.6.1+win64 on 2024-02-06 at 22:23:27 UTC


;
;

;
;

;
;
; 

; external perimeters extrusion width = 0.45mm
; perimeters extrusion width = 0.45mm
; infill extrusion width = 0.45mm
; solid infill extrusion width = 0.45mm
; top infill extrusion width = 0.40mm
; first layer extrusion width = 0.50mm

M73 P0 R44
M201 X2500 Y2500 Z200 E2500 ; sets maximum accelerations, mm/sec^2
M203 X200 Y200 Z40 E100 ; sets maximum feedrates, mm / sec
M204 P2000 R1200 T2000 ; sets acceleration (P, T) and retract acceleration (R), mm/sec^2
M205 X8.00 Y8.00 Z2.00 E10.00 ; sets the jerk limits, mm/sec
M205 S0 T0 ; sets the minimum extruding and travel feed rate, mm/sec
;TYPE:Custom
M17 ; enable steppers
M862.3 P "MK4" ; printer model check
M862.1 P0.4 ; nozzle diameter check
M555 X93.595 Y76.175 W60.9284 H53.65

G90 ; use absolute coordinates
M83 ; extruder relative mode

M140 S60 ; set bed temp

M104 S170 ; set extruder temp for bed leveling
M109 R170 ; wait for temp


M84 E ; turn off E motor

G28 ; home all without mesh bed level

G1 X42 Y-4 Z5 F4800

M302 S160 ; lower cold extrusion limit to 160C


G1 E-2 F2400 ; retraction


M84 E ; turn off E motor

G29 P9 X10 Y-4 W32 H4

M106 S100

G0 Z40 F10000

M190 S60 ; wait for bed temp

M107

;
; MBL
;
M84 E ; turn off E motor
G29 P1 ; invalidate mbl & probe print area
G29 P1 X0 Y0 W50 H20 C ; probe near purge place
G29 P3.2 ; interpolate mbl probes
G29 P3.13 ; extrapolate mbl outside probe area
G29 A ; activate mbl

; prepare for purge
M104 S220
G0 X0 Y-4 Z15 F4800 ; move away and ready for the purge
M109 S220

G92 E0
M569 S0 E ; set spreadcycle mode for extruder

;
; Extrude purge line
;
G92 E0 ; reset extruder position
G1 E2 F2400 ; deretraction after the initial one before nozzle cleaning
G0 E7 X15 Z0.2 F500 ; purge
G0 X25 E4 F500 ; purge
G0 X35 E4 F650 ; purge
G0 X45 E4 F800 ; purge
G0 X48 Z0.05 F8000 ; wipe, move close to the bed
G0 X51 Z0.2 F8000 ; wipe, move quickly away from the bed

G92 E0
M221 S100 ; set flow to 100%
G21 ; set units to millimeters
G90 ; use absolute coordinates
M83 ; use relative distances for extrusion
M900 K0.05 ; Filament gcode



M142 S36 ; set heatbreak target temp
M107
;LAYER_CHANGE
;Z:0.2
;HEIGHT:0.2
;BEFORE_LAYER_CHANGE
G92 E0.0
;0.2


G1 E-2.8 F2100
G1 Z.2 F720
;AFTER_LAYER_CHANGE
;0.2
; printing object v117back-case.stl id:0 copy 0
G1 X99.677 Y124.598 F12000
G1 E2.8 F1500
M204 P600
;TYPE:External perimeter
;WIDTH:0.490862
G1 F1200
G1 X99.449 Y124.611 E.00851
;WIDTH:0.464363
G1 X99.221 Y124.624 E.008
;WIDTH:0.463625
G1 X99.024 Y124.612 E.0069
;WIDTH:0.489386
G1 X98.826 Y124.599 E.00737
M204 P1000
G1 E-2.24 F2100
;WIPE_START
G1 F9600
G1 X99.024 Y124.612 E-.04124
G1 X99.221 Y124.624 E-.04101
G1 X99.449 Y124.611 E-.04746
G1 X99.677 Y124.598 E-.04746
;WIPE_END
G1 E-.38283 F2100
G1 X124.105 Y85.951 F12000
G1 E2.8 F1500
M204 P600
;WIDTH:0.50899
G1 F1200
G1 X124.28 Y85.99 E.00695
G1 X124.729 Y86.247 E.02005
;WIDTH:0.499999
G1 X125.08 Y86.666 E.02077
G1 X125.261 Y87.105 E.01805
G1 X125.325 Y87.612 E.01942
G1 X125.245 Y88.154 E.02082
G1 X125.039 Y88.618 E.01929
G1 X124.72 Y89.013 E.0193
G1 X124.311 Y89.311 E.01923
G1 X123.878 Y89.483 E.01771
G1 X123.377 Y89.552 E.01922
G1 X122.876 Y89.483 E.01922
G1 X122.443 Y89.311 E.01771
G1 X122.034 Y89.013 E.01923
G1 X121.695 Y88.583 E.02081
G1 X121.493 Y88.096 E.02004
G1 X121.429 Y87.592 E.01931
G1 X121.499 Y87.087 E.01938
G1 X121.71 Y86.61 E.01982
G1 X122.051 Y86.222 E.01963
;WIDTH:0.517962
G1 X122.504 Y85.972 E.02044
G1 X123.336 Y85.862 E.03315
;WIDTH:0.498927
G1 X123.817 Y85.889 E.01827
;WIDTH:0.50899
G1 X124.046 Y85.939 E.00908
M204 P1000
G1 E-2.24 F2100
;WIPE_START
G1 F9600
G1 X124.28 Y85.99 E-.04977
G1 X124.729 Y86.247 E-.10751
G1 X125.08 Y86.666 E-.11359
G1 X125.261 Y87.105 E-.09868
G1 X125.325 Y87.612 E-.1062
G1 X125.266 Y88.013 E-.08425
;WIPE_END
G1 X154.277 Y86.918 F12000
G1 E2.8 F1500
M204 P600
;WIDTH:0.491806
G1 F1200
G1 X154.291 Y87.143 E.00841
;WIDTH:0.465019
G1 X154.304 Y87.367 E.00788
;WIDTH:0.465687
G1 X154.291 Y87.576 E.00736
;WIDTH:0.493142
G1 X154.277 Y87.785 E.00784
M204 P1000
G1 E-2.24 F2100
;WIPE_START
G1 F9600
G1 X154.291 Y87.576 E-.04353
G1 X154.304 Y87.367 E-.04352
G1 X154.291 Y87.143 E-.04663
G1 X154.277 Y86.918 E-.04685
;WIPE_END
G1 E-.37947 F2100
G1 X114.903 Y85.54 F12000
G1 E2.8 F1500
M204 P600
;WIDTH:0.499999
G1 F1200
G1 X115.065 Y85.607 E.00666
G1 X121.297 Y85.602 E.23686
G1 X121.816 Y85.576 E.01975
;WIDTH:0.515159
G1 X122.327 Y85.521 E.02018
;WIDTH:0.516752
G1 X122.826 Y85.444 E.01989
G1 X123.36 Y85.42 E.02106
;WIDTH:0.498927
G1 X123.895 Y85.44 E.0203
;WIDTH:0.499999
G1 X124.767 Y85.559 E.03345
G1 X125.281 Y85.596 E.01959
G1 X125.785 Y85.605 E.01916
G1 X136.007 Y85.607 E.3885
G1 X136.169 Y85.54 E.00666
G1 X136.236 Y85.378 E.00666
G1 X136.236 Y80.625 E.18064
G1 X141.02 Y80.625 E.18182
G1 X145.934 Y85.54 E.26415
G1 X146.096 Y85.607 E.00666
G1 X150.134 Y85.6 E.15347
G1 X151.184 Y85.489 E.04013
G1 X151.61 Y85.428 E.01636
;WIDTH:0.459929
G1 X152.036 Y85.367 E.01492
;WIDTH:0.419858
G1 X152.328 Y85.354 E.00916
;WIDTH:0.394104
G1 X152.62 Y85.341 E.00854
;WIDTH:0.407424
G1 X153.126 Y85.36 E.01535
;WIDTH:0.440898
G1 X153.302 Y85.382 E.00587
;WIDTH:0.474372
G1 X153.478 Y85.405 E.00637
;WIDTH:0.507845
G1 X153.654 Y85.427 E.00686
;WIDTH:0.547684
G1 X153.904 Y85.478 E.01071
;WIDTH:0.587523
G1 X154.154 Y85.529 E.01155
G1 X154.23 Y86.174 E.02941
G1 X154.25 Y86.517 E.01556
;WIDTH:0.54676
G1 X154.27 Y86.859 E.01435
G1 X154.214 Y86.673 E.00814
;WIDTH:0.587523
G1 X154.159 Y86.487 E.00878
G1 X153.875 Y86.102 E.02166
G1 X153.68 Y85.972 E.01061
;WIDTH:0.547684
G1 X153.484 Y85.842 E.00987
;WIDTH:0.507845
G1 X153.342 Y85.798 E.00575
;WIDTH:0.474372
G1 X153.199 Y85.755 E.00536
;WIDTH:0.440898
G1 X153.057 Y85.711 E.00492
;WIDTH:0.407424
G1 X152.599 Y85.665 E.01395
;WIDTH:0.394104
G1 X152.354 Y85.686 E.00718
;WIDTH:0.419858
G1 X152.109 Y85.708 E.00771
;WIDTH:0.459929
G1 X151.73 Y85.857 E.01412
;WIDTH:0.499999
G1 X151.35 Y86.007 E.01553
G1 X150.986 Y86.32 E.01825
G1 X150.733 Y86.781 E.01999
G1 X150.64 Y87.333 E.02128
G1 X150.703 Y87.842 E.01949
G1 X150.898 Y88.32 E.01962
G1 X151.204 Y88.72 E.01914
G1 X151.603 Y89.029 E.01918
G1 X152.088 Y89.229 E.01994
G1 X152.633 Y89.289 E.02084
G1 X153.17 Y89.165 E.02095
G1 X153.594 Y88.881 E.0194
G1 X154.088 Y88.242 E.0307
G1 X154.277 Y87.785 E.0188
;WIDTH:0.494007
G1 X154.276 Y87.835 E.00188
;WIDTH:0.499999
G1 X154.273 Y88.609 E.02942
G1 X154.153 Y89.343 E.02827
G1 X154.095 Y90.049 E.02692
G1 X154.074 Y90.613 E.02145
G1 X154.073 Y124.393 E1.28385
G1 X146.096 Y124.393 E.30318
G1 X145.934 Y124.46 E.00666
G1 X141.02 Y129.375 E.26415
G1 X136.236 Y129.375 E.18182
G1 X136.231 Y125.554 E.14522
G1 X136.156 Y125.43 E.00551
G1 X136.007 Y125.375 E.00604
G1 X115.678 Y125.375 E.77263
G1 X115.054 Y125.375 E.02372
G1 X114.895 Y125.451 E.0067
G1 X114.836 Y125.604 E.00623
G1 X114.836 Y129.375 E.14332
G1 X110.052 Y129.375 E.18182
G1 X105.138 Y124.46 E.26415
G1 X104.975 Y124.393 E.0067
G1 X101.943 Y124.401 E.11524
G1 X101.433 Y124.438 E.01943
G1 X100.492 Y124.591 E.03623
G1 X99.677 Y124.598 E.03098
G1 X100.144 Y124.408 E.01916
G1 X100.783 Y123.912 E.03074
G1 X101.068 Y123.484 E.01954
G1 X101.188 Y122.931 E.02151
G1 X101.131 Y122.414 E.01977
G1 X100.929 Y121.925 E.02011
M73 P0 R43
G1 X100.609 Y121.512 E.01986
G1 X100.21 Y121.211 E.019
G1 X99.745 Y121.025 E.01903
G1 X99.243 Y120.961 E.01923
G1 X98.782 Y121.014 E.01764
G1 X98.314 Y121.196 E.01908
G1 X97.904 Y121.495 E.01929
G1 X97.565 Y121.925 E.02081
G1 X97.363 Y122.414 E.02011
G1 X97.307 Y122.936 E.01995
G1 X97.426 Y123.484 E.02131
G1 X97.711 Y123.912 E.01954
G1 X98.35 Y124.408 E.03074
G1 X98.826 Y124.599 E.01949
;WIDTH:0.490964
G1 X98.767 Y124.598 E.0022
;WIDTH:0.499999
G1 X98.066 Y124.591 E.02664
G1 X97.107 Y124.442 E.03689
G1 X96.6 Y124.401 E.01933
G1 X95.098 Y124.394 E.05709
G1 X95.098 Y123.965 E.0163
G1 X95.031 Y123.803 E.00666
G1 X94.045 Y122.817 E.053
G1 X94.045 Y86.929 E1.36397
G1 X95.031 Y85.943 E.053
G1 X95.098 Y85.781 E.00666
G1 X95.098 Y85.607 E.00661
G1 X104.976 Y85.607 E.37543
G1 X105.138 Y85.54 E.00666
G1 X110.052 Y80.625 E.26415
G1 X114.836 Y80.625 E.18182
G1 X114.836 Y85.378 E.18064
G1 X114.88 Y85.484 E.00436
M204 P1000
G1 X114.467 Y85.608 F12000
M204 P600
;TYPE:Solid infill
;WIDTH:0.5
G1 F1200
G1 X114.359 Y85.717 E.00583
G1 X114.035 Y85.393 E.01741
G1 X113.712 Y85.717 E.01739
G1 X114.035 Y86.04 E.01736
G1 X113.389 Y86.686 E.03472
G1 X113.066 Y86.363 E.01736
G1 X113.389 Y86.04 E.01736
G1 X113.066 Y85.717 E.01736
G1 X112.743 Y86.04 E.01736
G1 X112.419 Y85.717 E.01739
G1 X113.066 Y85.07 E.03478
G1 X113.389 Y85.393 E.01736
G1 X113.712 Y85.07 E.01736
G1 X113.066 Y84.424 E.03472
G1 X112.743 Y84.747 E.01736
G1 X112.419 Y84.424 E.01739
G1 X112.743 Y84.101 E.01739
G1 X112.096 Y83.454 E.03478
G1 X111.773 Y83.777 E.01736
G1 X112.096 Y84.101 E.01739
G1 X111.773 Y84.424 E.01736
G1 X111.45 Y84.101 E.01736
G1 X111.127 Y84.424 E.01736
G1 X111.773 Y85.07 E.03472
G1 X112.096 Y84.747 E.01736
G1 X112.419 Y85.07 E.01736
G1 X111.45 Y86.04 E.05211
G1 X111.127 Y85.717 E.01736
G1 X111.45 Y85.393 E.01739
G1 X110.803 Y84.747 E.03475
G1 X110.48 Y85.07 E.01736
G1 X110.803 Y85.393 E.01736
G1 X110.48 Y85.717 E.01739
G1 X110.157 Y85.393 E.01739
G1 X109.834 Y85.717 E.01739
G1 X110.48 Y86.363 E.03472
G1 X110.803 Y86.04 E.01736
G1 X111.127 Y86.363 E.01739
G1 X110.803 Y86.686 E.01739
G1 X111.45 Y87.333 E.03478
G1 X111.773 Y87.009 E.01739
G1 X111.45 Y86.686 E.01736
G1 X112.096 Y86.04 E.03472
G1 X112.419 Y86.363 E.01736
G1 X112.096 Y86.686 E.01736
G1 X112.419 Y87.009 E.01736
G1 X112.743 Y86.686 E.01739
G1 X113.066 Y87.009 E.01736
G1 X112.419 Y87.656 E.03478
G1 X112.096 Y87.333 E.01736
G1 X111.773 Y87.656 E.01736
G1 X112.419 Y88.302 E.03472
G1 X112.743 Y87.979 E.01739
G1 X113.066 Y88.302 E.01736
G1 X112.743 Y88.625 E.01736
G1 X113.389 Y89.272 E.03475
G1 X113.712 Y88.949 E.01736
G1 X113.389 Y88.625 E.01739
G1 X113.712 Y88.302 E.01736
G1 X114.035 Y88.625 E.01736
G1 X114.359 Y88.302 E.01739
G1 X113.712 Y87.656 E.03475
G1 X113.389 Y87.979 E.01736
G1 X113.066 Y87.656 E.01736
G1 X113.712 Y87.009 E.03475
G1 X114.035 Y87.333 E.01739
G1 X114.359 Y87.009 E.01741
G1 X114.035 Y86.686 E.01739
G1 X114.682 Y86.04 E.03475
G1 X115.005 Y86.363 E.01736
G1 X114.682 Y86.686 E.01736
G1 X115.005 Y87.009 E.01736
G1 X115.328 Y86.686 E.01736
G1 X115.651 Y87.009 E.01736
G1 X115.005 Y87.656 E.03475
G1 X114.682 Y87.333 E.01736
M73 P1 R43
G1 X114.359 Y87.656 E.01736
G1 X115.328 Y88.625 E.05208
G1 X115.651 Y88.302 E.01736
G1 X115.328 Y87.979 E.01736
G1 X115.975 Y87.333 E.03475
G1 X116.298 Y87.656 E.01736
G1 X115.975 Y87.979 E.01736
G1 X116.298 Y88.302 E.01736
G1 X116.621 Y87.979 E.01736
G1 X116.944 Y88.302 E.01736
G1 X116.298 Y88.949 E.03475
G1 X115.975 Y88.625 E.01739
G1 X115.651 Y88.949 E.01741
G1 X115.975 Y89.272 E.01739
G1 X115.328 Y89.918 E.03475
G1 X115.005 Y89.595 E.01736
G1 X115.328 Y89.272 E.01736
G1 X114.682 Y88.625 E.03475
G1 X114.359 Y88.949 E.01739
G1 X114.682 Y89.272 E.01736
G1 X114.359 Y89.595 E.01736
G1 X114.035 Y89.272 E.01739
G1 X113.712 Y89.595 E.01736
G1 X114.359 Y90.241 E.03475
G1 X114.682 Y89.918 E.01736
G1 X115.005 Y90.241 E.01736
G1 X114.682 Y90.565 E.01739
G1 X115.328 Y91.211 E.03472
G1 X115.651 Y90.888 E.01736
G1 X115.328 Y90.565 E.01736
G1 X115.975 Y89.918 E.03478
G1 X116.298 Y90.241 E.01736
G1 X115.975 Y90.565 E.01739
G1 X116.298 Y90.888 E.01736
G1 X116.621 Y90.565 E.01736
G1 X116.944 Y90.888 E.01736
G1 X116.298 Y91.534 E.03472
G1 X115.975 Y91.211 E.01736
G1 X115.651 Y91.534 E.01739
G1 X116.298 Y92.181 E.03478
G1 X116.621 Y91.857 E.01739
G1 X116.944 Y92.181 E.01739
G1 X116.621 Y92.504 E.01736
G1 X117.267 Y93.15 E.03472
G1 X117.591 Y92.827 E.01739
G1 X117.267 Y92.504 E.01739
G1 X117.591 Y92.181 E.01739
G1 X117.914 Y92.504 E.01736
G1 X118.237 Y92.181 E.01736
G1 X117.591 Y91.534 E.03475
G1 X117.267 Y91.857 E.01739
G1 X116.944 Y91.534 E.01736
G1 X117.591 Y90.888 E.03475
G1 X117.914 Y90.565 E.01736
G1 X118.237 Y90.888 E.01736
G1 X117.914 Y91.211 E.01736
G1 X118.56 Y91.857 E.03472
G1 X118.883 Y91.534 E.01736
G1 X118.56 Y91.211 E.01736
G1 X118.883 Y90.888 E.01736
G1 X119.207 Y91.211 E.01739
G1 X119.53 Y90.888 E.01736
G1 X118.883 Y90.241 E.03478
G1 X118.56 Y90.565 E.01739
G1 X118.237 Y90.241 E.01739
G1 X118.56 Y89.918 E.01736
G1 X117.914 Y89.272 E.03472
G1 X117.591 Y89.595 E.01736
G1 X117.914 Y89.918 E.01736
G1 X117.267 Y90.565 E.03478
G1 X116.944 Y90.241 E.01739
G1 X117.267 Y89.918 E.01736
G1 X116.944 Y89.595 E.01736
G1 X116.621 Y89.918 E.01736
G1 X116.298 Y89.595 E.01736
G1 X116.944 Y88.949 E.03472
G1 X117.267 Y89.272 E.01736
G1 X117.591 Y88.949 E.01739
G1 X117.267 Y88.625 E.01741
G1 X117.914 Y87.979 E.03475
G1 X118.237 Y88.302 E.01736
G1 X117.914 Y88.625 E.01736
G1 X118.56 Y89.272 E.03475
G1 X118.883 Y88.949 E.01736
G1 X118.56 Y88.625 E.01739
G1 X118.883 Y88.302 E.01736
G1 X119.207 Y88.625 E.01739
G1 X119.53 Y88.302 E.01736
G1 X118.883 Y87.656 E.03475
G1 X118.56 Y87.979 E.01736
G1 X118.237 Y87.656 E.01736
G1 X118.883 Y87.009 E.03475
G1 X119.207 Y87.333 E.01741
G1 X119.53 Y87.009 E.01739
G1 X119.207 Y86.686 E.01736
G1 X119.853 Y86.04 E.03472
G1 X120.176 Y86.363 E.01736
G1 X119.853 Y86.686 E.01736
G1 X120.176 Y87.009 E.01736
G1 X120.499 Y86.686 E.01736
G1 X120.823 Y87.009 E.01739
G1 X120.176 Y87.656 E.03478
G1 X119.853 Y87.333 E.01736
G1 X119.53 Y87.656 E.01736
G1 X120.499 Y88.625 E.05208
G1 X120.823 Y88.302 E.01739
G1 X120.499 Y87.979 E.01739
G1 X121.032 Y87.446 E.02865
M204 P1000
G1 X121.272 Y86.56 F12000
M204 P600
G1 F1200
G1 X121.146 Y86.686 E.00677
G1 X120.823 Y86.363 E.01736
G1 X121.146 Y86.04 E.01736
G1 X121.12 Y86.014 E.0014
M204 P1000
G1 X120.525 Y86.014 F12000
M204 P600
G1 F1200
G1 X120.499 Y86.04 E.0014
G1 X120.474 Y86.014 E.00137
M204 P1000
G1 X119.232 Y86.015 F12000
M204 P600
G1 F1200
G1 X119.207 Y86.04 E.00134
G1 X119.182 Y86.015 E.00134
M204 P1000
G1 X117.89 Y86.015 F12000
M204 P600
G1 F1200
G1 X118.237 Y86.363 E.01868
G1 X118.56 Y86.04 E.01736
G1 X118.883 Y86.363 E.01736
G1 X118.237 Y87.009 E.03472
G1 X117.914 Y86.686 E.01736
G1 X117.591 Y87.009 E.01736
G1 X117.914 Y87.333 E.01739
G1 X117.267 Y87.979 E.03475
G1 X116.944 Y87.656 E.01736
G1 X117.267 Y87.333 E.01736
G1 X116.944 Y87.009 E.01739
G1 X116.621 Y87.333 E.01739
G1 X116.298 Y87.009 E.01739
G1 X116.944 Y86.363 E.03472
G1 X117.267 Y86.686 E.01736
G1 X117.591 Y86.363 E.01739
G1 X117.244 Y86.016 E.01865
M204 P1000
G1 X116.598 Y86.016 F12000
M204 P600
G1 F1200
G1 X116.621 Y86.04 E.00126
G1 X115.975 Y86.686 E.03472
G1 X115.651 Y86.363 E.01739
G1 X115.975 Y86.04 E.01739
G1 X115.951 Y86.017 E.00126
M204 P1000
G1 X115.351 Y86.017 F12000
M204 P600
G1 F1200
G1 X115.328 Y86.04 E.00124
G1 X115.305 Y86.017 E.00124
M204 P1000
G1 X114.425 Y85.136 F12000
M204 P600
G1 F1200
G1 X114.359 Y85.07 E.00355
G1 X114.425 Y85.004 E.00355
M204 P1000
G1 X114.425 Y83.711 F12000
M204 P600
G1 F1200
G1 X114.035 Y84.101 E.02096
G1 X114.359 Y84.424 E.01739
G1 X114.035 Y84.747 E.01739
G1 X113.389 Y84.101 E.03472
G1 X113.712 Y83.777 E.01739
G1 X113.389 Y83.454 E.01736
G1 X113.066 Y83.777 E.01736
G1 X112.419 Y83.131 E.03475
G1 X112.743 Y82.808 E.01739
G1 X113.066 Y83.131 E.01736
G1 X113.389 Y82.808 E.01736
G1 X113.066 Y82.485 E.01736
G1 X113.389 Y82.161 E.01739
G1 X114.035 Y82.808 E.03475
G1 X113.712 Y83.131 E.01736
G1 X114.035 Y83.454 E.01736
G1 X114.425 Y83.065 E.02094
M204 P1000
G1 X114.425 Y82.419 F12000
M204 P600
G1 F1200
G1 X114.359 Y82.485 E.00355
G1 X113.712 Y81.838 E.03478
G1 X114.035 Y81.515 E.01736
G1 X114.359 Y81.838 E.01739
G1 X114.425 Y81.772 E.00355
M204 P1000
G1 X114.425 Y81.258 F12000
M204 P600
G1 F1200
G1 X114.359 Y81.192 E.00355
G1 X114.425 Y81.126 E.00355
M204 P1000
G1 X113.557 Y81.036 F12000
M204 P600
G1 F1200
G1 X113.712 Y81.192 E.00836
G1 X113.389 Y81.515 E.01736
G1 X112.91 Y81.036 E.02575
M204 P1000
G1 X111.928 Y81.036 F12000
M204 P600
G1 F1200
G1 X111.773 Y81.192 E.00836
G1 X112.096 Y81.515 E.01736
G1 X112.419 Y81.192 E.01736
G1 X113.066 Y81.838 E.03475
G1 X112.743 Y82.161 E.01736
G1 X112.419 Y81.838 E.01739
G1 X112.096 Y82.161 E.01736
G1 X112.419 Y82.485 E.01739
