; generated by PrusaSlicer 2.6.1+win64 on 2024-02-06 at 21:58:12 UTC


;
;

;
;

;
;
; 

; external perimeters extrusion width = 0.45mm
; perimeters extrusion width = 0.45mm
; infill extrusion width = 0.45mm
; solid infill extrusion width = 0.45mm
; top infill extrusion width = 0.40mm
; first layer extrusion width = 0.50mm

M73 P0 R14
M201 X2500 Y2500 Z200 E2500 ; sets maximum accelerations, mm/sec^2
M203 X200 Y200 Z40 E100 ; sets maximum feedrates, mm / sec
M204 P2000 R1200 T2000 ; sets acceleration (P, T) and retract acceleration (R), mm/sec^2
M205 X8.00 Y8.00 Z2.00 E10.00 ; sets the jerk limits, mm/sec
M205 S0 T0 ; sets the minimum extruding and travel feed rate, mm/sec
;TYPE:Custom
M17 ; enable steppers
M862.3 P "MK4" ; printer model check
M862.1 P0.4 ; nozzle diameter check
M555 X92.781 Y75.275 W64.438 H55.45

G90 ; use absolute coordinates
M83 ; extruder relative mode

M140 S60 ; set bed temp

M104 S170 ; set extruder temp for bed leveling
M109 R170 ; wait for temp


M84 E ; turn off E motor

G28 ; home all without mesh bed level

G1 X42 Y-4 Z5 F4800

M302 S160 ; lower cold extrusion limit to 160C


G1 E-2 F2400 ; retraction


M84 E ; turn off E motor

G29 P9 X10 Y-4 W32 H4

M106 S100

G0 Z40 F10000

M190 S60 ; wait for bed temp

M107

;
; MBL
;
M84 E ; turn off E motor
G29 P1 ; invalidate mbl & probe print area
G29 P1 X0 Y0 W50 H20 C ; probe near purge place
G29 P3.2 ; interpolate mbl probes
G29 P3.13 ; extrapolate mbl outside probe area
G29 A ; activate mbl

; prepare for purge
M104 S220
G0 X0 Y-4 Z15 F4800 ; move away and ready for the purge
M109 S220

G92 E0
M569 S0 E ; set spreadcycle mode for extruder

;
; Extrude purge line
;
G92 E0 ; reset extruder position
G1 E2 F2400 ; deretraction after the initial one before nozzle cleaning
G0 E7 X15 Z0.2 F500 ; purge
G0 X25 E4 F500 ; purge
G0 X35 E4 F650 ; purge
G0 X45 E4 F800 ; purge
G0 X48 Z0.05 F8000 ; wipe, move close to the bed
G0 X51 Z0.2 F8000 ; wipe, move quickly away from the bed

G92 E0
M221 S100 ; set flow to 100%
G21 ; set units to millimeters
G90 ; use absolute coordinates
M83 ; use relative distances for extrusion
M900 K0.05 ; Filament gcode



M142 S36 ; set heatbreak target temp
M107
;LAYER_CHANGE
;Z:0.2
;HEIGHT:0.2
;BEFORE_LAYER_CHANGE
G92 E0.0
;0.2


G1 E-2.8 F2100
G1 Z.2 F720
;AFTER_LAYER_CHANGE
;0.2
; printing object v117front-case.stl id:0 copy 0
G1 X140.053 Y79.374 F12000
G1 E2.8 F1500
M204 P600
;TYPE:External perimeter
;WIDTH:0.38292
G1 F1200
G1 X140.786 Y79.374 E.02072
G1 X140.986 Y79.412 E.00576
G1 X141.424 Y79.763 E.01587
G1 X141.671 Y80.042 E.01053
M204 P1000
M73 P1 R14
G1 E-2.24 F2100
;WIPE_START
G1 F9600
G1 X141.424 Y79.763 E-.07744
G1 X140.986 Y79.412 E-.11664
G1 X140.786 Y79.374 E-.04231
G1 X140.053 Y79.374 E-.15233
;WIPE_END
G1 E-.17128 F2100
G1 X139.441 Y79.525 F12000
G1 E2.8 F1500
M204 P600
;WIDTH:0.499999
G1 F1200
G1 X139.269 Y79.667 E.00848
G1 X138.826 Y80.253 E.02792
G1 X138.67 Y80.704 E.01814
G1 X138.683 Y81.192 E.01855
G1 X138.848 Y81.644 E.01829
G1 X139.127 Y82.026 E.01798
G1 X139.496 Y82.319 E.01791
G1 X139.927 Y82.506 E.01786
G1 X140.392 Y82.575 E.01787
G1 X140.859 Y82.519 E.01788
G1 X141.308 Y82.332 E.01849
G1 X141.693 Y81.99 E.01957
G1 X141.919 Y81.535 E.01931
G1 X142.02 Y80.806 E.02797
G1 X141.999 Y80.584 E.00848
G1 X142.471 Y81.057 E.0254
G1 X142.727 Y81.477 E.01869
G1 X143.049 Y81.895 E.02005
G1 X143.436 Y82.302 E.02135
G1 X143.602 Y82.373 E.00686
G1 X155.911 Y82.375 E.46782
G1 X156.769 Y83.233 E.04612
G1 X156.769 Y126.767 E1.65457
G1 X155.911 Y127.625 E.04612
G1 X143.602 Y127.627 E.46782
G1 X143.436 Y127.698 E.00686
G1 X143.095 Y128.057 E.01882
G1 X142.765 Y128.469 E.02006
G1 X142.499 Y128.915 E.01974
G1 X141.999 Y129.416 E.0269
G1 X142.02 Y129.194 E.00848
G1 X141.919 Y128.465 E.02797
G1 X141.711 Y128.037 E.01809
G1 X141.356 Y127.701 E.01858
G1 X140.92 Y127.498 E.01828
G1 X140.452 Y127.425 E.018
G1 X139.985 Y127.479 E.01787
G1 X139.547 Y127.651 E.01788
G1 X139.17 Y127.931 E.01785
G1 X138.879 Y128.301 E.01789
G1 X138.698 Y128.738 E.01798
G1 X138.662 Y129.265 E.02008
G1 X138.826 Y129.747 E.01935
G1 X139.225 Y130.274 E.02512
G1 X139.444 Y130.475 E.0113
G1 X138.673 Y130.459 E.02931
G1 X138.184 Y130.337 E.01915
G1 X137.677 Y130.285 E.01937
G1 X136.2 Y130.276 E.05614
G1 X136.2 Y127.858 E.0919
G1 X136.154 Y127.716 E.00567
G1 X135.971 Y127.625 E.00777
G1 X114.029 Y127.625 E.83393
G1 X113.846 Y127.716 E.00777
G1 X113.8 Y127.853 E.00549
G1 X113.8 Y130.276 E.09209
G1 X112.3 Y130.286 E.05701
G1 X111.784 Y130.343 E.01973
G1 X111.293 Y130.461 E.01919
G1 X110.559 Y130.475 E.0279
G1 X110.731 Y130.333 E.00848
G1 X111.174 Y129.747 E.02792
G1 X111.33 Y129.296 E.01814
G1 X111.317 Y128.808 E.01855
G1 X111.152 Y128.356 E.01829
G1 X110.873 Y127.974 E.01798
G1 X110.504 Y127.681 E.01791
G1 X110.073 Y127.494 E.01786
G1 X109.608 Y127.425 E.01787
G1 X109.141 Y127.481 E.01788
G1 X108.704 Y127.663 E.01799
G1 X108.307 Y128.01 E.02004
G1 X108.081 Y128.465 E.01931
G1 X107.98 Y129.194 E.02797
G1 X108.001 Y129.416 E.00848
G1 X107.529 Y128.943 E.0254
G1 X107.273 Y128.523 E.01869
G1 X106.951 Y128.105 E.02005
G1 X106.564 Y127.698 E.02135
G1 X106.398 Y127.627 E.00686
G1 X94.089 Y127.625 E.46782
G1 X93.231 Y126.767 E.04612
G1 X93.231 Y83.233 E1.65457
G1 X94.089 Y82.375 E.04612
G1 X106.398 Y82.373 E.46782
G1 X106.505 Y82.347 E.00419
G1 X106.762 Y82.094 E.01371
G1 X107.235 Y81.531 E.02795
G1 X107.501 Y81.085 E.01974
G1 X108.001 Y80.584 E.0269
M73 P2 R14
G1 X107.98 Y80.806 E.00848
G1 X108.081 Y81.535 E.02797
G1 X108.289 Y81.963 E.01809
G1 X108.644 Y82.299 E.01858
M73 P2 R13
G1 X109.08 Y82.502 E.01828
G1 X109.548 Y82.575 E.018
G1 X110.015 Y82.521 E.01787
G1 X110.453 Y82.349 E.01788
G1 X110.83 Y82.069 E.01785
G1 X111.121 Y81.699 E.01789
G1 X111.302 Y81.262 E.01798
G1 X111.338 Y80.735 E.02008
G1 X111.174 Y80.253 E.01935
G1 X110.775 Y79.726 E.02512
G1 X110.559 Y79.525 E.01121
G1 X111.327 Y79.541 E.0292
G1 X111.816 Y79.663 E.01915
G1 X112.323 Y79.715 E.01937
G1 X113.8 Y79.724 E.05614
G1 X113.8 Y82.142 E.0919
G1 X113.863 Y82.304 E.00661
G1 X114.029 Y82.375 E.00686
G1 X135.971 Y82.375 E.83393
G1 X136.137 Y82.304 E.00686
G1 X136.2 Y82.146 E.00646
G1 X136.2 Y79.724 E.09205
G1 X137.7 Y79.714 E.05701
G1 X138.216 Y79.657 E.01973
G1 X138.707 Y79.539 E.01919
G1 X139.381 Y79.526 E.02562
M204 P1000
G1 E-2.24 F2100
;WIPE_START
G1 F9600
G1 X139.269 Y79.667 E-.03742
G1 X138.826 Y80.253 E-.15266
G1 X138.67 Y80.704 E-.09917
G1 X138.683 Y81.192 E-.10145
G1 X138.848 Y81.644 E-.09999
G1 X139.045 Y81.913 E-.06931
;WIPE_END
G1 X141.682 Y129.942 F12000
G1 E2.8 F1500
M204 P600
;WIDTH:0.38292
G1 F1200
G1 X141.424 Y130.237 E.01108
G1 X140.986 Y130.588 E.01587
G1 X140.429 Y130.65 E.01584
G1 X140.056 Y130.626 E.01057
M204 P1000
G1 E-2.24 F2100
;WIPE_START
G1 F9600
G1 X140.429 Y130.65 E-.07767
G1 X140.986 Y130.588 E-.11647
G1 X141.424 Y130.237 E-.11664
G1 X141.682 Y129.942 E-.08144
;WIPE_END
G1 E-.16778 F2100
G1 X109.947 Y130.626 F12000
G1 E2.8 F1500
M204 P600
G1 F1200
G1 X109.213 Y130.626 E.02075
G1 X109.014 Y130.588 E.00573
G1 X108.576 Y130.237 E.01587
G1 X108.329 Y129.958 E.01053
M204 P1000
G1 E-2.24 F2100
;WIPE_START
G1 F9600
G1 X108.576 Y130.237 E-.07744
G1 X109.014 Y130.588 E-.11664
G1 X109.213 Y130.626 E-.0421
G1 X109.947 Y130.626 E-.15253
;WIPE_END
G1 E-.17129 F2100
G1 X155.41 Y125.776 F12000
G1 E2.8 F1500
M204 P600
;WIDTH:0.499999
G1 F1200
G1 X155.173 Y126.071 E.01438
G1 X154.868 Y126.296 E.0144
G1 X154.515 Y126.433 E.01439
G1 X154.184 Y126.475 E.01268
G1 X95.816 Y126.475 E2.21835
G1 X95.427 Y126.418 E.01494
G1 X95.08 Y126.266 E.0144
G1 X94.785 Y126.029 E.01438
G1 X94.56 Y125.724 E.0144
G1 X94.423 Y125.371 E.01439
G1 X94.381 Y125.04 E.01268
G1 X94.381 Y88.26 E1.39787
G1 X94.438 Y87.871 E.01494
G1 X94.59 Y87.524 E.0144
M73 P3 R13
G1 X94.827 Y87.229 E.01438
G1 X95.132 Y87.004 E.0144
G1 X95.485 Y86.867 E.01439
G1 X95.816 Y86.825 E.01268
G1 X154.184 Y86.825 E2.21835
G1 X154.573 Y86.882 E.01494
G1 X154.92 Y87.034 E.0144
G1 X155.215 Y87.271 E.01438
G1 X155.44 Y87.576 E.0144
G1 X155.577 Y87.929 E.01439
G1 X155.619 Y88.26 E.01268
G1 X155.619 Y125.04 E1.39787
G1 X155.562 Y125.429 E.01494
G1 X155.434 Y125.721 E.01212
M204 P1000
G1 E-2.24 F2100
;WIPE_START
G1 F9600
G1 X155.173 Y126.071 E-.09073
G1 X154.868 Y126.296 E-.07876
G1 X154.515 Y126.433 E-.07869
G1 X154.184 Y126.475 E-.06934
G1 X153.017 Y126.475 E-.24248
;WIPE_END
M73 P4 R13
G1 X108.327 Y80.045 F12000
G1 E2.8 F1500
M204 P600
;WIDTH:0.38292
G1 F1200
G1 X108.846 Y79.526 E.02075
G1 X109.014 Y79.412 E.00574
G1 X109.555 Y79.351 E.01539
G1 X109.942 Y79.374 E.01096
M204 P1000
G1 E-2.24 F2100
;WIPE_START
G1 F9600
G1 X109.555 Y79.351 E-.08057
G1 X109.014 Y79.412 E-.11314
G1 X108.846 Y79.526 E-.04219
G1 X108.327 Y80.045 E-.15253
;WIPE_END
G1 E-.17157 F2100
G1 X111.624 Y80.04 F12000
G1 E2.8 F1500
M204 P600
;TYPE:Solid infill
;WIDTH:0.5
G1 F1200
G1 X112.021 Y80.436 E.02131
G1 X111.742 Y80.715 E.015
M204 P1000
G1 X111.679 Y81.424 F12000
M204 P600
G1 F1200
G1 X111.698 Y81.406 E.00099
G1 X112.021 Y81.729 E.01736
G1 X112.344 Y81.406 E.01736
G1 X112.021 Y81.083 E.01736
G1 X112.344 Y80.76 E.01736
G1 X112.991 Y81.406 E.03475
G1 X112.667 Y81.729 E.01739
G1 X112.991 Y82.053 E.01741
G1 X113.314 Y81.729 E.01739
G1 X113.393 Y81.808 E.00425
M204 P1000
G1 X113.391 Y81.006 F12000
M204 P600
G1 F1200
G1 X113.314 Y81.083 E.00414
G1 X112.667 Y80.436 E.03478
G1 X112.975 Y80.129 E.01653
M204 P1000
G1 X113.007 Y80.129 F12000
M204 P600
G1 F1200
G1 X113.314 Y80.436 E.0165
G1 X113.389 Y80.361 E.00403
M204 P1000
G1 E-2.24 F2100
;WIPE_START
G1 F9600
G1 X113.314 Y80.436 E-.02204
G1 X113.007 Y80.129 E-.09022
;WIPE_END
G1 E-.44774 F2100
G1 X110.891 Y82.539 F12000
G1 E2.8 F1500
M204 P600
G1 F1200
G1 X111.051 Y82.699 E.0086
G1 X111.375 Y82.376 E.01739
G1 X111.229 Y82.23 E.00785
M204 P1000
G1 X111.505 Y81.859 F12000
M204 P600
G1 F1200
G1 X112.021 Y82.376 E.02776
G1 X112.344 Y82.053 E.01736
G1 X112.667 Y82.376 E.01736
G1 X112.021 Y83.022 E.03472
G1 X111.698 Y82.699 E.01736
G1 X111.375 Y83.022 E.01736
G1 X111.698 Y83.345 E.01736
G1 X111.051 Y83.992 E.03478
G1 X110.728 Y83.669 E.01736
G1 X111.051 Y83.345 E.01739
G1 X110.728 Y83.022 E.01736
G1 X110.405 Y83.345 E.01736
G1 X110.082 Y83.022 E.01736
G1 X110.211 Y82.893 E.00693
M204 P1000
G1 E-2.24 F2100
;WIPE_START
G1 F9600
G1 X110.082 Y83.022 E-.03791
G1 X110.405 Y83.345 E-.09493
G1 X110.728 Y83.022 E-.09493
G1 X111.051 Y83.345 E-.09493
G1 X110.728 Y83.669 E-.09507
G1 X111.051 Y83.992 E-.09493
G1 X111.212 Y83.831 E-.0473
;WIPE_END
G1 X107.856 Y82.016 F12000
G1 E2.8 F1500
M204 P600
G1 F1200
G1 X107.819 Y82.053 E.00199
G1 X107.555 Y81.788 E.01422
M204 P1000
G1 X107.271 Y82.151 F12000
M204 P600
G1 F1200
G1 X107.496 Y82.376 E.01209
G1 X106.85 Y83.022 E.03472
G1 X106.581 Y82.753 E.01446
M204 P1000
G1 X106.448 Y82.778 F12000
M204 P600
G1 F1200
G1 X106.203 Y83.022 E.01314
G1 X106.527 Y83.345 E.01739
G1 X105.88 Y83.992 E.03478
G1 X105.557 Y83.669 E.01736
G1 X105.88 Y83.345 E.01739
G1 X105.557 Y83.022 E.01736
G1 X105.234 Y83.345 E.01736
G1 X104.911 Y83.022 E.01736
G1 X105.154 Y82.779 E.01306
M204 P1000
G1 E-2.24 F2100
;WIPE_START
G1 F9600
G1 X104.911 Y83.022 E-.07142
G1 X105.234 Y83.345 E-.09493
G1 X105.557 Y83.022 E-.09493
G1 X105.88 Y83.345 E-.09493
G1 X105.557 Y83.669 E-.09507
G1 X105.88 Y83.992 E-.09493
G1 X105.927 Y83.945 E-.01379
;WIPE_END
G1 X101.92 Y82.781 F12000
G1 E2.8 F1500
M204 P600
G1 F1200
G1 X101.355 Y83.345 E.03034
G1 X101.032 Y83.022 E.01736
G1 X101.273 Y82.781 E.01295
M204 P1000
G1 X100.626 Y82.782 F12000
M204 P600
G1 F1200
G1 X100.386 Y83.022 E.0129
G1 X100.146 Y82.782 E.0129
M204 P1000
G1 X99.979 Y82.782 F12000
M204 P600
G1 F1200
G1 X99.739 Y83.022 E.0129
G1 X100.386 Y83.669 E.03478
G1 X100.709 Y83.345 E.01739
G1 X101.032 Y83.669 E.01739
G1 X100.709 Y83.992 E.01736
G1 X101.032 Y84.315 E.01736
G1 X101.355 Y83.992 E.01736
G1 X101.678 Y84.315 E.01736
G1 X101.355 Y84.638 E.01736
G1 X102.002 Y85.285 E.03478
G1 X102.325 Y84.961 E.01739
G1 X102.002 Y84.638 E.01736
G1 X102.325 Y84.315 E.01736
G1 X102.648 Y84.638 E.01736
G1 X102.971 Y84.315 E.01736
G1 X102.325 Y83.669 E.03472
G1 X102.002 Y83.992 E.01736
G1 X101.678 Y83.669 E.01739
G1 X102.325 Y83.022 E.03478
G1 X102.648 Y83.345 E.01736
G1 X102.971 Y83.022 E.01736
G1 X102.73 Y82.78 E.01298
M204 P1000
G1 X103.376 Y82.78 F12000
M204 P600
G1 F1200
G1 X103.618 Y83.022 E.01301
G1 X103.86 Y82.78 E.01301
M204 P1000
G1 X104.021 Y82.779 F12000
M204 P600
G1 F1200
G1 X104.264 Y83.022 E.01306
G1 X103.618 Y83.669 E.03475
G1 X103.295 Y83.345 E.01739
G1 X102.971 Y83.669 E.01741
G1 X103.941 Y84.638 E.05211
G1 X104.264 Y84.315 E.01736
G1 X103.941 Y83.992 E.01736
G1 X104.587 Y83.345 E.03475
G1 X104.911 Y83.669 E.01741
G1 X104.587 Y83.992 E.01739
G1 X104.911 Y84.315 E.01739
G1 X105.234 Y83.992 E.01736
G1 X105.557 Y84.315 E.01736
G1 X104.911 Y84.961 E.03472
G1 X104.587 Y84.638 E.01739
G1 X104.264 Y84.961 E.01736
G1 X104.587 Y85.285 E.01739
G1 X103.941 Y85.931 E.03472
G1 X103.618 Y85.608 E.01736
G1 X103.941 Y85.285 E.01736
G1 X103.295 Y84.638 E.03475
G1 X102.971 Y84.961 E.01739
G1 X103.295 Y85.285 E.01741
G1 X102.971 Y85.608 E.01739
G1 X102.648 Y85.285 E.01736
G1 X102.325 Y85.608 E.01736
G1 X102.971 Y86.254 E.03472
G1 X103.295 Y85.931 E.01739
G1 X103.618 Y86.254 E.01736
G1 X103.457 Y86.415 E.00865
M204 P1000
G1 X104.103 Y86.415 F12000
M204 P600
G1 F1200
G1 X104.264 Y86.254 E.00865
G1 X104.425 Y86.415 E.00865
M204 P1000
G1 X104.75 Y86.415 F12000
M204 P600
G1 F1200
G1 X104.911 Y86.254 E.00865
G1 X104.587 Y85.931 E.01739
G1 X105.234 Y85.285 E.03475
G1 X105.557 Y85.608 E.01736
G1 X105.234 Y85.931 E.01736
G1 X105.717 Y86.414 E.02596
M204 P1000
G1 X106.043 Y86.414 F12000
M204 P600
G1 F1200
G1 X106.203 Y86.254 E.0086
G1 X105.88 Y85.931 E.01736
G1 X106.203 Y85.608 E.01736
G1 X106.527 Y85.931 E.01739
G1 X106.85 Y85.608 E.01736
G1 X106.203 Y84.961 E.03478
G1 X105.88 Y85.285 E.01739
G1 X105.557 Y84.961 E.01739
G1 X106.527 Y83.992 E.05211
G1 X106.85 Y84.315 E.01736
G1 X106.527 Y84.638 E.01736
G1 X107.173 Y85.285 E.03475
G1 X107.496 Y84.961 E.01739
G1 X107.173 Y84.638 E.01736
G1 X107.496 Y84.315 E.01736
G1 X107.819 Y84.638 E.01736
G1 X108.143 Y84.315 E.01739
G1 X107.496 Y83.669 E.03475
G1 X107.173 Y83.992 E.01736
G1 X106.85 Y83.669 E.01736
G1 X107.496 Y83.022 E.03475
G1 X107.819 Y83.345 E.01736
G1 X108.143 Y83.022 E.01739
G1 X107.819 Y82.699 E.01739
G1 X108.129 Y82.39 E.01664
M204 P1000
G1 X108.482 Y82.683 F12000
M204 P600
G1 F1200
G1 X108.466 Y82.699 E.00086
G1 X108.789 Y83.022 E.01736
G1 X108.927 Y82.884 E.00742
M204 P1000
G1 X109.377 Y82.964 F12000
M204 P600
G1 F1200
G1 X109.435 Y83.022 E.00312
G1 X108.789 Y83.669 E.03475
G1 X108.466 Y83.345 E.01739
G1 X108.143 Y83.669 E.01739
G1 X109.112 Y84.638 E.05208
G1 X109.435 Y84.315 E.01736
G1 X109.112 Y83.992 E.01736
G1 X109.759 Y83.345 E.03478
G1 X110.082 Y83.669 E.01739
G1 X109.759 Y83.992 E.01736
G1 X110.082 Y84.315 E.01736
G1 X110.405 Y83.992 E.01736
G1 X110.728 Y84.315 E.01736
G1 X110.082 Y84.961 E.03472
G1 X109.759 Y84.638 E.01736
G1 X109.435 Y84.961 E.01739
G1 X109.759 Y85.285 E.01741
G1 X109.112 Y85.931 E.03475
G1 X108.789 Y85.608 E.01736
G1 X109.112 Y85.285 E.01736
G1 X108.466 Y84.638 E.03475
G1 X108.143 Y84.961 E.01736
G1 X108.466 Y85.285 E.01739
G1 X108.143 Y85.608 E.01736
G1 X107.819 Y85.285 E.01739
G1 X107.496 Y85.608 E.01736
G1 X108.143 Y86.254 E.03475
G1 X108.466 Y85.931 E.01736
G1 X108.789 Y86.254 E.01736
G1 X108.63 Y86.414 E.00857
M204 P1000
G1 X109.276 Y86.414 F12000
M204 P600
G1 F1200
G1 X109.759 Y85.931 E.02596
G1 X110.082 Y86.254 E.01736
G1 X109.922 Y86.414 E.0086
M204 P1000
G1 E-2.24 F2100
;WIPE_START
G1 F9600
G1 X110.082 Y86.254 E-.04702
G1 X109.759 Y85.931 E-.09493
G1 X109.276 Y86.414 E-.14195
;WIPE_END
G1 E-.2761 F2100
G1 X107.656 Y86.414 F12000
G1 E2.8 F1500
M204 P600
G1 F1200
G1 X107.173 Y85.931 E.02596
G1 X106.85 Y86.254 E.01736
G1 X107.009 Y86.414 E.00857
M204 P1000
G1 E-2.24 F2100
;WIPE_START
G1 F9600
G1 X106.85 Y86.254 E-.04688
G1 X107.173 Y85.931 E-.09493
M73 P5 R13
G1 X107.656 Y86.414 E-.14195
;WIPE_END
G1 E-.27624 F2100
G1 X101.517 Y86.416 F12000
G1 E2.8 F1500
M204 P600
G1 F1200
G1 X101.678 Y86.254 E.00868
