; generated by PrusaSlicer 2.6.1+win64 on 2024-02-10 at 09:04:34 UTC


;
;

;
;

;
;
; 

; external perimeters extrusion width = 0.45mm
; perimeters extrusion width = 0.45mm
; infill extrusion width = 0.45mm
; solid infill extrusion width = 0.45mm
; top infill extrusion width = 0.40mm
; first layer extrusion width = 0.50mm

M73 P0 R38
M201 X2500 Y2500 Z200 E2500 ; sets maximum accelerations, mm/sec^2
M203 X200 Y200 Z40 E100 ; sets maximum feedrates, mm / sec
M204 P2000 R1200 T2000 ; sets acceleration (P, T) and retract acceleration (R), mm/sec^2
M205 X8.00 Y8.00 Z2.00 E10.00 ; sets the jerk limits, mm/sec
M205 S0 T0 ; sets the minimum extruding and travel feed rate, mm/sec
;TYPE:Custom
M17 ; enable steppers
M862.3 P "MK4" ; printer model check
M862.1 P0.4 ; nozzle diameter check
M555 X104.776 Y12.3671 W58.938 H52.65

G90 ; use absolute coordinates
M83 ; extruder relative mode

M140 S60 ; set bed temp

M104 S170 ; set extruder temp for bed leveling
M109 R170 ; wait for temp


M84 E ; turn off E motor

G28 ; home all without mesh bed level

G1 X42 Y-4 Z5 F4800

M302 S160 ; lower cold extrusion limit to 160C


G1 E-2 F2400 ; retraction


M84 E ; turn off E motor

G29 P9 X10 Y-4 W32 H4

M106 S100

G0 Z40 F10000

M190 S60 ; wait for bed temp

M107

;
; MBL
;
M84 E ; turn off E motor
G29 P1 ; invalidate mbl & probe print area
G29 P1 X0 Y0 W50 H20 C ; probe near purge place
G29 P3.2 ; interpolate mbl probes
G29 P3.13 ; extrapolate mbl outside probe area
G29 A ; activate mbl

; prepare for purge
M104 S220
G0 X0 Y-4 Z15 F4800 ; move away and ready for the purge
M109 S220

G92 E0
M569 S0 E ; set spreadcycle mode for extruder

;
; Extrude purge line
;
G92 E0 ; reset extruder position
G1 E2 F2400 ; deretraction after the initial one before nozzle cleaning
G0 E7 X15 Z0.2 F500 ; purge
G0 X25 E4 F500 ; purge
G0 X35 E4 F650 ; purge
G0 X45 E4 F800 ; purge
G0 X48 Z0.05 F8000 ; wipe, move close to the bed
G0 X51 Z0.2 F8000 ; wipe, move quickly away from the bed

G92 E0
M221 S100 ; set flow to 100%
G21 ; set units to millimeters
G90 ; use absolute coordinates
M83 ; use relative distances for extrusion
M900 K0.05 ; Filament gcode



M142 S36 ; set heatbreak target temp
M107
;LAYER_CHANGE
;Z:0.2
;HEIGHT:0.2
;BEFORE_LAYER_CHANGE
G92 E0.0
;0.2


G1 E-2.8 F2100
G1 Z.2 F720
;AFTER_LAYER_CHANGE
;0.2
; printing object v173newback.stl id:0 copy 0
G1 X144.845 Y60.796 F12000
G1 E2.8 F1500
M204 P600
;TYPE:External perimeter
;WIDTH:0.499999
G1 F1200
G1 X144.779 Y60.634 E.00665
G1 X144.617 Y60.567 E.00666
G1 X123.874 Y60.567 E.78836
G1 X123.712 Y60.634 E.00666
G1 X123.645 Y60.796 E.00666
G1 X123.645 Y64.567 E.14332
G1 X118.94 Y64.567 E.17882
G1 X115.007 Y60.634 E.21139
G1 X114.846 Y60.567 E.00663
G1 X111.257 Y60.567 E.1364
G1 X110.558 Y60.58 E.02657
G1 X109.854 Y60.629 E.02682
G1 X109.253 Y60.737 E.02321
G1 X108.756 Y60.767 E.01892
G1 X108.587 Y60.788 E.00647
;WIDTH:0.457244
G1 X108.417 Y60.81 E.00591
;WIDTH:0.414489
G1 X108.247 Y60.831 E.00529
;WIDTH:0.371734
G1 X107.743 Y60.836 E.01378
;WIDTH:0.407892
G1 X107.575 Y60.813 E.00515
;WIDTH:0.453946
G1 X107.407 Y60.79 E.0058
;WIDTH:0.499999
G1 X107.238 Y60.767 E.00648
G1 X106.822 Y60.767 E.01581
G1 X106.308 Y60.667 E.0199
G1 X105.784 Y60.596 E.0201
G1 X105.226 Y60.577 E.02122
G1 X105.226 Y59.759 E.03109
;WIDTH:0.534001
G1 X105.243 Y59.448 E.01272
;WIDTH:0.568002
G1 X105.26 Y59.137 E.0136
G1 X105.244 Y58.599 E.0235
;WIDTH:0.566286
G1 X105.259 Y58.064 E.02329
G1 X105.243 Y57.762 E.01316
;WIDTH:0.533143
G1 X105.226 Y57.46 E.01233
;WIDTH:0.499999
G1 X105.226 Y20.817 E1.39266
G1 X114.846 Y20.817 E.36562
G1 X115.007 Y20.75 E.00663
G1 X118.94 Y16.817 E.21139
G1 X123.645 Y16.817 E.17882
G1 X123.645 Y20.589 E.14336
G1 X123.712 Y20.75 E.00663
G1 X123.874 Y20.817 E.00666
G1 X130.096 Y20.814 E.23648
G1 X130.72 Y20.804 E.02372
;WIDTH:0.517605
G1 X131.32 Y20.78 E.0237
G1 X131.848 Y20.74 E.0209
;WIDTH:0.49535
G1 X132.349 Y20.747 E.01885
;WIDTH:0.514095
G1 X132.852 Y20.785 E.01976
G1 X133.447 Y20.799 E.02332
;WIDTH:0.499999
M73 P0 R37
G1 X133.998 Y20.816 E.02095
G1 X144.617 Y20.817 E.40359
G1 X144.779 Y20.75 E.00666
G1 X144.845 Y20.589 E.00661
G1 X144.845 Y16.817 E.14336
G1 X149.55 Y16.817 E.17882
G1 X153.484 Y20.75 E.21142
G1 X153.645 Y20.817 E.00663
G1 X158.784 Y20.811 E.19531
G1 X159.391 Y20.801 E.02307
;WIDTH:0.540145
G1 X160.042 Y20.757 E.02698
G1 X160.556 Y20.663 E.0216
;WIDTH:0.502166
G1 X161.08 Y20.621 E.02007
;WIDTH:0.499661
G1 X161.69 Y20.618 E.02317
;WIDTH:0.517326
G1 X162.186 Y20.685 E.01974
;WIDTH:0.551613
G1 X162.438 Y20.742 E.01093
;WIDTH:0.585899
G1 X162.69 Y20.799 E.01166
;WIDTH:0.632922
G1 X162.949 Y20.845 E.01291
;WIDTH:0.679944
G1 X163.209 Y20.891 E.01399
G1 X163.247 Y21.155 E.01413
G1 X163.275 Y21.242 E.00484
;WIDTH:0.644764
G1 X163.302 Y21.33 E.00461
;WIDTH:0.609584
G1 X163.329 Y21.417 E.00429
;WIDTH:0.574403
G1 X163.393 Y21.661 E.01115
;WIDTH:0.5445
G1 X163.457 Y21.906 E.01056
;WIDTH:0.514597
G1 X163.479 Y22.129 E.00879
;WIDTH:0.470518
G1 X163.501 Y22.351 E.00793
;WIDTH:0.426438
G1 X163.523 Y22.574 E.00715
;WIDTH:0.382358
G1 X163.536 Y23.077 E.0142
;WIDTH:0.406381
G1 X163.511 Y23.599 E.01579
;WIDTH:0.45319
G1 X163.479 Y23.951 E.01206
;WIDTH:0.499999
G1 X163.448 Y24.302 E.01339
G1 X163.344 Y24.799 E.0193
G1 X163.284 Y25.315 E.01974
G1 X163.267 Y25.82 E.0192
G1 X163.264 Y60.567 E1.3206
G1 X153.645 Y60.567 E.36558
G1 X153.484 Y60.634 E.00663
G1 X149.55 Y64.567 E.21142
G1 X144.845 Y64.567 E.17882
G1 X144.845 Y60.856 E.14104
M204 P1000
G1 E-2.24 F2100
;WIPE_START
G1 F9600
G1 X144.779 Y60.634 E-.04813
G1 X144.617 Y60.567 E-.03643
G1 X142.329 Y60.567 E-.47544
;WIPE_END
G1 X159.132 Y22.74 F12000
G1 E2.8 F1500
M204 P600
G1 F1200
G1 X159.154 Y22.539 E.00768
G1 X159.339 Y22.041 E.02019
G1 X159.63 Y21.64 E.01883
;WIDTH:0.524292
G1 X160.081 Y21.284 E.023
G1 X160.589 Y21.124 E.02132
;WIDTH:0.504922
G1 X161.084 Y21.061 E.01917
;WIDTH:0.499661
G1 X161.66 Y21.072 E.02188
;WIDTH:0.517326
G1 X162.061 Y21.139 E.01604
;WIDTH:0.564912
G1 X162.305 Y21.223 E.0112
;WIDTH:0.612497
G1 X162.549 Y21.307 E.01222
;WIDTH:0.646221
G1 X162.629 Y21.361 E.00484
;WIDTH:0.679944
G1 X162.708 Y21.415 E.00507
G1 X162.772 Y21.518 E.00642
;WIDTH:0.634914
G1 X162.837 Y21.621 E.006
;WIDTH:0.589884
G1 X162.901 Y21.724 E.00552
;WIDTH:0.544853
G1 X162.993 Y21.997 E.01202
;WIDTH:0.495198
G1 X163.086 Y22.271 E.01088
;WIDTH:0.445543
G1 X163.178 Y22.544 E.00964
;WIDTH:0.395888
G1 X163.224 Y23.058 E.01515
G1 X163.191 Y23.292 E.00694
;WIDTH:0.435339
G1 X163.159 Y23.525 E.00767
;WIDTH:0.474745
G1 X163.127 Y23.759 E.00848
;WIDTH:0.499999
G1 X162.892 Y24.35 E.02417
G1 X162.576 Y24.768 E.01992
G1 X162.116 Y25.071 E.02093
G1 X161.592 Y25.219 E.02069
G1 X161.059 Y25.226 E.02026
G1 X160.542 Y25.106 E.02017
G1 X160.069 Y24.865 E.02018
G1 X159.668 Y24.519 E.02013
G1 X159.361 Y24.086 E.02017
G1 X159.167 Y23.592 E.02017
G1 X159.096 Y23.067 E.02013
G1 X159.126 Y22.799 E.01025
M204 P1000
G1 E-2.24 F2100
;WIPE_START
G1 F9600
G1 X159.154 Y22.539 E-.05434
G1 X159.339 Y22.041 E-.1104
G1 X159.63 Y21.64 E-.10296
G1 X160.081 Y21.284 E-.1194
G1 X160.589 Y21.124 E-.11068
G1 X160.886 Y21.086 E-.06222
;WIPE_END
G1 X134.139 Y22.547 F12000
G1 E2.8 F1500
M204 P600
G1 F1200
G1 X134.229 Y22.793 E.00996
G1 X134.286 Y23.321 E.02018
G1 X134.216 Y23.846 E.02013
G1 X134.035 Y24.319 E.01925
G1 X133.751 Y24.731 E.01902
G1 X133.363 Y25.085 E.01996
G1 X132.892 Y25.34 E.02036
G1 X132.379 Y25.474 E.02015
G1 X131.849 Y25.48 E.02014
G1 X131.332 Y25.36 E.02017
G1 X130.859 Y25.119 E.02018
G1 X130.458 Y24.773 E.02013
G1 X130.151 Y24.34 E.02017
G1 X129.957 Y23.846 E.02017
G1 X129.886 Y23.321 E.02013
G1 X129.944 Y22.793 E.02019
G1 X130.126 Y22.295 E.02015
G1 X130.423 Y21.855 E.02018
G1 X130.796 Y21.529 E.01883
;WIDTH:0.515494
G1 X131.307 Y21.271 E.02249
G1 X131.826 Y21.194 E.02062
;WIDTH:0.496004
G1 X132.346 Y21.196 E.01959
;WIDTH:0.509457
G1 X132.865 Y21.273 E.02035
G1 X133.347 Y21.504 E.02073
;WIDTH:0.499999
G1 X133.749 Y21.855 E.02028
G1 X134.047 Y22.295 E.0202
G1 X134.119 Y22.491 E.00794
M204 P1000
G1 E-2.24 F2100
;WIPE_START
G1 F9600
G1 X134.229 Y22.793 E-.06679
G1 X134.286 Y23.321 E-.11036
G1 X134.216 Y23.846 E-.11007
G1 X134.035 Y24.319 E-.10525
G1 X133.751 Y24.731 E-.10399
M73 P1 R37
G1 X133.525 Y24.937 E-.06354
;WIPE_END
G1 X106.701 Y60.192 F12000
G1 E2.8 F1500
M204 P600
G1 F1200
G1 X106.441 Y60.059 E.0111
G1 X106.06 Y59.661 E.02094
;WIDTH:0.548296
G1 X105.811 Y59.17 E.02313
G1 X105.738 Y58.63 E.0229
;WIDTH:0.566286
G1 X105.781 Y58.095 E.02336
G1 X105.888 Y57.848 E.01171
;WIDTH:0.533143
G1 X105.996 Y57.601 E.01099
;WIDTH:0.499999
G1 X106.291 Y57.161 E.02013
G1 X106.684 Y56.804 E.02018
G1 X107.151 Y56.552 E.02017
G1 X107.664 Y56.418 E.02015
G1 X108.194 Y56.412 E.02014
G1 X108.711 Y56.532 E.02017
G1 X109.184 Y56.773 E.02018
G1 X109.585 Y57.12 E.02015
G1 X109.892 Y57.552 E.02014
G1 X110.086 Y58.046 E.02017
G1 X110.156 Y58.572 E.02017
G1 X110.096 Y59.1 E.0202
G1 X109.894 Y59.597 E.02039
G1 X109.538 Y60.009 E.02069
G1 X109.086 Y60.256 E.01958
G1 X108.639 Y60.478 E.01897
G1 X108.34 Y60.491 E.01137
;WIDTH:0.453946
G1 X108.042 Y60.504 E.01019
;WIDTH:0.407892
G1 X107.743 Y60.517 E.00908
G1 X107.57 Y60.498 E.00528
;WIDTH:0.453946
G1 X107.397 Y60.479 E.00595
;WIDTH:0.499999
G1 X107.224 Y60.459 E.00662
G1 X106.754 Y60.219 E.02006
M204 P1000
G1 X105.706 Y59.86 F12000
M204 P600
;TYPE:Solid infill
;WIDTH:0.5
G1 F1200
G1 X105.638 Y59.928 E.00365
M204 P1000
G1 E-2.24 F2100
;WIPE_START
G1 F9600
G1 X105.706 Y59.86 E-.01998
;WIPE_END
G1 E-.54002 F2100
G1 X105.715 Y57.272 F12000
G1 E2.8 F1500
M204 P600
G1 F1200
G1 X105.638 Y57.196 E.00411
M204 P1000
G1 X105.638 Y56.609 F12000
M204 P600
G1 F1200
G1 X105.668 Y56.579 E.00161
G1 X105.638 Y56.549 E.00161
M204 P1000
G1 X106.284 Y56.609 F12000
M204 P600
G1 F1200
G1 X106.316 Y56.581 E.00162
M204 P1000
G1 X106.703 Y56.322 F12000
M204 P600
G1 F1200
G1 X106.314 Y55.933 E.02091
G1 X105.991 Y56.256 E.01736
G1 X105.668 Y55.933 E.01736
G1 X106.314 Y55.286 E.03475
G1 X106.637 Y55.609 E.01736
G1 X106.96 Y55.286 E.01736
G1 X106.637 Y54.963 E.01736
G1 X107.284 Y54.317 E.03475
G1 X107.607 Y54.64 E.01736
G1 X107.284 Y54.963 E.01736
G1 X107.607 Y55.286 E.01736
G1 X107.93 Y54.963 E.01736
G1 X108.253 Y55.286 E.01736
G1 X107.607 Y55.933 E.03475
G1 X107.284 Y55.609 E.01739
G1 X106.96 Y55.933 E.01741
G1 X107.149 Y56.122 E.01016
M204 P1000
G1 E-2.24 F2100
;WIPE_START
G1 F9600
G1 X106.96 Y55.933 E-.05555
G1 X107.284 Y55.609 E-.09522
G1 X107.607 Y55.933 E-.09507
G1 X108.253 Y55.286 E-.19
G1 X107.93 Y54.963 E-.09493
G1 X107.831 Y55.062 E-.02923
;WIPE_END
G1 X105.638 Y55.316 F12000
G1 E2.8 F1500
M204 P600
G1 F1200
G1 X105.668 Y55.286 E.00161
G1 X105.638 Y55.256 E.00161
M204 P1000
G1 E-2.24 F2100
;WIPE_START
G1 F9600
G1 X105.668 Y55.286 E-.00882
G1 X105.638 Y55.316 E-.00882
;WIPE_END
G1 E-.54236 F2100
G1 X105.638 Y42.328 F12000
G1 E2.8 F1500
M204 P600
G1 F1200
G1 X106.314 Y43.004 E.03633
G1 X105.991 Y43.328 E.01739
G1 X105.668 Y43.004 E.01739
G1 X105.638 Y43.034 E.00161
M204 P1000
G1 X105.638 Y43.681 F12000
M204 P600
G1 F1200
G1 X105.668 Y43.651 E.00161
G1 X105.991 Y43.974 E.01736
G1 X105.668 Y44.297 E.01736
G1 X105.991 Y44.621 E.01739
G1 X106.637 Y43.974 E.03475
G1 X106.314 Y43.651 E.01736
G1 X106.637 Y43.328 E.01736
G1 X106.96 Y43.651 E.01736
G1 X107.607 Y43.004 E.03478
G1 X107.284 Y42.681 E.01736
G1 X106.96 Y43.004 E.01739
G1 X106.314 Y42.358 E.03472
G1 X106.637 Y42.035 E.01736
G1 X106.96 Y42.358 E.01736
G1 X107.284 Y42.035 E.01739
G1 X106.96 Y41.712 E.01739
G1 X107.284 Y41.388 E.01741
G1 X107.93 Y42.035 E.03475
G1 X107.607 Y42.358 E.01736
G1 X107.93 Y42.681 E.01736
G1 X108.9 Y41.712 E.05211
G1 X108.576 Y41.388 E.01741
G1 X108.253 Y41.712 E.01739
G1 X107.607 Y41.065 E.03475
G1 X107.93 Y40.742 E.01736
G1 X108.253 Y41.065 E.01736
G1 X108.576 Y40.742 E.01736
G1 X108.253 Y40.419 E.01736
G1 X108.576 Y40.096 E.01736
G1 X109.223 Y40.742 E.03475
G1 X108.9 Y41.065 E.01736
G1 X109.223 Y41.388 E.01736
G1 X109.869 Y40.742 E.03472
G1 X109.546 Y40.419 E.01736
G1 X109.869 Y40.096 E.01736
G1 X110.192 Y40.419 E.01736
G1 X110.839 Y39.772 E.03478
G1 X110.516 Y39.449 E.01736
G1 X110.192 Y39.772 E.01739
G1 X109.869 Y39.449 E.01736
G1 X110.192 Y39.126 E.01736
G1 X109.869 Y38.803 E.01736
G1 X109.223 Y39.449 E.03472
G1 X109.546 Y39.772 E.01736
G1 X109.223 Y40.096 E.01739
G1 X108.576 Y39.449 E.03478
G1 X108.253 Y39.126 E.01736
G1 X108.576 Y38.803 E.01736
G1 X108.9 Y39.126 E.01739
G1 X109.546 Y38.48 E.03472
G1 X109.223 Y38.156 E.01739
G1 X108.9 Y38.48 E.01739
G1 X108.576 Y38.156 E.01741
G1 X108.9 Y37.833 E.01739
G1 X108.576 Y37.51 E.01739
G1 X107.93 Y38.156 E.03472
G1 X108.253 Y38.48 E.01739
G1 X107.93 Y38.803 E.01736
G1 X107.607 Y38.48 E.01736
G1 X106.96 Y39.126 E.03475
G1 X107.284 Y39.449 E.01739
G1 X107.607 Y39.126 E.01736
G1 X108.253 Y39.772 E.03472
G1 X107.93 Y40.096 E.01739
G1 X107.607 Y39.772 E.01739
G1 X107.284 Y40.096 E.01739
G1 X107.607 Y40.419 E.01736
G1 X107.284 Y40.742 E.01736
G1 X106.637 Y40.096 E.03475
G1 X106.96 Y39.772 E.01739
G1 X106.637 Y39.449 E.01736
G1 X106.314 Y39.772 E.01736
G1 X105.668 Y39.126 E.03472
G1 X105.991 Y38.803 E.01736
G1 X106.314 Y39.126 E.01736
G1 X106.96 Y38.48 E.03472
G1 X106.637 Y38.156 E.01739
G1 X106.314 Y38.48 E.01739
G1 X105.991 Y38.156 E.01739
G1 X106.314 Y37.833 E.01736
G1 X105.991 Y37.51 E.01736
G1 X105.638 Y37.863 E.01897
M204 P1000
G1 X105.638 Y38.45 F12000
M204 P600
G1 F1200
G1 X105.668 Y38.48 E.00161
G1 X105.638 Y38.509 E.00159
M204 P1000
G1 X105.638 Y39.743 F12000
M204 P600
G1 F1200
G1 X105.991 Y40.096 E.01897
G1 X105.668 Y40.419 E.01736
G1 X105.991 Y40.742 E.01736
G1 X106.314 Y40.419 E.01736
G1 X106.96 Y41.065 E.03472
G1 X106.637 Y41.388 E.01736
G1 X106.314 Y41.065 E.01736
G1 X105.991 Y41.388 E.01736
G1 X106.314 Y41.712 E.01739
G1 X105.991 Y42.035 E.01736
G1 X105.638 Y41.682 E.01897
M204 P1000
G1 X105.638 Y41.095 F12000
M204 P600
G1 F1200
G1 X105.668 Y41.065 E.00161
G1 X105.638 Y41.035 E.00161
M204 P1000
G1 E-2.24 F2100
;WIPE_START
G1 F9600
G1 X105.668 Y41.065 E-.00882
G1 X105.638 Y41.095 E-.00882
;WIPE_END
G1 E-.54236 F2100
G1 X105.638 Y37.217 F12000
G1 E2.8 F1500
M204 P600
G1 F1200
G1 X106.314 Y36.54 E.03636
G1 X105.991 Y36.217 E.01736
G1 X105.668 Y36.54 E.01736
G1 X105.638 Y36.511 E.00159
M204 P1000
G1 X105.638 Y35.864 F12000
M204 P600
G1 F1200
G1 X105.668 Y35.894 E.00161
G1 X105.991 Y35.571 E.01736
G1 X105.668 Y35.248 E.01736
G1 X105.991 Y34.924 E.01739
G1 X106.637 Y35.571 E.03475
G1 X106.314 Y35.894 E.01736
G1 X106.637 Y36.217 E.01736
G1 X106.96 Y35.894 E.01736
G1 X107.607 Y36.54 E.03475
G1 X107.284 Y36.864 E.01739
G1 X106.96 Y36.54 E.01741
G1 X106.314 Y37.187 E.03475
G1 X106.637 Y37.51 E.01736
G1 X106.96 Y37.187 E.01736
G1 X107.284 Y37.51 E.01739
G1 X106.96 Y37.833 E.01739
G1 X107.284 Y38.156 E.01739
G1 X107.93 Y37.51 E.03472
G1 X107.607 Y37.187 E.01736
G1 X107.93 Y36.864 E.01736
G1 X108.253 Y37.187 E.01736
G1 X108.576 Y36.864 E.01736
G1 X108.253 Y36.54 E.01739
G1 X108.576 Y36.217 E.01736
G1 X108.9 Y36.54 E.01739
G1 X109.546 Y35.894 E.03472
G1 X109.223 Y35.571 E.01736
G1 X108.9 Y35.894 E.01736
G1 X108.576 Y35.571 E.01739
G1 X108.9 Y35.248 E.01739
G1 X108.576 Y34.924 E.01741
G1 X107.93 Y35.571 E.03475
G1 X108.253 Y35.894 E.01736
G1 X107.93 Y36.217 E.01736
G1 X107.284 Y35.571 E.03472
G1 X107.607 Y35.248 E.01736
G1 X107.284 Y34.924 E.01739
G1 X106.96 Y35.248 E.01741
G1 X106.314 Y34.601 E.03475
G1 X106.637 Y34.278 E.01736
G1 X106.96 Y34.601 E.01736
G1 X107.284 Y34.278 E.01739
G1 X106.96 Y33.955 E.01739
G1 X107.284 Y33.632 E.01739
G1 X107.93 Y34.278 E.03472
G1 X107.607 Y34.601 E.01736
G1 X107.93 Y34.924 E.01736
G1 X108.9 Y33.955 E.05211
G1 X108.576 Y33.632 E.01739
G1 X108.253 Y33.955 E.01736
G1 X107.607 Y33.308 E.03475
G1 X107.93 Y32.985 E.01736
G1 X108.253 Y33.308 E.01736
G1 X108.576 Y32.985 E.01736
G1 X108.253 Y32.662 E.01736
G1 X108.576 Y32.339 E.01736
G1 X109.223 Y32.985 E.03475
G1 X108.9 Y33.308 E.01736
G1 X109.223 Y33.632 E.01739
G1 X109.546 Y33.308 E.01739
G1 X110.192 Y33.955 E.03475
G1 X109.869 Y34.278 E.01736
G1 X109.546 Y33.955 E.01736
G1 X108.9 Y34.601 E.03472
G1 X109.223 Y34.924 E.01736
G1 X109.546 Y34.601 E.01736
