; generated by PrusaSlicer 2.6.1+win64 on 2024-01-20 at 14:28:16 UTC


;
;

;
;

;
;
; 

; external perimeters extrusion width = 0.45mm
; perimeters extrusion width = 0.45mm
; infill extrusion width = 0.45mm
; solid infill extrusion width = 0.45mm
; top infill extrusion width = 0.40mm
; first layer extrusion width = 0.50mm

M73 P0 R46
M201 X2500 Y2500 Z200 E2500 ; sets maximum accelerations, mm/sec^2
M203 X200 Y200 Z40 E100 ; sets maximum feedrates, mm / sec
M204 P2000 R1200 T2000 ; sets acceleration (P, T) and retract acceleration (R), mm/sec^2
M205 X8.00 Y8.00 Z2.00 E10.00 ; sets the jerk limits, mm/sec
M205 S0 T0 ; sets the minimum extruding and travel feed rate, mm/sec
;TYPE:Custom
M17 ; enable steppers
M862.3 P "MK4" ; printer model check
M862.1 P0.4 ; nozzle diameter check
M555 X93.095 Y74.775 W63.81 H56.45

G90 ; use absolute coordinates
M83 ; extruder relative mode

M140 S60 ; set bed temp

M104 S170 ; set extruder temp for bed leveling
M109 R170 ; wait for temp


M84 E ; turn off E motor

G28 ; home all without mesh bed level

G1 X42 Y-4 Z5 F4800

M302 S160 ; lower cold extrusion limit to 160C


G1 E-2 F2400 ; retraction


M84 E ; turn off E motor

G29 P9 X10 Y-4 W32 H4

M106 S100

G0 Z40 F10000

M190 S60 ; wait for bed temp

M107

;
; MBL
;
M84 E ; turn off E motor
G29 P1 ; invalidate mbl & probe print area
G29 P1 X0 Y0 W50 H20 C ; probe near purge place
G29 P3.2 ; interpolate mbl probes
G29 P3.13 ; extrapolate mbl outside probe area
G29 A ; activate mbl

; prepare for purge
M104 S220
G0 X0 Y-4 Z15 F4800 ; move away and ready for the purge
M109 S220

G92 E0
M569 S0 E ; set spreadcycle mode for extruder

;
; Extrude purge line
;
G92 E0 ; reset extruder position
G1 E2 F2400 ; deretraction after the initial one before nozzle cleaning
G0 E7 X15 Z0.2 F500 ; purge
G0 X25 E4 F500 ; purge
G0 X35 E4 F650 ; purge
G0 X45 E4 F800 ; purge
G0 X48 Z0.05 F8000 ; wipe, move close to the bed
G0 X51 Z0.2 F8000 ; wipe, move quickly away from the bed

G92 E0
M221 S100 ; set flow to 100%
G21 ; set units to millimeters
G90 ; use absolute coordinates
M83 ; use relative distances for extrusion
M900 K0.05 ; Filament gcode



M142 S36 ; set heatbreak target temp
M107
;LAYER_CHANGE
;Z:0.2
;HEIGHT:0.2
;BEFORE_LAYER_CHANGE
G92 E0.0
;0.2


G1 E-2.8 F2100
G1 Z.2 F720
;AFTER_LAYER_CHANGE
;0.2
; printing object v55back-case.stl id:0 copy 0
G1 X114.97 Y83.661 F12000
G1 E2.8 F1500
M204 P600
;TYPE:Perimeter
;WIDTH:0.499999
G1 F1200
G1 X115.065 Y83.682 E.0037
G1 X135.879 Y83.682 E.79106
G1 X136.224 Y83.647 E.01318
G1 X136.492 Y83.481 E.01198
G1 X136.647 Y83.243 E.01079
G1 X136.693 Y83 E.0094
G1 X136.693 Y79.682 E.1261
G1 X141.41 Y79.682 E.17928
G1 X145.209 Y83.481 E.20419
G1 X145.392 Y83.612 E.00855
G1 X145.694 Y83.682 E.01178
G1 X155.998 Y83.682 E.39162
G1 X155.998 Y84.661 E.03721
G1 X155.998 Y85.697 E.03937
;WIDTH:0.529278
G1 X155.983 Y86.086 E.01574
;WIDTH:0.558556
G1 X155.969 Y86.475 E.01669
;WIDTH:0.599118
G1 X155.948 Y86.564 E.00423
;WIDTH:0.63968
G1 X155.928 Y86.653 E.00453
;WIDTH:0.680242
G1 X155.908 Y86.743 E.00489
G1 X155.922 Y87.475 E.0388
;WIDTH:0.684511
G1 X155.906 Y88.009 E.0285
G1 X155.929 Y88.171 E.00873
;WIDTH:0.638383
G1 X155.952 Y88.332 E.00805
;WIDTH:0.592255
G1 X155.975 Y88.494 E.00747
;WIDTH:0.546127
G1 X155.998 Y88.656 E.00685
;WIDTH:0.499999
G1 X155.998 Y126.318 E1.43139
G1 X145.694 Y126.318 E.39162
G1 X145.475 Y126.354 E.00844
G1 X145.209 Y126.519 E.0119
G1 X141.41 Y130.318 E.20419
G1 X136.693 Y130.318 E.17928
G1 X136.693 Y127.004 E.12595
G1 X136.68 Y126.87 E.00512
G1 X136.548 Y126.582 E.01204
G1 X136.307 Y126.387 E.01178
G1 X136.008 Y126.318 E.01166
G1 X115.829 Y126.318 E.76693
G1 X114.874 Y126.345 E.03631
G1 X114.61 Y126.49 E.01145
G1 X114.425 Y126.757 E.01235
G1 X114.379 Y127 E.0094
G1 X114.379 Y130.318 E.1261
G1 X109.662 Y130.318 E.17928
G1 X105.863 Y126.519 E.20419
G1 X105.672 Y126.384 E.00889
G1 X105.378 Y126.318 E.01145
G1 X100.272 Y126.318 E.19406
;WIDTH:0.538686
G1 X100.075 Y126.299 E.00816
;WIDTH:0.577373
G1 X99.878 Y126.279 E.0088
;WIDTH:0.61606
G1 X99.682 Y126.26 E.00938
;WIDTH:0.654747
G1 X99.485 Y126.241 E.01007
;WIDTH:0.670474
G1 X98.75 Y126.233 E.03836
G1 X98.632 Y126.254 E.00625
;WIDTH:0.627856
G1 X98.513 Y126.275 E.00588
;WIDTH:0.585237
G1 X98.395 Y126.297 E.00541
;WIDTH:0.542618
G1 X98.276 Y126.318 E.00502
;WIDTH:0.499999
G1 X95.074 Y126.318 E.1217
G1 X95.074 Y123.635 E.10197
G1 X95.034 Y123.36 E.01056
G1 X94.873 Y123.106 E.01143
G1 X94.002 Y122.235 E.04682
G1 X94.002 Y87.511 E1.31973
G1 X94.873 Y86.64 E.04682
G1 X95.013 Y86.437 E.00937
G1 X95.074 Y86.155 E.01097
G1 X95.074 Y83.682 E.09399
G1 X105.378 Y83.682 E.39162
G1 X105.607 Y83.643 E.00883
G1 X105.863 Y83.481 E.01151
G1 X109.662 Y79.682 E.20419
G1 X114.379 Y79.682 E.17928
G1 X114.379 Y82.996 E.12595
G1 X114.392 Y83.13 E.00512
G1 X114.524 Y83.418 E.01204
G1 X114.769 Y83.615 E.01195
G1 X114.912 Y83.648 E.00558
M204 P1000
G1 X115.065 Y83.225 F12000
M204 P600
;TYPE:External perimeter
G1 F1200
G1 X136.007 Y83.225 E.79593
G1 X136.169 Y83.158 E.00666
G1 X136.236 Y82.998 E.00659
G1 X136.236 Y79.225 E.1434
G1 X141.6 Y79.225 E.20387
G1 X145.533 Y83.158 E.21139
G1 X145.694 Y83.225 E.00663
G1 X156.455 Y83.225 E.40899
G1 X156.455 Y126.775 E1.65517
G1 X145.694 Y126.775 E.40899
G1 X145.533 Y126.842 E.00663
G1 X141.6 Y130.775 E.21139
G1 X136.236 Y130.775 E.20387
G1 X136.236 Y127.004 E.14332
G1 X136.169 Y126.842 E.00666
G1 X136.008 Y126.775 E.00663
G1 X115.065 Y126.775 E.79597
G1 X114.903 Y126.842 E.00666
G1 X114.836 Y127.002 E.00659
G1 X114.836 Y130.775 E.1434
G1 X109.472 Y130.775 E.20387
G1 X105.539 Y126.842 E.21139
G1 X105.378 Y126.775 E.00663
G1 X94.617 Y126.775 E.40899
G1 X94.617 Y123.591 E.12101
G1 X94.55 Y123.43 E.00663
G1 X93.545 Y122.425 E.05402
G1 X93.545 Y87.321 E1.33417
G1 X94.55 Y86.316 E.05402
M73 P1 R46
G1 X94.617 Y86.155 E.00663
G1 X94.617 Y83.225 E.11136
G1 X105.378 Y83.225 E.40899
G1 X105.539 Y83.158 E.00663
G1 X109.472 Y79.225 E.21139
G1 X114.836 Y79.225 E.20387
G1 X114.836 Y82.996 E.14332
G1 X114.903 Y83.158 E.00666
G1 X115.009 Y83.202 E.00436
M204 P1000
G1 X115.168 Y83.611 F12000
G1 E-2.24 F2100
;WIPE_START
G1 F9600
G1 X117.704 Y83.205 E-.56
;WIPE_END
G1 X150.605 Y85.596 F12000
G1 E2.8 F1500
M204 P600
;TYPE:Perimeter
G1 F1200
G1 X151.013 Y85.209 E.02137
G1 X151.538 Y84.911 E.02294
G1 X152.174 Y84.725 E.02518
G1 X152.825 Y84.703 E.02476
G1 X153.449 Y84.836 E.02425
G1 X154.025 Y85.115 E.02432
G1 X154.518 Y85.525 E.02437
G1 X154.898 Y86.04 E.02432
;WIDTH:0.529278
G1 X155.034 Y86.33 E.01295
;WIDTH:0.558556
G1 X155.171 Y86.621 E.01379
;WIDTH:0.599118
G1 X155.205 Y86.674 E.00291
;WIDTH:0.63968
G1 X155.239 Y86.728 E.00317
;WIDTH:0.680242
G1 X155.273 Y86.781 E.00334
G1 X155.319 Y87.347 E.03009
G1 X155.273 Y87.913 E.03009
G1 X155.202 Y88.052 E.00827
;WIDTH:0.635182
G1 X155.131 Y88.192 E.00773
;WIDTH:0.590121
G1 X155.06 Y88.331 E.0071
;WIDTH:0.54506
G1 X154.989 Y88.471 E.00655
;WIDTH:0.499999
G1 X154.635 Y89.035 E.02531
G1 X154.161 Y89.485 E.02484
G1 X153.636 Y89.783 E.02294
G1 X153 Y89.969 E.02518
G1 X152.349 Y89.991 E.02476
G1 X151.725 Y89.858 E.02425
G1 X151.149 Y89.579 E.02432
G1 X150.656 Y89.169 E.02437
G1 X150.276 Y88.654 E.02432
G1 X150.01 Y87.999 E.02687
G1 X149.934 Y87.438 E.02152
G1 X149.991 Y86.792 E.02465
G1 X150.185 Y86.223 E.02285
G1 X150.562 Y85.638 E.02645
M204 P1000
G1 X150.775 Y86.13 F12000
M204 P600
;TYPE:External perimeter
G1 F1200
G1 X150.92 Y85.912 E.00995
G1 X151.316 Y85.551 E.02037
G1 X151.798 Y85.297 E.02071
G1 X152.291 Y85.167 E.01938
G1 X152.825 Y85.16 E.0203
G1 X153.34 Y85.28 E.0201
G1 X153.813 Y85.52 E.02016
G1 X154.215 Y85.867 E.02018
G1 X154.522 Y86.3 E.02017
G1 X154.716 Y86.794 E.02017
G1 X154.787 Y87.319 E.02013
G1 X154.73 Y87.847 E.02018
G1 X154.538 Y88.354 E.0206
G1 X154.254 Y88.782 E.01952
G1 X153.858 Y89.143 E.02037
G1 X153.376 Y89.397 E.02071
G1 X152.883 Y89.527 E.01938
G1 X152.349 Y89.534 E.0203
G1 X151.834 Y89.414 E.0201
G1 X151.361 Y89.174 E.02016
G1 X150.959 Y88.827 E.02018
G1 X150.652 Y88.394 E.02017
G1 X150.451 Y87.879 E.02101
G1 X150.387 Y87.375 E.01931
G1 X150.444 Y86.847 E.02018
G1 X150.636 Y86.34 E.0206
G1 X150.742 Y86.18 E.00729
M204 P1000
G1 X150.646 Y85.902 F12000
G1 E-2.24 F2100
;WIPE_START
G1 F9600
G1 X150.92 Y85.912 E-.06686
G1 X151.316 Y85.551 E-.11136
G1 X151.798 Y85.297 E-.11322
G1 X152.291 Y85.167 E-.10595
G1 X152.825 Y85.16 E-.11098
G1 X153.067 Y85.216 E-.05163
;WIPE_END
G1 X120.808 Y86.966 F12000
G1 E2.8 F1500
M204 P600
;TYPE:Perimeter
G1 F1200
G1 X120.975 Y86.477 E.01964
G1 X121.329 Y85.913 E.02531
G1 X121.803 Y85.463 E.02484
G1 X122.328 Y85.165 E.02294
G1 X122.964 Y84.979 E.02518
G1 X123.615 Y84.957 E.02476
G1 X124.239 Y85.09 E.02425
G1 X124.815 Y85.369 E.02432
G1 X125.308 Y85.779 E.02437
G1 X125.688 Y86.294 E.02432
G1 X125.934 Y86.885 E.02433
G1 X126.031 Y87.518 E.02434
G1 X125.973 Y88.156 E.02435
G1 X125.779 Y88.725 E.02285
G1 X125.394 Y89.332 E.02732
G1 X124.951 Y89.739 E.02286
G1 X124.426 Y90.037 E.02294
G1 X123.79 Y90.223 E.02518
G1 X123.139 Y90.245 E.02476
G1 X122.515 Y90.112 E.02425
G1 X121.939 Y89.833 E.02432
G1 X121.446 Y89.423 E.02437
G1 X121.066 Y88.908 E.02432
G1 X120.82 Y88.317 E.02433
G1 X120.723 Y87.684 E.02434
G1 X120.788 Y87.023 E.02524
M204 P1000
G1 X121.244 Y87.075 F12000
M204 P600
;TYPE:External perimeter
G1 F1200
G1 X121.426 Y86.594 E.01955
G1 X121.71 Y86.166 E.01952
G1 X122.106 Y85.805 E.02037
G1 X122.588 Y85.551 E.02071
G1 X123.081 Y85.421 E.01938
G1 X123.615 Y85.414 E.0203
G1 X124.13 Y85.534 E.0201
G1 X124.603 Y85.774 E.02016
G1 X125.005 Y86.121 E.02018
G1 X125.312 Y86.554 E.02017
G1 X125.506 Y87.048 E.02017
G1 X125.577 Y87.573 E.02013
G1 X125.52 Y88.101 E.02018
G1 X125.344 Y88.58 E.0194
G1 X125.044 Y89.036 E.02075
G1 X124.648 Y89.397 E.02037
G1 X124.205 Y89.636 E.01913
G1 X123.673 Y89.781 E.02096
G1 X123.139 Y89.788 E.0203
G1 X122.624 Y89.668 E.0201
G1 X122.151 Y89.428 E.02016
G1 X121.749 Y89.081 E.02018
G1 X121.442 Y88.648 E.02017
G1 X121.248 Y88.154 E.02017
G1 X121.177 Y87.629 E.02013
G1 X121.231 Y87.133 E.01896
M204 P1000
G1 X120.955 Y86.799 F12000
G1 E-2.24 F2100
;WIPE_START
G1 F9600
G1 X121.426 Y86.594 E-.11912
G1 X121.71 Y86.166 E-.10674
G1 X122.106 Y85.805 E-.11136
G1 X122.588 Y85.551 E-.11322
G1 X123.081 Y85.421 E-.10595
G1 X123.098 Y85.421 E-.00361
;WIPE_END
G1 X97.31 Y124.703 F12000
G1 E2.8 F1500
M204 P600
;TYPE:Perimeter
G1 F1200
G1 X97.206 Y124.605 E.00543
G1 X96.859 Y124.068 E.0243
G1 X96.656 Y123.498 E.023
G1 X96.593 Y122.99 E.01946
G1 X96.651 Y122.352 E.02435
G1 X96.845 Y121.783 E.02285
G1 X97.199 Y121.219 E.02531
G1 X97.673 Y120.769 E.02484
G1 X98.198 Y120.471 E.02294
G1 X98.834 Y120.285 E.02518
G1 X99.485 Y120.263 E.02476
G1 X100.109 Y120.396 E.02425
G1 X100.685 Y120.675 E.02432
G1 X101.178 Y121.085 E.02437
G1 X101.558 Y121.6 E.02432
G1 X101.804 Y122.191 E.02433
G1 X101.904 Y122.858 E.02563
G1 X101.843 Y123.462 E.02307
G1 X101.649 Y124.031 E.02285
G1 X101.295 Y124.595 E.02531
G1 X100.821 Y125.045 E.02484
G1 X100.296 Y125.343 E.02294
;WIDTH:0.541822
G1 X100.09 Y125.425 E.0092
;WIDTH:0.583644
G1 X99.883 Y125.507 E.01001
;WIDTH:0.625466
G1 X99.676 Y125.589 E.01078
;WIDTH:0.654747
G1 X99.485 Y125.629 E.00993
;WIDTH:0.670474
G1 X98.825 Y125.614 E.03445
G1 X98.677 Y125.551 E.00839
;WIDTH:0.627856
G1 X98.528 Y125.487 E.00789
;WIDTH:0.585237
G1 X98.38 Y125.423 E.00727
;WIDTH:0.542618
G1 X98.231 Y125.36 E.00672
;WIDTH:0.499999
G1 X97.673 Y125.045 E.02435
G1 X97.354 Y124.744 E.01667
M204 P1000
G1 X97.588 Y124.343 F12000
M204 P600
;TYPE:External perimeter
G1 F1200
G1 X97.312 Y123.954 E.01813
G1 X97.118 Y123.46 E.02017
G1 X97.047 Y122.935 E.02013
G1 X97.104 Y122.407 E.02018
G1 X97.296 Y121.9 E.0206
G1 X97.58 Y121.472 E.01952
G1 X97.976 Y121.111 E.02037
G1 X98.458 Y120.857 E.02071
G1 X98.951 Y120.727 E.01938
G1 X99.485 Y120.72 E.0203
G1 X100 Y120.84 E.0201
G1 X100.473 Y121.08 E.02016
G1 X100.875 Y121.427 E.02018
G1 X101.182 Y121.86 E.02017
G1 X101.376 Y122.354 E.02017
G1 X101.448 Y122.891 E.02059
G1 X101.39 Y123.407 E.01973
G1 X101.198 Y123.914 E.0206
G1 X100.914 Y124.342 E.01952
G1 X100.518 Y124.703 E.02037
G1 X100.036 Y124.957 E.02071
G1 X99.543 Y125.087 E.01938
G1 X99.009 Y125.094 E.0203
G1 X98.494 Y124.974 E.0201
G1 X98.021 Y124.734 E.02016
G1 X97.624 Y124.391 E.01994
M204 P1000
G1 X97.197 Y124.426 F12000
G1 E-2.24 F2100
;WIPE_START
G1 F9600
G1 X97.312 Y123.954 E-.11158
G1 X97.118 Y123.46 E-.11029
G1 X97.047 Y122.935 E-.11009
G1 X97.104 Y122.407 E-.11036
G1 X97.296 Y121.9 E-.11266
G1 X97.309 Y121.88 E-.00502
;WIPE_END
G1 X155.359 Y88.259 F12000
G1 E2.8 F1500
M204 P600
;TYPE:Solid infill
;WIDTH:0.500219
G1 F1200
G1 X155.54 Y88.44 E.00973
G1 X155.587 Y88.674 E.00908
G1 X155.587 Y89.134 E.01749
G1 X155.271 Y88.818 E.01699
G1 X155.014 Y89.208 E.01776
G1 X155.587 Y89.78 E.03079
G1 X155.587 Y90.427 E.0246
G1 X154.709 Y89.549 E.04721
G1 X154.359 Y89.846 E.01745
G1 X155.587 Y91.074 E.06604
G1 X155.587 Y91.72 E.02456
G1 X153.949 Y90.083 E.08806
G1 X153.818 Y90.152 E.00563
G1 X153.608 Y90.234 E.00857
G1 X153.485 Y90.266 E.00483
G1 X155.587 Y92.367 E.11301
G1 X155.587 Y93.014 E.0246
G1 X152.959 Y90.387 E.14129
G1 X152.837 Y90.403 E.00468
G1 X152.327 Y90.401 E.01939
G1 X155.792 Y93.866 E.18633
M204 P1000
G1 E-2.24 F2100
;WIPE_START
G1 F9600
G1 X153.887 Y91.961 E-.56
;WIPE_END
G1 X155.792 Y84.812 F12000
G1 E2.8 F1500
M204 P600
G1 F1200
G1 X155.073 Y84.093 E.03866
G1 X154.427 Y84.093 E.02456
G1 X155.587 Y85.253 E.06238
G1 X155.587 Y85.9 E.0246
G1 X153.78 Y84.093 E.09717
G1 X153.133 Y84.093 E.0246
G1 X153.453 Y84.413 E.01721
G1 X153.076 Y84.32 E.01476
G1 X152.836 Y84.291 E.00919
G1 X152.684 Y84.291 E.00578
G1 X152.487 Y84.093 E.01062
G1 X151.84 Y84.093 E.0246
G1 X152.073 Y84.327 E.01256
G1 X151.562 Y84.462 E.0201
G1 X151.193 Y84.093 E.01984
G1 X150.546 Y84.093 E.0246
G1 X151.119 Y84.666 E.03081
G1 X150.948 Y84.756 E.00735
G1 X150.723 Y84.917 E.01052
G1 X149.9 Y84.093 E.04428
G1 X149.253 Y84.093 E.0246
G1 X150.38 Y85.22 E.0606
G1 X150.203 Y85.421 E.01018
G1 X150.096 Y85.583 E.00738
G1 X148.606 Y84.093 E.08012
G1 X147.96 Y84.093 E.02456
G1 X149.848 Y85.982 E.10155
G1 X149.804 Y86.068 E.00367
G1 X149.662 Y86.443 E.01525
G1 X147.313 Y84.093 E.12634
G1 X146.666 Y84.093 E.0246
G1 X149.553 Y86.981 E.15527
G1 X149.524 Y87.226 E.00938
G1 X149.524 Y87.468 E.0092
G1 X149.541 Y87.615 E.00563
G1 X146.019 Y84.093 E.1894
G1 X145.687 Y84.093 E.01262
G1 X145.512 Y84.079 E.00668
G1 X145.378 Y84.048 E.00523
G1 X145.288 Y84.008 E.00374
G1 X149.749 Y88.469 E.23989
G1 X149.868 Y88.774 E.01245
G1 X150.255 Y89.343 E.02617
G1 X150.378 Y89.472 E.00678
G1 X150.749 Y89.8 E.01883
G1 X150.949 Y89.939 E.00926
G1 X151.496 Y90.217 E.02333
G1 X155.587 Y94.307 E.21997
G1 X155.587 Y94.954 E.0246
G1 X140.726 Y80.093 E.79915
G1 X140.079 Y80.093 E.0246
G1 X155.587 Y95.601 E.83394
G1 X155.587 Y96.247 E.02456
G1 X139.433 Y80.093 E.86868
G1 X138.786 Y80.093 E.0246
G1 X155.587 Y96.894 E.90347
G1 X155.587 Y97.541 E.0246
G1 X138.139 Y80.093 E.93826
G1 X137.492 Y80.093 E.0246
G1 X155.587 Y98.188 E.97306
G1 X155.587 Y98.834 E.02456
G1 X137.104 Y80.352 E.99389
G1 X137.104 Y80.999 E.0246
G1 X155.587 Y99.481 E.99389
G1 X155.587 Y100.128 E.0246
M73 P1 R45
G1 X137.104 Y81.646 E.99389
G1 X137.104 Y82.292 E.02456
G1 X155.587 Y100.774 E.99389
G1 X155.587 Y101.421 E.0246
G1 X137.104 Y82.939 E.99389
G1 X137.084 Y83.209 E.01029
G1 X137.032 Y83.39 E.00716
G1 X136.992 Y83.474 E.00354
G1 X155.587 Y102.068 E.99992
G1 X155.587 Y102.715 E.0246
G1 X136.709 Y83.837 E1.01516
G1 X136.491 Y83.982 E.00996
M73 P2 R45
G1 X136.282 Y84.057 E.00844
G1 X155.587 Y103.361 E1.0381
G1 X155.587 Y104.008 E.0246
G1 X135.666 Y84.087 E1.07125
G1 X135.019 Y84.087 E.0246
G1 X155.587 Y104.655 E1.10604
G1 X155.587 Y105.302 E.0246
G1 X134.372 Y84.087 E1.14083
G1 X133.726 Y84.087 E.02456
G1 X155.587 Y105.948 E1.17557
G1 X155.587 Y106.595 E.0246
G1 X133.079 Y84.088 E1.21034
G1 X132.433 Y84.088 E.02456
G1 X155.587 Y107.242 E1.2451
G1 X155.587 Y107.888 E.02456
G1 X131.786 Y84.088 E1.27987
G1 X131.139 Y84.088 E.0246
G1 X155.587 Y108.535 E1.31466
G1 X155.587 Y109.182 E.0246
G1 X130.493 Y84.088 E1.34943
G1 X129.846 Y84.088 E.0246
