; generated by PrusaSlicer 2.6.1+win64 on 2024-01-20 at 19:02:08 UTC


;
;

;
;

;
;
; 

; external perimeters extrusion width = 0.45mm
; perimeters extrusion width = 0.45mm
; infill extrusion width = 0.45mm
; solid infill extrusion width = 0.45mm
; top infill extrusion width = 0.40mm
; first layer extrusion width = 0.50mm

M73 P0 R20
M201 X2500 Y2500 Z200 E2500 ; sets maximum accelerations, mm/sec^2
M203 X200 Y200 Z40 E100 ; sets maximum feedrates, mm / sec
M204 P2000 R1200 T2000 ; sets acceleration (P, T) and retract acceleration (R), mm/sec^2
M205 X8.00 Y8.00 Z2.00 E10.00 ; sets the jerk limits, mm/sec
M205 S0 T0 ; sets the minimum extruding and travel feed rate, mm/sec
;TYPE:Custom
M17 ; enable steppers
M862.3 P "MK4" ; printer model check
M862.1 P0.4 ; nozzle diameter check
M555 X92.531 Y75.175 W64.938 H55.65

G90 ; use absolute coordinates
M83 ; extruder relative mode

M140 S60 ; set bed temp

M104 S170 ; set extruder temp for bed leveling
M109 R170 ; wait for temp


M84 E ; turn off E motor

G28 ; home all without mesh bed level

G1 X42 Y-4 Z5 F4800

M302 S160 ; lower cold extrusion limit to 160C


G1 E-2 F2400 ; retraction


M84 E ; turn off E motor

G29 P9 X10 Y-4 W32 H4

M106 S100

G0 Z40 F10000

M190 S60 ; wait for bed temp

M107

;
; MBL
;
M84 E ; turn off E motor
G29 P1 ; invalidate mbl & probe print area
G29 P1 X0 Y0 W50 H20 C ; probe near purge place
G29 P3.2 ; interpolate mbl probes
G29 P3.13 ; extrapolate mbl outside probe area
G29 A ; activate mbl

; prepare for purge
M104 S220
G0 X0 Y-4 Z15 F4800 ; move away and ready for the purge
M109 S220

G92 E0
M569 S0 E ; set spreadcycle mode for extruder

;
; Extrude purge line
;
G92 E0 ; reset extruder position
G1 E2 F2400 ; deretraction after the initial one before nozzle cleaning
G0 E7 X15 Z0.2 F500 ; purge
G0 X25 E4 F500 ; purge
G0 X35 E4 F650 ; purge
G0 X45 E4 F800 ; purge
G0 X48 Z0.05 F8000 ; wipe, move close to the bed
G0 X51 Z0.2 F8000 ; wipe, move quickly away from the bed

G92 E0
M221 S100 ; set flow to 100%
G21 ; set units to millimeters
G90 ; use absolute coordinates
M83 ; use relative distances for extrusion
M900 K0.05 ; Filament gcode



M142 S36 ; set heatbreak target temp
M107
;LAYER_CHANGE
;Z:0.2
;HEIGHT:0.2
;BEFORE_LAYER_CHANGE
G92 E0.0
;0.2


G1 E-2.8 F2100
G1 Z.2 F720
;AFTER_LAYER_CHANGE
;0.2
; printing object v93front-case.stl id:0 copy 0
G1 X139.905 Y127.081 F12000
G1 E2.8 F1500
M204 P600
;TYPE:Perimeter
;WIDTH:0.431387
G1 F1200
G1 X139.727 Y127.13 E.00596
;WIDTH:0.465693
G1 X139.55 Y127.18 E.00647
;WIDTH:0.499999
G1 X139.372 Y127.229 E.00702
G1 X139.217 Y127.319 E.00681
G1 X138.764 Y127.697 E.02242
G1 X138.423 Y128.186 E.02266
G1 X138.224 Y128.769 E.02341
G1 X138.203 Y129.348 E.02202
G1 X138.33 Y129.803 E.01795
G1 X138.432 Y130.011 E.0088
G1 X138.275 Y129.98 E.00608
G1 X137.716 Y129.927 E.02134
G1 X136.157 Y129.921 E.05925
G1 X136.157 Y128.104 E.06906
G1 X136.02 Y127.692 E.0165
G1 X135.746 Y127.576 E.01131
;WIDTH:0.457189
G1 X135.471 Y127.461 E.01027
;WIDTH:0.414379
G1 X114.529 Y127.461 E.64683
;WIDTH:0.420658
G1 X114.417 Y127.467 E.00352
;WIDTH:0.460329
G1 X114.198 Y127.58 E.00855
;WIDTH:0.499999
G1 X113.98 Y127.692 E.00931
G1 X113.843 Y128.104 E.0165
G1 X113.843 Y129.921 E.06906
G1 X112.21 Y129.932 E.06207
G1 X111.568 Y130.011 E.02458
G1 X111.646 Y129.874 E.00599
G1 X111.797 Y129.348 E.0208
G1 X111.776 Y128.769 E.02202
G1 X111.577 Y128.186 E.02341
G1 X111.236 Y127.697 E.02266
G1 X110.783 Y127.319 E.02242
G1 X110.394 Y127.132 E.0164
G1 X113.7 Y127.132 E.12565
G1 X114.114 Y127.111 E.01575
;WIDTH:0.457189
G1 X114.529 Y127.089 E.01432
;WIDTH:0.414379
G1 X135.471 Y127.089 E.64683
;WIDTH:0.457189
G1 X135.886 Y127.111 E.01432
;WIDTH:0.499999
G1 X136.3 Y127.132 E.01575
G1 X139.353 Y127.132 E.11603
G1 X139.537 Y127.115 E.00702
;WIDTH:0.465693
G1 X139.721 Y127.098 E.0065
;WIDTH:0.431387
G1 X139.845 Y127.086 E.00402
M204 P1000
G1 E-2.24 F2100
;WIPE_START
G1 F9600
G1 X139.727 Y127.13 E-.02617
M73 P1 R20
G1 X139.55 Y127.18 E-.03822
G1 X139.372 Y127.229 E-.03837
G1 X139.217 Y127.319 E-.03725
G1 X138.764 Y127.697 E-.12261
G1 X138.423 Y128.186 E-.12389
G1 X138.224 Y128.769 E-.12802
G1 X138.216 Y128.988 E-.04547
;WIPE_END
G1 X109.956 Y130.676 F12000
G1 E2.8 F1500
M204 P600
;TYPE:External perimeter
;WIDTH:0.38292
G1 F1200
G1 X109.207 Y130.676 E.02118
;WIDTH:0.430757
G1 X108.983 Y130.631 E.00737
;WIDTH:0.478594
G1 X108.76 Y130.586 E.00824
;WIDTH:0.524854
G1 X108.692 Y130.563 E.00288
;WIDTH:0.571114
G1 X108.624 Y130.539 E.00317
;WIDTH:0.617374
G1 X108.556 Y130.516 E.00343
;WIDTH:0.663634
G1 X108.487 Y130.493 E.00375
M204 P1000
G1 E-2.24 F2100
;WIPE_START
G1 F9600
G1 X108.556 Y130.516 E-.01511
G1 X108.624 Y130.539 E-.01492
G1 X108.692 Y130.563 E-.01499
G1 X108.76 Y130.586 E-.01492
G1 X108.983 Y130.631 E-.04728
G1 X109.207 Y130.676 E-.04748
G1 X109.956 Y130.676 E-.15565
;WIPE_END
G1 E-.24965 F2100
G1 X141.513 Y130.493 F12000
G1 E2.8 F1500
M204 P600
;WIDTH:0.663632
G1 F1200
G1 X141.398 Y130.523 E.00613
;WIDTH:0.616847
G1 X141.284 Y130.553 E.00563
;WIDTH:0.570062
G1 X141.17 Y130.582 E.00516
;WIDTH:0.523276
G1 X141.056 Y130.612 E.00471
;WIDTH:0.476491
G1 X140.941 Y130.642 E.00428
;WIDTH:0.429706
G1 X140.827 Y130.672 E.00379
;WIDTH:0.38292
G1 X140.408 Y130.7 E.01187
G1 X140.05 Y130.676 E.01014
M204 P1000
G1 E-2.24 F2100
;WIPE_START
G1 F9600
G1 X140.408 Y130.7 E-.07456
G1 X140.827 Y130.672 E-.08727
G1 X140.941 Y130.642 E-.0245
G1 X141.056 Y130.612 E-.0247
G1 X141.17 Y130.582 E-.0245
G1 X141.284 Y130.553 E-.02445
G1 X141.398 Y130.523 E-.0245
G1 X141.513 Y130.493 E-.0247
;WIPE_END
G1 E-.25082 F2100
G1 X156.145 Y125.385 F12000
G1 E2.8 F1500
M204 P600
;TYPE:Perimeter
;WIDTH:0.473236
G1 F1200
G1 X156.187 Y125.257 E.00482
;WIDTH:0.446472
G1 X156.233 Y124.74 E.01742
;WIDTH:0.414383
G1 X156.233 Y88.26 E1.12677
;WIDTH:0.417943
G1 X156.23 Y88.176 E.00262
;WIDTH:0.447634
G1 X156.193 Y87.874 E.01024
;WIDTH:0.477325
G1 X156.157 Y87.571 E.01102
;WIDTH:0.499999
G1 X155.905 Y86.996 E.02386
G1 X155.505 Y86.512 E.02386
G1 X154.993 Y86.149 E.02385
G1 X154.405 Y85.931 E.02383
G1 X153.884 Y85.868 E.01995
G1 X96.116 Y85.868 E2.19555
G1 X96.027 Y85.874 E.00339
G1 X95.423 Y85.977 E.02329
G1 X94.852 Y86.239 E.02388
G1 X94.368 Y86.639 E.02386
G1 X94.005 Y87.151 E.02385
G1 X93.909 Y87.447 E.01183
;WIDTH:0.473233
G1 X93.813 Y87.743 E.01113
;WIDTH:0.446466
G1 X93.767 Y88.26 E.01742
;WIDTH:0.41438
G1 X93.767 Y124.74 E1.12676
;WIDTH:0.417939
G1 X93.77 Y124.824 E.00262
;WIDTH:0.445888
G1 X93.808 Y125.126 E.0102
;WIDTH:0.473836
G1 X93.845 Y125.428 E.0109
;WIDTH:0.499999
G1 X94.095 Y126.004 E.02386
G1 X94.495 Y126.488 E.02386
G1 X95.007 Y126.851 E.02385
G1 X95.303 Y126.947 E.01183
;WIDTH:0.473232
G1 X95.599 Y127.043 E.01113
;WIDTH:0.446465
G1 X96.116 Y127.089 E.01742
;WIDTH:0.41438
G1 X105.942 Y127.089 E.3035
;WIDTH:0.457189
G1 X106.296 Y127.111 E.01222
;WIDTH:0.499999
G1 X106.651 Y127.132 E.01352
G1 X108.509 Y127.132 E.07062
G1 X108.693 Y127.115 E.00702
;WIDTH:0.465712
G1 X108.878 Y127.098 E.00653
;WIDTH:0.431424
G1 X109.062 Y127.081 E.00597
G1 X108.884 Y127.13 E.00596
;WIDTH:0.465712
G1 X108.706 Y127.18 E.0065
;WIDTH:0.499999
G1 X108.529 Y127.23 E.00699
G1 X108.37 Y127.322 E.00698
G1 X107.91 Y127.717 E.02304
G1 X107.573 Y128.256 E.02416
G1 X107.449 Y128.695 E.01734
G1 X106.438 Y127.63 E.05581
G1 X106.19 Y127.545 E.00996
;WIDTH:0.457189
G1 X105.942 Y127.461 E.00902
;WIDTH:0.41438
G1 X96.116 Y127.461 E.3035
;WIDTH:0.446465
G1 X95.573 Y127.445 E.01823
;WIDTH:0.473232
G1 X95.233 Y127.431 E.01218
;WIDTH:0.499999
G1 X94.894 Y127.418 E.01289
G1 X93.614 Y127.418 E.04865
G1 X93.438 Y127.242 E.00946
G1 X93.438 Y125.962 E.04865
G1 X93.425 Y125.623 E.01289
;WIDTH:0.473233
G1 X93.411 Y125.283 E.01218
;WIDTH:0.446466
G1 X93.395 Y124.74 E.01823
;WIDTH:0.41438
G1 X93.395 Y88.26 E1.12676
;WIDTH:0.446466
G1 X93.411 Y87.717 E.01823
;WIDTH:0.473233
G1 X93.425 Y87.377 E.01218
;WIDTH:0.499999
G1 X93.438 Y87.038 E.01289
G1 X93.438 Y82.758 E.16267
G1 X93.614 Y82.582 E.00946
G1 X105.942 Y82.582 E.46854
G1 X106.06 Y82.572 E.0045
G1 X106.286 Y82.49 E.00914
G1 X106.429 Y82.379 E.00688
M73 P2 R20
G1 X107.116 Y81.685 E.03711
G1 X107.452 Y81.27 E.02029
G1 X107.562 Y81.709 E.0172
G1 X107.672 Y81.949 E.01003
G1 X108.047 Y82.425 E.02303
G1 X108.529 Y82.77 E.02253
G1 X109.082 Y82.974 E.0224
G1 X109.668 Y83.028 E.02237
G1 X110.248 Y82.928 E.02237
G1 X110.783 Y82.681 E.0224
G1 X111.236 Y82.303 E.02242
G1 X111.577 Y81.814 E.02266
G1 X111.775 Y81.231 E.0234
G1 X111.797 Y80.652 E.02202
G1 X111.67 Y80.197 E.01795
G1 X111.568 Y79.989 E.0088
G1 X111.725 Y80.02 E.00608
G1 X112.284 Y80.073 E.02134
G1 X113.843 Y80.079 E.05925
G1 X113.843 Y81.479 E.05321
G1 X113.856 Y82.027 E.02083
G1 X113.982 Y82.31 E.01177
G1 X114.257 Y82.526 E.01329
G1 X114.529 Y82.582 E.01055
G1 X135.471 Y82.582 E.79593
G1 X135.743 Y82.526 E.01055
G1 X135.955 Y82.382 E.00974
G1 X136.084 Y82.204 E.00835
G1 X136.157 Y81.896 E.01203
G1 X136.157 Y80.079 E.06906
G1 X137.79 Y80.068 E.06207
G1 X138.432 Y79.989 E.02458
G1 X138.354 Y80.126 E.00599
G1 X138.203 Y80.652 E.0208
G1 X138.224 Y81.231 E.02202
G1 X138.293 Y81.487 E.01008
G1 X138.515 Y81.977 E.02045
G1 X138.892 Y82.431 E.02243
G1 X139.372 Y82.771 E.02236
G1 X139.925 Y82.975 E.0224
G1 X140.422 Y83.034 E.01902
G1 X140.947 Y82.97 E.0201
G1 X141.471 Y82.77 E.02132
G1 X141.693 Y82.628 E.01002
G1 X142.09 Y82.283 E.01999
G1 X142.427 Y81.744 E.02416
G1 X142.551 Y81.305 E.01734
G1 X143.107 Y81.893 E.03076
G1 X143.714 Y82.49 E.03236
G1 X144.058 Y82.582 E.01353
G1 X156.386 Y82.582 E.46854
G1 X156.562 Y82.758 E.00946
G1 X156.562 Y82.882 E.00471
G1 X156.562 Y87.038 E.15795
G1 X156.575 Y87.377 E.01289
;WIDTH:0.473236
G1 X156.589 Y87.717 E.01218
;WIDTH:0.446472
G1 X156.605 Y88.26 E.01823
;WIDTH:0.414383
G1 X156.605 Y124.74 E1.12677
;WIDTH:0.449283
G1 X156.587 Y125.32 E.01961
;WIDTH:0.474641
G1 X156.575 Y125.641 E.01153
;WIDTH:0.499999
G1 X156.562 Y125.962 E.01221
G1 X156.562 Y127.242 E.04865
G1 X156.386 Y127.418 E.00946
G1 X155.106 Y127.418 E.04865
G1 X154.767 Y127.431 E.01289
;WIDTH:0.473232
G1 X154.427 Y127.445 E.01218
;WIDTH:0.446465
G1 X153.884 Y127.461 E.01823
;WIDTH:0.41438
G1 X144.058 Y127.461 E.3035
;WIDTH:0.420658
G1 X143.947 Y127.467 E.00349
;WIDTH:0.460329
G1 X143.759 Y127.544 E.00705
;WIDTH:0.499999
G1 X143.571 Y127.621 E.00772
G1 X142.884 Y128.315 E.03711
G1 X142.548 Y128.73 E.02029
G1 X142.413 Y128.213 E.02031
G1 X142.09 Y127.717 E.0225
G1 X141.63 Y127.322 E.02304
G1 X141.236 Y127.132 E.01662
G1 X143.367 Y127.132 E.08099
G1 X143.712 Y127.111 E.01314
;WIDTH:0.457189
G1 X144.058 Y127.089 E.01194
;WIDTH:0.41438
G1 X153.884 Y127.089 E.3035
;WIDTH:0.417939
G1 X153.968 Y127.086 E.00262
;WIDTH:0.445888
G1 X154.27 Y127.048 E.0102
;WIDTH:0.473837
G1 X154.572 Y127.011 E.0109
;WIDTH:0.499999
G1 X155.148 Y126.761 E.02386
G1 X155.632 Y126.361 E.02386
G1 X155.995 Y125.849 E.02385
G1 X156.091 Y125.553 E.01183
;WIDTH:0.473236
G1 X156.127 Y125.442 E.00418
M204 P1000
G1 E-2.24 F2100
;WIPE_START
G1 F9600
G1 X156.187 Y125.257 E-.04042
G1 X156.233 Y124.74 E-.10786
G1 X156.233 Y122.759 E-.41172
;WIPE_END
G1 X135.471 Y82.125 F12000
G1 E2.8 F1500
M204 P600
;TYPE:External perimeter
;WIDTH:0.499999
G1 F1200
G1 X135.633 Y82.058 E.00666
G1 X135.7 Y81.896 E.00666
G1 X135.7 Y79.624 E.08635
G1 X137.744 Y79.613 E.07769
G1 X138.26 Y79.56 E.01971
G1 X138.761 Y79.446 E.01953
G1 X139.572 Y79.425 E.03083
G1 X139.273 Y79.663 E.01452
G1 X138.81 Y80.244 E.02824
G1 X138.658 Y80.71 E.01863
G1 X138.68 Y81.197 E.01853
G1 X138.848 Y81.645 E.01818
G1 X139.127 Y82.026 E.01795
G1 X139.496 Y82.319 E.01791
G1 X139.927 Y82.506 E.01786
G1 X140.392 Y82.575 E.01787
G1 X140.859 Y82.521 E.01787
G1 X141.296 Y82.348 E.01786
G1 X141.672 Y82.065 E.01789
G1 X141.955 Y81.684 E.01804
G1 X142.102 Y81.227 E.01825
G1 X142.064 Y80.744 E.01841
G1 X141.967 Y80.361 E.01502
G1 X141.891 Y80.237 E.00553
;WIDTH:0.457044
G1 X141.816 Y80.113 E.00499
;WIDTH:0.414089
G1 X141.74 Y79.989 E.00449
;WIDTH:0.419883
G1 X141.702 Y79.909 E.00278
;WIDTH:0.468632
G1 X141.664 Y79.828 E.00317
;WIDTH:0.517381
G1 X141.626 Y79.748 E.00349
;WIDTH:0.56613
G1 X141.588 Y79.668 E.00385
;WIDTH:0.614879
G1 X141.55 Y79.587 E.00426
;WIDTH:0.663628
G1 X141.513 Y79.507 E.00455
G1 X141.568 Y79.532 E.00312
;WIDTH:0.620703
G1 X141.624 Y79.558 E.00297
;WIDTH:0.577777
G1 X141.68 Y79.583 E.00273
;WIDTH:0.534852
G1 X141.735 Y79.608 E.00247
;WIDTH:0.491926
G1 X141.791 Y79.634 E.00231
;WIDTH:0.449001
G1 X141.847 Y79.659 E.00207
;WIDTH:0.406075
G1 X141.903 Y79.684 E.00185
;WIDTH:0.408766
G1 X142.02 Y79.834 E.00579
;WIDTH:0.454383
G1 X142.137 Y79.983 E.00648
;WIDTH:0.499999
G1 X142.583 Y80.55 E.02742
G1 X142.912 Y81.027 E.02202
G1 X143.893 Y82.054 E.05398
G1 X144.058 Y82.125 E.00683
G1 X156.575 Y82.125 E.47572
G1 X157.019 Y82.569 E.02386
G1 X157.019 Y82.882 E.0119
G1 X157.019 Y127.431 E1.69314
G1 X156.575 Y127.875 E.02386
G1 X144.058 Y127.875 E.47572
G1 X143.896 Y127.943 E.00668
G1 X143.411 Y128.433 E.0262
G1 X142.963 Y128.943 E.0258
G1 X142.137 Y130.017 E.05149
;WIDTH:0.454383
G1 X142.02 Y130.166 E.00648
;WIDTH:0.408766
G1 X141.903 Y130.316 E.00579
;WIDTH:0.406076
G1 X141.847 Y130.341 E.00185
;WIDTH:0.449002
M73 P3 R20
G1 X141.791 Y130.366 E.00207
;WIDTH:0.491928
G1 X141.735 Y130.392 E.00231
;WIDTH:0.534854
G1 X141.68 Y130.417 E.00247
;WIDTH:0.57778
G1 X141.624 Y130.442 E.00273
;WIDTH:0.620706
G1 X141.568 Y130.468 E.00297
;WIDTH:0.663632
G1 X141.513 Y130.493 E.00312
G1 X141.534 Y130.438 E.00304
;WIDTH:0.620706
G1 X141.555 Y130.382 E.00287
;WIDTH:0.57778
G1 X141.577 Y130.327 E.00263
;WIDTH:0.534854
G1 X141.598 Y130.271 E.00245
;WIDTH:0.491928
G1 X141.62 Y130.216 E.00221
;WIDTH:0.449002
G1 X141.641 Y130.16 E.00202
;WIDTH:0.406076
G1 X141.662 Y130.105 E.00178
;WIDTH:0.408766
G1 X141.761 Y129.96 E.00534
;WIDTH:0.454383
G1 X141.859 Y129.814 E.00602
;WIDTH:0.499999
G1 X141.957 Y129.669 E.00665
G1 X141.995 Y129.53 E.00548
G1 X142.11 Y128.864 E.02569
G1 X141.999 Y128.419 E.01743
G1 X141.718 Y127.983 E.01971
G1 X141.349 Y127.683 E.01807
G1 X140.917 Y127.494 E.01792
G1 X140.451 Y127.425 E.0179
G1 X139.985 Y127.479 E.01783
G1 X139.547 Y127.651 E.01788
G1 X139.17 Y127.931 E.01785
G1 X138.878 Y128.3 E.01788
G1 X138.693 Y128.743 E.01825
G1 X138.653 Y129.267 E.01997
G1 X138.81 Y129.756 E.01952
G1 X139.273 Y130.338 E.02827
G1 X139.579 Y130.575 E.01471
G1 X139.25 Y130.575 E.0125
G1 X138.732 Y130.552 E.01971
G1 X138.23 Y130.435 E.01959
G1 X137.714 Y130.385 E.0197
G1 X135.7 Y130.376 E.07655
G1 X135.7 Y128.218 E.08202
G1 X135.654 Y127.966 E.00974
G1 X135.471 Y127.875 E.00777
G1 X114.529 Y127.875 E.79593
G1 X114.346 Y127.966 E.00777
G1 X114.3 Y128.104 E.00553
G1 X114.3 Y130.376 E.08635
G1 X112.256 Y130.387 E.07769
G1 X111.74 Y130.44 E.01971
G1 X111.238 Y130.554 E.01956
G1 X110.428 Y130.575 E.0308
G1 X110.727 Y130.337 E.01452
G1 X111.19 Y129.756 E.02824
G1 X111.342 Y129.29 E.01863
G1 X111.32 Y128.803 E.01853
G1 X111.152 Y128.355 E.01818
G1 X110.873 Y127.974 E.01795
G1 X110.504 Y127.681 E.01791
G1 X110.073 Y127.494 E.01786
G1 X109.608 Y127.425 E.01787
G1 X109.141 Y127.479 E.01787
G1 X108.704 Y127.652 E.01786
G1 X108.328 Y127.935 E.01789
G1 X108.077 Y128.271 E.01594
G1 X107.898 Y128.773 E.02026
G1 X107.936 Y129.256 E.01841
G1 X108.033 Y129.639 E.01502
G1 X108.109 Y129.763 E.00553
;WIDTH:0.457046
G1 X108.184 Y129.887 E.00499
;WIDTH:0.414093
G1 X108.26 Y130.011 E.00449
;WIDTH:0.419888
G1 X108.298 Y130.091 E.00278
;WIDTH:0.468638
G1 X108.336 Y130.172 E.00317
;WIDTH:0.517387
G1 X108.374 Y130.252 E.00349
;WIDTH:0.566136
G1 X108.412 Y130.332 E.00385
;WIDTH:0.614885
G1 X108.45 Y130.413 E.00426
;WIDTH:0.663634
G1 X108.487 Y130.493 E.00455
G1 X108.432 Y130.468 E.00312
;WIDTH:0.620708
G1 X108.376 Y130.442 E.00297
;WIDTH:0.577782
G1 X108.32 Y130.417 E.00273
;WIDTH:0.534856
G1 X108.265 Y130.392 E.00247
;WIDTH:0.49193
G1 X108.209 Y130.366 E.00231
;WIDTH:0.449004
G1 X108.153 Y130.341 E.00207
;WIDTH:0.406078
G1 X108.097 Y130.316 E.00185
;WIDTH:0.408768
G1 X107.98 Y130.166 E.00579
;WIDTH:0.454384
G1 X107.863 Y130.017 E.00648
;WIDTH:0.499999
G1 X107.417 Y129.45 E.02742
G1 X107.088 Y128.973 E.02202
G1 X106.107 Y127.946 E.05398
